(Exported by FreeCAD)
(Post Processor: grbl_post)
(Output Time:2023-01-06 17:41:58.357849)
(Begin preamble)
G17 G90
G21
(Begin operation: G54)
(Path: G54)
G54
G0 Z6.000
(Finish operation: G54)
(Begin operation: 3_175_enmill009)
(Path: 3_175_enmill009)
(3_175_enmill009)
(Begin toolchange)
( M6 T2 )
M3 S18000
(Finish operation: 3_175_enmill009)
(Begin operation: Drilling011)
(Path: Drilling011)
(Drilling011)
(Begin Drilling)
G0 Z6.000
G90
G98
G0 X48.210 Y-1.340
G0 Z4.000
G81 X48.210 Y-1.340 Z-6.000 F200.000 R4.000
G0 X70.710 Y-1.290
G0 Z4.000
G81 X70.710 Y-1.290 Z-6.000 F200.000 R4.000
G0 X-1.220 Y59.300
G0 Z4.000
G81 X-1.220 Y59.300 Z-6.000 F200.000 R4.000
G0 X-1.300 Y81.970
G0 Z4.000
G81 X-1.300 Y81.970 Z-6.000 F200.000 R4.000
G0 X167.190 Y-1.380
G0 Z4.000
G81 X167.190 Y-1.380 Z-6.000 F200.000 R4.000
G0 X189.710 Y-1.360
G0 Z4.000
G81 X189.710 Y-1.360 Z-6.000 F200.000 R4.000
G0 X239.290 Y59.280
G0 Z4.000
G81 X239.290 Y59.280 Z-6.000 F200.000 R4.000
G0 X239.170 Y81.800
G0 Z4.000
G81 X239.170 Y81.800 Z-6.000 F200.000 R4.000
G80
G0 Z4.000
G0 Z6.000
(Finish operation: Drilling011)
(Begin operation: Drilling012)
(Path: Drilling012)
(Drilling012)
(Begin Drilling)
G0 Z6.000
G90
G98
G0 X-0.020 Y133.330
G0 Z4.000
G81 X-0.020 Y133.330 Z-3.000 F200.000 R4.000
G0 X-0.020 Y136.680
G0 Z4.000
G81 X-0.020 Y136.680 Z-3.000 F200.000 R4.000
G0 X237.870 Y133.370
G0 Z4.000
G81 X237.870 Y133.370 Z-3.000 F200.000 R4.000
G0 X237.900 Y136.560
G0 Z4.000
G81 X237.900 Y136.560 Z-3.000 F200.000 R4.000
G80
G0 Z4.000
G0 Z6.000
(Finish operation: Drilling012)
(Begin operation: Pocket_Shape003)
(Path: Pocket_Shape003)
(Pocket_Shape003)
G0 Z6.000
G0 X236.615 Y136.615
G0 Z4.000
G1 X236.615 Y136.615 Z0.000 F200.000
G1 X1.385 Y136.615 Z0.000 F400.000
G1 X1.385 Y133.385 Z0.000 F400.000
G1 X236.615 Y133.385 Z0.000 F400.000
G1 X236.615 Y136.615 Z0.000 F400.000
G0 Z6.000
G0 X235.923 Y135.923 Z6.000
G0 X235.923 Y135.923 Z4.000
G1 X235.923 Y135.923 Z0.000 F200.000
G1 X2.077 Y135.923 Z0.000 F400.000
G1 X2.077 Y134.077 Z0.000 F400.000
G1 X235.923 Y134.077 Z0.000 F400.000
G1 X235.923 Y135.923 Z0.000 F400.000
G0 Z6.000
G0 X235.230 Y135.230 Z6.000
G0 X235.230 Y135.230 Z4.000
G1 X235.230 Y135.230 Z0.000 F200.000
G1 X2.770 Y135.230 Z0.000 F400.000
G1 X2.770 Y134.770 Z0.000 F400.000
G1 X235.230 Y134.770 Z0.000 F400.000
G1 X235.230 Y135.230 Z0.000 F400.000
G1 X235.230 Y135.230 Z-1.000 F200.000
G1 X2.770 Y135.230 Z-1.000 F400.000
G1 X2.770 Y134.770 Z-1.000 F400.000
G1 X235.230 Y134.770 Z-1.000 F400.000
G1 X235.230 Y135.230 Z-1.000 F400.000
G0 Z6.000
G0 Y135.923 Z6.000
G0 Y135.923 Z4.000
G1 X235.230 Y135.923 Z-1.000 F200.000
G1 X2.077 Y135.923 Z-1.000 F400.000
G1 X2.077 Y134.077 Z-1.000 F400.000
G1 X235.923 Y134.077 Z-1.000 F400.000
G1 X235.923 Y135.923 Z-1.000 F400.000
G1 X235.230 Y135.923 Z-1.000 F400.000
G0 Z6.000
G0 Y136.615 Z6.000
G0 Y136.615 Z4.000
G1 X235.230 Y136.615 Z-1.000 F200.000
G1 X1.385 Y136.615 Z-1.000 F400.000
G1 X1.385 Y133.385 Z-1.000 F400.000
G1 X236.615 Y133.385 Z-1.000 F400.000
G1 X236.615 Y136.615 Z-1.000 F400.000
G1 X235.230 Y136.615 Z-1.000 F400.000
G1 X235.230 Y136.615 Z-2.000 F200.000
G1 X1.385 Y136.615 Z-2.000 F400.000
G1 X1.385 Y133.385 Z-2.000 F400.000
G1 X236.615 Y133.385 Z-2.000 F400.000
G1 X236.615 Y136.615 Z-2.000 F400.000
G1 X235.230 Y136.615 Z-2.000 F400.000
G0 Z6.000
G0 Y135.923 Z6.000
G0 Y135.923 Z4.000
G1 X235.230 Y135.923 Z-2.000 F200.000
G1 X2.077 Y135.923 Z-2.000 F400.000
G1 X2.077 Y134.077 Z-2.000 F400.000
G1 X235.923 Y134.077 Z-2.000 F400.000
G1 X235.923 Y135.923 Z-2.000 F400.000
G1 X235.230 Y135.923 Z-2.000 F400.000
G0 Z6.000
G0 Y135.230 Z6.000
G0 Y135.230 Z4.000
G1 X235.230 Y135.230 Z-2.000 F200.000
G1 X2.770 Y135.230 Z-2.000 F400.000
G1 X2.770 Y134.770 Z-2.000 F400.000
G1 X235.230 Y134.770 Z-2.000 F400.000
G1 X235.230 Y135.230 Z-2.000 F400.000
G1 X235.230 Y135.230 Z-3.000 F200.000
G1 X2.770 Y135.230 Z-3.000 F400.000
G1 X2.770 Y134.770 Z-3.000 F400.000
G1 X235.230 Y134.770 Z-3.000 F400.000
G1 X235.230 Y135.230 Z-3.000 F400.000
G0 Z6.000
G0 Y135.923 Z6.000
G0 Y135.923 Z4.000
G1 X235.230 Y135.923 Z-3.000 F200.000
G1 X2.077 Y135.923 Z-3.000 F400.000
G1 X2.077 Y134.077 Z-3.000 F400.000
G1 X235.923 Y134.077 Z-3.000 F400.000
G1 X235.923 Y135.923 Z-3.000 F400.000
G1 X235.230 Y135.923 Z-3.000 F400.000
G0 Z6.000
G0 Y136.615 Z6.000
G0 Y136.615 Z4.000
G1 X235.230 Y136.615 Z-3.000 F200.000
G1 X1.385 Y136.615 Z-3.000 F400.000
G1 X1.385 Y133.385 Z-3.000 F400.000
G1 X236.615 Y133.385 Z-3.000 F400.000
G1 X236.615 Y136.615 Z-3.000 F400.000
G1 X235.230 Y136.615 Z-3.000 F400.000
G0 Z6.000
G0 Z6.000
(Finish operation: Pocket_Shape003)
(Begin operation: Profile006)
(Path: Profile006)
(Profile006)
(Compensated Tool Path. Diameter: 3.17)
G0 Z6.000
G0 X239.551 Y144.324
G0 Z4.000
G1 X239.551 Y144.324 Z0.000 F200.000
G2 X239.585 Y144.000 Z0.000 I-1.551 J-0.324 K0.000 F400.000
G1 X239.585 Y82.245 Z0.000 F400.000
G1 X244.000 Y82.245 Z0.000 F400.000
G2 X245.585 Y80.660 Z0.000 I-0.000 J-1.585 K0.000 F400.000
G1 X245.585 Y60.660 Z0.000 F400.000
G2 X244.000 Y59.075 Z0.000 I-1.585 J0.000 K0.000 F400.000
G1 X239.585 Y59.075 Z0.000 F400.000
G1 X239.585 Y0.000 Z0.000 F400.000
G2 X238.000 Y-1.585 Z0.000 I-1.585 J0.000 K0.000 F400.000
G1 X190.085 Y-1.585 Z0.000 F400.000
G1 X190.085 Y-6.000 Z0.000 F400.000
G2 X188.500 Y-7.585 Z0.000 I-1.585 J0.000 K0.000 F400.000
G1 X168.500 Y-7.585 Z0.000 F400.000
G2 X166.915 Y-6.000 Z0.000 I0.000 J1.585 K0.000 F400.000
G1 X166.915 Y-1.585 Z0.000 F400.000
G1 X71.085 Y-1.585 Z0.000 F400.000
G1 X71.085 Y-6.000 Z0.000 F400.000
G2 X69.500 Y-7.585 Z0.000 I-1.585 J0.000 K0.000 F400.000
G1 X49.500 Y-7.585 Z0.000 F400.000
G2 X47.915 Y-6.000 Z0.000 I0.000 J1.585 K0.000 F400.000
G1 X47.915 Y-1.585 Z0.000 F400.000
G1 X0.000 Y-1.585 Z0.000 F400.000
G2 X-1.585 Y0.000 Z0.000 I0.000 J1.585 K0.000 F400.000
G1 X-1.585 Y59.075 Z0.000 F400.000
G1 X-6.000 Y59.075 Z0.000 F400.000
G2 X-7.585 Y60.660 Z0.000 I0.000 J1.585 K0.000 F400.000
G1 X-7.585 Y80.660 Z0.000 F400.000
G2 X-6.000 Y82.245 Z0.000 I1.585 J0.000 K0.000 F400.000
G1 X-1.585 Y82.245 Z0.000 F400.000
G1 X-1.585 Y144.000 Z0.000 F400.000
G2 X0.000 Y145.585 Z0.000 I1.585 J-0.000 K0.000 F400.000
G1 X238.000 Y145.585 Z0.000 F400.000
G2 X239.551 Y144.324 Z0.000 I-0.000 J-1.585 K0.000 F400.000
G1 X239.551 Y144.324 Z-1.000 F200.000
G2 X239.585 Y144.000 Z-1.000 I-1.551 J-0.324 K0.000 F400.000
G1 X239.585 Y82.245 Z-1.000 F400.000
G1 X244.000 Y82.245 Z-1.000 F400.000
G2 X245.585 Y80.660 Z-1.000 I-0.000 J-1.585 K0.000 F400.000
G1 X245.585 Y60.660 Z-1.000 F400.000
G2 X244.000 Y59.075 Z-1.000 I-1.585 J0.000 K0.000 F400.000
G1 X239.585 Y59.075 Z-1.000 F400.000
G1 X239.585 Y0.000 Z-1.000 F400.000
G2 X238.000 Y-1.585 Z-1.000 I-1.585 J0.000 K0.000 F400.000
G1 X190.085 Y-1.585 Z-1.000 F400.000
G1 X190.085 Y-6.000 Z-1.000 F400.000
G2 X188.500 Y-7.585 Z-1.000 I-1.585 J0.000 K0.000 F400.000
G1 X168.500 Y-7.585 Z-1.000 F400.000
G2 X166.915 Y-6.000 Z-1.000 I0.000 J1.585 K0.000 F400.000
G1 X166.915 Y-1.585 Z-1.000 F400.000
G1 X71.085 Y-1.585 Z-1.000 F400.000
G1 X71.085 Y-6.000 Z-1.000 F400.000
G2 X69.500 Y-7.585 Z-1.000 I-1.585 J0.000 K0.000 F400.000
G1 X49.500 Y-7.585 Z-1.000 F400.000
G2 X47.915 Y-6.000 Z-1.000 I0.000 J1.585 K0.000 F400.000
G1 X47.915 Y-1.585 Z-1.000 F400.000
G1 X0.000 Y-1.585 Z-1.000 F400.000
G2 X-1.585 Y0.000 Z-1.000 I0.000 J1.585 K0.000 F400.000
G1 X-1.585 Y59.075 Z-1.000 F400.000
G1 X-6.000 Y59.075 Z-1.000 F400.000
G2 X-7.585 Y60.660 Z-1.000 I0.000 J1.585 K0.000 F400.000
G1 X-7.585 Y80.660 Z-1.000 F400.000
G2 X-6.000 Y82.245 Z-1.000 I1.585 J0.000 K0.000 F400.000
G1 X-1.585 Y82.245 Z-1.000 F400.000
G1 X-1.585 Y144.000 Z-1.000 F400.000
G2 X0.000 Y145.585 Z-1.000 I1.585 J-0.000 K0.000 F400.000
G1 X238.000 Y145.585 Z-1.000 F400.000
G2 X239.551 Y144.324 Z-1.000 I-0.000 J-1.585 K0.000 F400.000
G1 X239.551 Y144.324 Z-2.000 F200.000
G2 X239.585 Y144.000 Z-2.000 I-1.551 J-0.324 K0.000 F400.000
G1 X239.585 Y82.245 Z-2.000 F400.000
G1 X244.000 Y82.245 Z-2.000 F400.000
G2 X245.585 Y80.660 Z-2.000 I-0.000 J-1.585 K0.000 F400.000
G1 X245.585 Y60.660 Z-2.000 F400.000
G2 X244.000 Y59.075 Z-2.000 I-1.585 J0.000 K0.000 F400.000
G1 X239.585 Y59.075 Z-2.000 F400.000
G1 X239.585 Y0.000 Z-2.000 F400.000
G2 X238.000 Y-1.585 Z-2.000 I-1.585 J0.000 K0.000 F400.000
G1 X190.085 Y-1.585 Z-2.000 F400.000
G1 X190.085 Y-6.000 Z-2.000 F400.000
G2 X188.500 Y-7.585 Z-2.000 I-1.585 J0.000 K0.000 F400.000
G1 X168.500 Y-7.585 Z-2.000 F400.000
G2 X166.915 Y-6.000 Z-2.000 I0.000 J1.585 K0.000 F400.000
G1 X166.915 Y-1.585 Z-2.000 F400.000
G1 X71.085 Y-1.585 Z-2.000 F400.000
G1 X71.085 Y-6.000 Z-2.000 F400.000
G2 X69.500 Y-7.585 Z-2.000 I-1.585 J0.000 K0.000 F400.000
G1 X49.500 Y-7.585 Z-2.000 F400.000
G2 X47.915 Y-6.000 Z-2.000 I0.000 J1.585 K0.000 F400.000
G1 X47.915 Y-1.585 Z-2.000 F400.000
G1 X0.000 Y-1.585 Z-2.000 F400.000
G2 X-1.585 Y0.000 Z-2.000 I0.000 J1.585 K0.000 F400.000
G1 X-1.585 Y59.075 Z-2.000 F400.000
G1 X-6.000 Y59.075 Z-2.000 F400.000
G2 X-7.585 Y60.660 Z-2.000 I0.000 J1.585 K0.000 F400.000
G1 X-7.585 Y80.660 Z-2.000 F400.000
G2 X-6.000 Y82.245 Z-2.000 I1.585 J0.000 K0.000 F400.000
G1 X-1.585 Y82.245 Z-2.000 F400.000
G1 X-1.585 Y144.000 Z-2.000 F400.000
G2 X0.000 Y145.585 Z-2.000 I1.585 J-0.000 K0.000 F400.000
G1 X238.000 Y145.585 Z-2.000 F400.000
G2 X239.551 Y144.324 Z-2.000 I-0.000 J-1.585 K0.000 F400.000
G1 X239.551 Y144.324 Z-3.000 F200.000
G2 X239.585 Y144.000 Z-3.000 I-1.551 J-0.324 K0.000 F400.000
G1 X239.585 Y82.245 Z-3.000 F400.000
G1 X244.000 Y82.245 Z-3.000 F400.000
G2 X245.585 Y80.660 Z-3.000 I-0.000 J-1.585 K0.000 F400.000
G1 X245.585 Y60.660 Z-3.000 F400.000
G2 X244.000 Y59.075 Z-3.000 I-1.585 J0.000 K0.000 F400.000
G1 X239.585 Y59.075 Z-3.000 F400.000
G1 X239.585 Y0.000 Z-3.000 F400.000
G2 X238.000 Y-1.585 Z-3.000 I-1.585 J0.000 K0.000 F400.000
G1 X190.085 Y-1.585 Z-3.000 F400.000
G1 X190.085 Y-6.000 Z-3.000 F400.000
G2 X188.500 Y-7.585 Z-3.000 I-1.585 J0.000 K0.000 F400.000
G1 X168.500 Y-7.585 Z-3.000 F400.000
G2 X166.915 Y-6.000 Z-3.000 I0.000 J1.585 K0.000 F400.000
G1 X166.915 Y-1.585 Z-3.000 F400.000
G1 X71.085 Y-1.585 Z-3.000 F400.000
G1 X71.085 Y-6.000 Z-3.000 F400.000
G2 X69.500 Y-7.585 Z-3.000 I-1.585 J0.000 K0.000 F400.000
G1 X49.500 Y-7.585 Z-3.000 F400.000
G2 X47.915 Y-6.000 Z-3.000 I0.000 J1.585 K0.000 F400.000
G1 X47.915 Y-1.585 Z-3.000 F400.000
G1 X0.000 Y-1.585 Z-3.000 F400.000
G2 X-1.585 Y0.000 Z-3.000 I0.000 J1.585 K0.000 F400.000
G1 X-1.585 Y59.075 Z-3.000 F400.000
G1 X-6.000 Y59.075 Z-3.000 F400.000
G2 X-7.585 Y60.660 Z-3.000 I0.000 J1.585 K0.000 F400.000
G1 X-7.585 Y80.660 Z-3.000 F400.000
G2 X-6.000 Y82.245 Z-3.000 I1.585 J0.000 K0.000 F400.000
G1 X-1.585 Y82.245 Z-3.000 F400.000
G1 X-1.585 Y144.000 Z-3.000 F400.000
G2 X0.000 Y145.585 Z-3.000 I1.585 J-0.000 K0.000 F400.000
G1 X238.000 Y145.585 Z-3.000 F400.000
G2 X239.551 Y144.324 Z-3.000 I-0.000 J-1.585 K0.000 F400.000
G1 X239.551 Y144.324 Z-4.000 F200.000
G2 X239.585 Y144.000 Z-4.000 I-1.551 J-0.324 K0.000 F400.000
G1 X239.585 Y82.245 Z-4.000 F400.000
G1 X244.000 Y82.245 Z-4.000 F400.000
G2 X245.585 Y80.660 Z-4.000 I-0.000 J-1.585 K0.000 F400.000
G1 X245.585 Y60.660 Z-4.000 F400.000
G2 X244.000 Y59.075 Z-4.000 I-1.585 J0.000 K0.000 F400.000
G1 X239.585 Y59.075 Z-4.000 F400.000
G1 X239.585 Y0.000 Z-4.000 F400.000
G2 X238.000 Y-1.585 Z-4.000 I-1.585 J0.000 K0.000 F400.000
G1 X190.085 Y-1.585 Z-4.000 F400.000
G1 X190.085 Y-6.000 Z-4.000 F400.000
G2 X188.500 Y-7.585 Z-4.000 I-1.585 J0.000 K0.000 F400.000
G1 X168.500 Y-7.585 Z-4.000 F400.000
G2 X166.915 Y-6.000 Z-4.000 I0.000 J1.585 K0.000 F400.000
G1 X166.915 Y-1.585 Z-4.000 F400.000
G1 X71.085 Y-1.585 Z-4.000 F400.000
G1 X71.085 Y-6.000 Z-4.000 F400.000
G2 X69.500 Y-7.585 Z-4.000 I-1.585 J0.000 K0.000 F400.000
G1 X49.500 Y-7.585 Z-4.000 F400.000
G2 X47.915 Y-6.000 Z-4.000 I0.000 J1.585 K0.000 F400.000
G1 X47.915 Y-1.585 Z-4.000 F400.000
G1 X0.000 Y-1.585 Z-4.000 F400.000
G2 X-1.585 Y0.000 Z-4.000 I0.000 J1.585 K0.000 F400.000
G1 X-1.585 Y59.075 Z-4.000 F400.000
G1 X-6.000 Y59.075 Z-4.000 F400.000
G2 X-7.585 Y60.660 Z-4.000 I0.000 J1.585 K0.000 F400.000
G1 X-7.585 Y80.660 Z-4.000 F400.000
G2 X-6.000 Y82.245 Z-4.000 I1.585 J0.000 K0.000 F400.000
G1 X-1.585 Y82.245 Z-4.000 F400.000
G1 X-1.585 Y144.000 Z-4.000 F400.000
G2 X0.000 Y145.585 Z-4.000 I1.585 J-0.000 K0.000 F400.000
G1 X238.000 Y145.585 Z-4.000 F400.000
G2 X239.551 Y144.324 Z-4.000 I-0.000 J-1.585 K0.000 F400.000
G1 X239.551 Y144.324 Z-5.000 F200.000
G2 X239.585 Y144.000 Z-5.000 I-1.551 J-0.324 K0.000 F400.000
G1 X239.585 Y82.245 Z-5.000 F400.000
G1 X244.000 Y82.245 Z-5.000 F400.000
G2 X245.585 Y80.660 Z-5.000 I-0.000 J-1.585 K0.000 F400.000
G1 X245.585 Y60.660 Z-5.000 F400.000
G2 X244.000 Y59.075 Z-5.000 I-1.585 J0.000 K0.000 F400.000
G1 X239.585 Y59.075 Z-5.000 F400.000
G1 X239.585 Y0.000 Z-5.000 F400.000
G2 X238.000 Y-1.585 Z-5.000 I-1.585 J0.000 K0.000 F400.000
G1 X190.085 Y-1.585 Z-5.000 F400.000
G1 X190.085 Y-6.000 Z-5.000 F400.000
G2 X188.500 Y-7.585 Z-5.000 I-1.585 J0.000 K0.000 F400.000
G1 X168.500 Y-7.585 Z-5.000 F400.000
G2 X166.915 Y-6.000 Z-5.000 I0.000 J1.585 K0.000 F400.000
G1 X166.915 Y-1.585 Z-5.000 F400.000
G1 X71.085 Y-1.585 Z-5.000 F400.000
G1 X71.085 Y-6.000 Z-5.000 F400.000
G2 X69.500 Y-7.585 Z-5.000 I-1.585 J0.000 K0.000 F400.000
G1 X49.500 Y-7.585 Z-5.000 F400.000
G2 X47.915 Y-6.000 Z-5.000 I0.000 J1.585 K0.000 F400.000
G1 X47.915 Y-1.585 Z-5.000 F400.000
G1 X0.000 Y-1.585 Z-5.000 F400.000
G2 X-1.585 Y0.000 Z-5.000 I0.000 J1.585 K0.000 F400.000
G1 X-1.585 Y59.075 Z-5.000 F400.000
G1 X-6.000 Y59.075 Z-5.000 F400.000
G2 X-7.585 Y60.660 Z-5.000 I0.000 J1.585 K0.000 F400.000
G1 X-7.585 Y80.660 Z-5.000 F400.000
G2 X-6.000 Y82.245 Z-5.000 I1.585 J0.000 K0.000 F400.000
G1 X-1.585 Y82.245 Z-5.000 F400.000
G1 X-1.585 Y144.000 Z-5.000 F400.000
G2 X0.000 Y145.585 Z-5.000 I1.585 J-0.000 K0.000 F400.000
G1 X238.000 Y145.585 Z-5.000 F400.000
G2 X239.551 Y144.324 Z-5.000 I-0.000 J-1.585 K0.000 F400.000
G1 X239.551 Y144.324 Z-6.000 F200.000
G2 X239.585 Y144.000 Z-6.000 I-1.551 J-0.324 K0.000 F400.000
G1 X239.585 Y82.245 Z-6.000 F400.000
G1 X244.000 Y82.245 Z-6.000 F400.000
G2 X245.585 Y80.660 Z-6.000 I-0.000 J-1.585 K0.000 F400.000
G1 X245.585 Y60.660 Z-6.000 F400.000
G2 X244.000 Y59.075 Z-6.000 I-1.585 J0.000 K0.000 F400.000
G1 X239.585 Y59.075 Z-6.000 F400.000
G1 X239.585 Y0.000 Z-6.000 F400.000
G2 X238.000 Y-1.585 Z-6.000 I-1.585 J0.000 K0.000 F400.000
G1 X190.085 Y-1.585 Z-6.000 F400.000
G1 X190.085 Y-6.000 Z-6.000 F400.000
G2 X188.500 Y-7.585 Z-6.000 I-1.585 J0.000 K0.000 F400.000
G1 X168.500 Y-7.585 Z-6.000 F400.000
G2 X166.915 Y-6.000 Z-6.000 I0.000 J1.585 K0.000 F400.000
G1 X166.915 Y-1.585 Z-6.000 F400.000
G1 X71.085 Y-1.585 Z-6.000 F400.000
G1 X71.085 Y-6.000 Z-6.000 F400.000
G2 X69.500 Y-7.585 Z-6.000 I-1.585 J0.000 K0.000 F400.000
G1 X49.500 Y-7.585 Z-6.000 F400.000
G2 X47.915 Y-6.000 Z-6.000 I0.000 J1.585 K0.000 F400.000
G1 X47.915 Y-1.585 Z-6.000 F400.000
G1 X0.000 Y-1.585 Z-6.000 F400.000
G2 X-1.585 Y0.000 Z-6.000 I0.000 J1.585 K0.000 F400.000
G1 X-1.585 Y59.075 Z-6.000 F400.000
G1 X-6.000 Y59.075 Z-6.000 F400.000
G2 X-7.585 Y60.660 Z-6.000 I0.000 J1.585 K0.000 F400.000
G1 X-7.585 Y80.660 Z-6.000 F400.000
G2 X-6.000 Y82.245 Z-6.000 I1.585 J0.000 K0.000 F400.000
G1 X-1.585 Y82.245 Z-6.000 F400.000
G1 X-1.585 Y144.000 Z-6.000 F400.000
G2 X0.000 Y145.585 Z-6.000 I1.585 J-0.000 K0.000 F400.000
G1 X238.000 Y145.585 Z-6.000 F400.000
G2 X239.551 Y144.324 Z-6.000 I-0.000 J-1.585 K0.000 F400.000
G0 Z6.000
G0 Z6.000
(Finish operation: Profile006)
(Begin postamble)
M5
G17 G90
M2
