(Exported by FreeCAD)
(Post Processor: grbl_post)
(Output Time:2023-01-06 17:28:30.657453)
(Begin preamble)
G17 G90
G21
(Begin operation: G54)
(Path: G54)
G54
G0 Z6.000
(Finish operation: G54)
(Begin operation: 3_175_enmill005)
(Path: 3_175_enmill005)
(3_175_enmill005)
(Begin toolchange)
( M6 T2 )
M3 S18000
(Finish operation: 3_175_enmill005)
(Begin operation: Drilling008)
(Path: Drilling008)
(Drilling008)
(Begin Drilling)
G0 Z6.000
G90
G98
G0 X4.740 Y53.700
G0 Z4.000
G81 X4.740 Y53.700 Z-6.000 F200.000 R4.000
G0 X4.830 Y71.330
G0 Z4.000
G81 X4.830 Y71.330 Z-6.000 F200.000 R4.000
G0 X56.690 Y4.710
G0 Z4.000
G81 X56.690 Y4.710 Z-6.000 F200.000 R4.000
G0 X74.320 Y4.660
G0 Z4.000
G81 X74.320 Y4.660 Z-6.000 F200.000 R4.000
G0 X175.520 Y4.590
G0 Z4.000
G81 X175.520 Y4.590 Z-6.000 F200.000 R4.000
G0 X193.290 Y4.590
G0 Z4.000
G81 X193.290 Y4.590 Z-6.000 F200.000 R4.000
G0 X245.320 Y53.550
G0 Z4.000
G81 X245.320 Y53.550 Z-6.000 F200.000 R4.000
G0 X245.200 Y71.110
G0 Z4.000
G81 X245.200 Y71.110 Z-6.000 F200.000 R4.000
G0 X245.240 Y178.460
G0 Z4.000
G81 X245.240 Y178.460 Z-6.000 F200.000 R4.000
G0 X245.050 Y196.180
G0 Z4.000
G81 X245.050 Y196.180 Z-6.000 F200.000 R4.000
G0 X193.220 Y245.140
G0 Z4.000
G81 X193.220 Y245.140 Z-6.000 F200.000 R4.000
G0 X175.670 Y245.140
G0 Z4.000
G81 X175.670 Y245.140 Z-6.000 F200.000 R4.000
G0 X74.270 Y245.130
G0 Z4.000
G81 X74.270 Y245.130 Z-6.000 F200.000 R4.000
G0 X56.690 Y245.130
G0 Z4.000
G81 X56.690 Y245.130 Z-6.000 F200.000 R4.000
G0 X4.850 Y196.090
G0 Z4.000
G81 X4.850 Y196.090 Z-6.000 F200.000 R4.000
G0 X4.850 Y178.550
G0 Z4.000
G81 X4.850 Y178.550 Z-6.000 F200.000 R4.000
G80
G0 Z4.000
G0 Z6.000
(Finish operation: Drilling008)
(Begin operation: 3_175_enmill007)
(Path: 3_175_enmill007)
(3_175_enmill007)
(Begin toolchange)
( M6 T2 )
M3 S18000
(Finish operation: 3_175_enmill007)
(Begin operation: Profile003)
(Path: Profile003)
(Profile003)
(Compensated Tool Path. Diameter: 3.17)
G0 Z6.000
G0 X251.121 Y251.121
G0 Z4.000
G1 X251.121 Y251.121 Z0.000 F200.000
G2 X251.585 Y250.000 Z0.000 I-1.121 J-1.121 K0.000 F400.000
G1 X251.585 Y197.500 Z0.000 F400.000
G2 X250.000 Y195.915 Z0.000 I-1.585 J-0.000 K0.000 F400.000
G1 X245.585 Y195.915 Z0.000 F400.000
G1 X245.585 Y179.085 Z0.000 F400.000
G1 X250.000 Y179.085 Z0.000 F400.000
G2 X251.585 Y177.500 Z0.000 I-0.000 J-1.585 K0.000 F400.000
G1 X251.585 Y72.500 Z0.000 F400.000
G2 X250.000 Y70.915 Z0.000 I-1.585 J0.000 K0.000 F400.000
G1 X245.585 Y70.915 Z0.000 F400.000
G1 X245.585 Y54.085 Z0.000 F400.000
G1 X250.000 Y54.085 Z0.000 F400.000
G2 X251.585 Y52.500 Z0.000 I-0.000 J-1.585 K0.000 F400.000
G1 X251.585 Y0.000 Z0.000 F400.000
G2 X250.000 Y-1.585 Z0.000 I-1.585 J0.000 K0.000 F400.000
G1 X194.500 Y-1.585 Z0.000 F400.000
G2 X192.915 Y0.000 Z0.000 I0.000 J1.585 K0.000 F400.000
G1 X192.915 Y4.415 Z0.000 F400.000
G1 X176.085 Y4.415 Z0.000 F400.000
G1 X176.085 Y0.000 Z0.000 F400.000
G2 X174.500 Y-1.585 Z0.000 I-1.585 J0.000 K0.000 F400.000
G1 X75.500 Y-1.585 Z0.000 F400.000
G2 X73.915 Y0.000 Z0.000 I0.000 J1.585 K0.000 F400.000
G1 X73.915 Y4.415 Z0.000 F400.000
G1 X57.085 Y4.415 Z0.000 F400.000
G1 X57.085 Y0.000 Z0.000 F400.000
G2 X55.500 Y-1.585 Z0.000 I-1.585 J0.000 K0.000 F400.000
G1 X0.000 Y-1.585 Z0.000 F400.000
G2 X-1.585 Y0.000 Z0.000 I0.000 J1.585 K0.000 F400.000
G1 X-1.585 Y52.500 Z0.000 F400.000
G2 X0.000 Y54.085 Z0.000 I1.585 J-0.000 K0.000 F400.000
G1 X4.415 Y54.085 Z0.000 F400.000
G1 X4.415 Y70.915 Z0.000 F400.000
G1 X0.000 Y70.915 Z0.000 F400.000
G2 X-1.585 Y72.500 Z0.000 I0.000 J1.585 K0.000 F400.000
G1 X-1.585 Y177.500 Z0.000 F400.000
G2 X0.000 Y179.085 Z0.000 I1.585 J-0.000 K0.000 F400.000
G1 X4.415 Y179.085 Z0.000 F400.000
G1 X4.415 Y195.915 Z0.000 F400.000
G1 X0.000 Y195.915 Z0.000 F400.000
G2 X-1.585 Y197.500 Z0.000 I0.000 J1.585 K0.000 F400.000
G1 X-1.585 Y250.000 Z0.000 F400.000
G2 X0.000 Y251.585 Z0.000 I1.585 J-0.000 K-0.000 F400.000
G1 X55.500 Y251.585 Z0.000 F400.000
G2 X57.085 Y250.000 Z0.000 I-0.000 J-1.585 K0.000 F400.000
G1 X57.085 Y245.585 Z0.000 F400.000
G1 X73.915 Y245.585 Z0.000 F400.000
G1 X73.915 Y250.000 Z0.000 F400.000
G2 X75.500 Y251.585 Z0.000 I1.585 J-0.000 K0.000 F400.000
G1 X174.500 Y251.585 Z0.000 F400.000
G2 X176.085 Y250.000 Z0.000 I-0.000 J-1.585 K0.000 F400.000
G1 X176.085 Y245.585 Z0.000 F400.000
G1 X192.915 Y245.585 Z0.000 F400.000
G1 X192.915 Y250.000 Z0.000 F400.000
G2 X194.500 Y251.585 Z0.000 I1.585 J-0.000 K0.000 F400.000
G1 X250.000 Y251.585 Z0.000 F400.000
G2 X251.121 Y251.121 Z0.000 I-0.000 J-1.585 K0.000 F400.000
G1 X251.121 Y251.121 Z-1.000 F200.000
G2 X251.585 Y250.000 Z-1.000 I-1.121 J-1.121 K0.000 F400.000
G1 X251.585 Y197.500 Z-1.000 F400.000
G2 X250.000 Y195.915 Z-1.000 I-1.585 J-0.000 K0.000 F400.000
G1 X245.585 Y195.915 Z-1.000 F400.000
G1 X245.585 Y179.085 Z-1.000 F400.000
G1 X250.000 Y179.085 Z-1.000 F400.000
G2 X251.585 Y177.500 Z-1.000 I-0.000 J-1.585 K0.000 F400.000
G1 X251.585 Y72.500 Z-1.000 F400.000
G2 X250.000 Y70.915 Z-1.000 I-1.585 J0.000 K0.000 F400.000
G1 X245.585 Y70.915 Z-1.000 F400.000
G1 X245.585 Y54.085 Z-1.000 F400.000
G1 X250.000 Y54.085 Z-1.000 F400.000
G2 X251.585 Y52.500 Z-1.000 I-0.000 J-1.585 K0.000 F400.000
G1 X251.585 Y0.000 Z-1.000 F400.000
G2 X250.000 Y-1.585 Z-1.000 I-1.585 J0.000 K0.000 F400.000
G1 X194.500 Y-1.585 Z-1.000 F400.000
G2 X192.915 Y0.000 Z-1.000 I0.000 J1.585 K0.000 F400.000
G1 X192.915 Y4.415 Z-1.000 F400.000
G1 X176.085 Y4.415 Z-1.000 F400.000
G1 X176.085 Y0.000 Z-1.000 F400.000
G2 X174.500 Y-1.585 Z-1.000 I-1.585 J0.000 K0.000 F400.000
G1 X75.500 Y-1.585 Z-1.000 F400.000
G2 X73.915 Y0.000 Z-1.000 I0.000 J1.585 K0.000 F400.000
G1 X73.915 Y4.415 Z-1.000 F400.000
G1 X57.085 Y4.415 Z-1.000 F400.000
G1 X57.085 Y0.000 Z-1.000 F400.000
G2 X55.500 Y-1.585 Z-1.000 I-1.585 J0.000 K0.000 F400.000
G1 X0.000 Y-1.585 Z-1.000 F400.000
G2 X-1.585 Y0.000 Z-1.000 I0.000 J1.585 K0.000 F400.000
G1 X-1.585 Y52.500 Z-1.000 F400.000
G2 X0.000 Y54.085 Z-1.000 I1.585 J-0.000 K0.000 F400.000
G1 X4.415 Y54.085 Z-1.000 F400.000
G1 X4.415 Y70.915 Z-1.000 F400.000
G1 X0.000 Y70.915 Z-1.000 F400.000
G2 X-1.585 Y72.500 Z-1.000 I0.000 J1.585 K0.000 F400.000
G1 X-1.585 Y177.500 Z-1.000 F400.000
G2 X0.000 Y179.085 Z-1.000 I1.585 J-0.000 K0.000 F400.000
G1 X4.415 Y179.085 Z-1.000 F400.000
G1 X4.415 Y195.915 Z-1.000 F400.000
G1 X0.000 Y195.915 Z-1.000 F400.000
G2 X-1.585 Y197.500 Z-1.000 I0.000 J1.585 K0.000 F400.000
G1 X-1.585 Y250.000 Z-1.000 F400.000
G2 X0.000 Y251.585 Z-1.000 I1.585 J-0.000 K0.000 F400.000
G1 X55.500 Y251.585 Z-1.000 F400.000
G2 X57.085 Y250.000 Z-1.000 I-0.000 J-1.585 K0.000 F400.000
G1 X57.085 Y245.585 Z-1.000 F400.000
G1 X73.915 Y245.585 Z-1.000 F400.000
G1 X73.915 Y250.000 Z-1.000 F400.000
G2 X75.500 Y251.585 Z-1.000 I1.585 J-0.000 K0.000 F400.000
G1 X174.500 Y251.585 Z-1.000 F400.000
G2 X176.085 Y250.000 Z-1.000 I-0.000 J-1.585 K0.000 F400.000
G1 X176.085 Y245.585 Z-1.000 F400.000
G1 X192.915 Y245.585 Z-1.000 F400.000
G1 X192.915 Y250.000 Z-1.000 F400.000
G2 X194.500 Y251.585 Z-1.000 I1.585 J-0.000 K0.000 F400.000
G1 X250.000 Y251.585 Z-1.000 F400.000
G2 X251.121 Y251.121 Z-1.000 I-0.000 J-1.585 K0.000 F400.000
G1 X251.121 Y251.121 Z-2.000 F200.000
G2 X251.585 Y250.000 Z-2.000 I-1.121 J-1.121 K0.000 F400.000
G1 X251.585 Y197.500 Z-2.000 F400.000
G2 X250.000 Y195.915 Z-2.000 I-1.585 J-0.000 K0.000 F400.000
G1 X245.585 Y195.915 Z-2.000 F400.000
G1 X245.585 Y179.085 Z-2.000 F400.000
G1 X250.000 Y179.085 Z-2.000 F400.000
G2 X251.585 Y177.500 Z-2.000 I-0.000 J-1.585 K0.000 F400.000
G1 X251.585 Y72.500 Z-2.000 F400.000
G2 X250.000 Y70.915 Z-2.000 I-1.585 J0.000 K0.000 F400.000
G1 X245.585 Y70.915 Z-2.000 F400.000
G1 X245.585 Y54.085 Z-2.000 F400.000
G1 X250.000 Y54.085 Z-2.000 F400.000
G2 X251.585 Y52.500 Z-2.000 I-0.000 J-1.585 K0.000 F400.000
G1 X251.585 Y0.000 Z-2.000 F400.000
G2 X250.000 Y-1.585 Z-2.000 I-1.585 J0.000 K0.000 F400.000
G1 X194.500 Y-1.585 Z-2.000 F400.000
G2 X192.915 Y0.000 Z-2.000 I0.000 J1.585 K0.000 F400.000
G1 X192.915 Y4.415 Z-2.000 F400.000
G1 X176.085 Y4.415 Z-2.000 F400.000
G1 X176.085 Y0.000 Z-2.000 F400.000
G2 X174.500 Y-1.585 Z-2.000 I-1.585 J0.000 K0.000 F400.000
G1 X75.500 Y-1.585 Z-2.000 F400.000
G2 X73.915 Y0.000 Z-2.000 I0.000 J1.585 K0.000 F400.000
G1 X73.915 Y4.415 Z-2.000 F400.000
G1 X57.085 Y4.415 Z-2.000 F400.000
G1 X57.085 Y0.000 Z-2.000 F400.000
G2 X55.500 Y-1.585 Z-2.000 I-1.585 J0.000 K0.000 F400.000
G1 X0.000 Y-1.585 Z-2.000 F400.000
G2 X-1.585 Y0.000 Z-2.000 I0.000 J1.585 K0.000 F400.000
G1 X-1.585 Y52.500 Z-2.000 F400.000
G2 X0.000 Y54.085 Z-2.000 I1.585 J-0.000 K0.000 F400.000
G1 X4.415 Y54.085 Z-2.000 F400.000
G1 X4.415 Y70.915 Z-2.000 F400.000
G1 X0.000 Y70.915 Z-2.000 F400.000
G2 X-1.585 Y72.500 Z-2.000 I0.000 J1.585 K0.000 F400.000
G1 X-1.585 Y177.500 Z-2.000 F400.000
G2 X0.000 Y179.085 Z-2.000 I1.585 J-0.000 K0.000 F400.000
G1 X4.415 Y179.085 Z-2.000 F400.000
G1 X4.415 Y195.915 Z-2.000 F400.000
G1 X0.000 Y195.915 Z-2.000 F400.000
G2 X-1.585 Y197.500 Z-2.000 I0.000 J1.585 K0.000 F400.000
G1 X-1.585 Y250.000 Z-2.000 F400.000
G2 X0.000 Y251.585 Z-2.000 I1.585 J-0.000 K0.000 F400.000
G1 X55.500 Y251.585 Z-2.000 F400.000
G2 X57.085 Y250.000 Z-2.000 I-0.000 J-1.585 K0.000 F400.000
G1 X57.085 Y245.585 Z-2.000 F400.000
G1 X73.915 Y245.585 Z-2.000 F400.000
G1 X73.915 Y250.000 Z-2.000 F400.000
G2 X75.500 Y251.585 Z-2.000 I1.585 J-0.000 K0.000 F400.000
G1 X174.500 Y251.585 Z-2.000 F400.000
G2 X176.085 Y250.000 Z-2.000 I-0.000 J-1.585 K0.000 F400.000
G1 X176.085 Y245.585 Z-2.000 F400.000
G1 X192.915 Y245.585 Z-2.000 F400.000
G1 X192.915 Y250.000 Z-2.000 F400.000
G2 X194.500 Y251.585 Z-2.000 I1.585 J-0.000 K0.000 F400.000
G1 X250.000 Y251.585 Z-2.000 F400.000
G2 X251.121 Y251.121 Z-2.000 I-0.000 J-1.585 K0.000 F400.000
G1 X251.121 Y251.121 Z-3.000 F200.000
G2 X251.585 Y250.000 Z-3.000 I-1.121 J-1.121 K0.000 F400.000
G1 X251.585 Y197.500 Z-3.000 F400.000
G2 X250.000 Y195.915 Z-3.000 I-1.585 J-0.000 K0.000 F400.000
G1 X245.585 Y195.915 Z-3.000 F400.000
G1 X245.585 Y179.085 Z-3.000 F400.000
G1 X250.000 Y179.085 Z-3.000 F400.000
G2 X251.585 Y177.500 Z-3.000 I-0.000 J-1.585 K0.000 F400.000
G1 X251.585 Y72.500 Z-3.000 F400.000
G2 X250.000 Y70.915 Z-3.000 I-1.585 J0.000 K0.000 F400.000
G1 X245.585 Y70.915 Z-3.000 F400.000
G1 X245.585 Y54.085 Z-3.000 F400.000
G1 X250.000 Y54.085 Z-3.000 F400.000
G2 X251.585 Y52.500 Z-3.000 I-0.000 J-1.585 K0.000 F400.000
G1 X251.585 Y0.000 Z-3.000 F400.000
G2 X250.000 Y-1.585 Z-3.000 I-1.585 J0.000 K0.000 F400.000
G1 X194.500 Y-1.585 Z-3.000 F400.000
G2 X192.915 Y0.000 Z-3.000 I0.000 J1.585 K0.000 F400.000
G1 X192.915 Y4.415 Z-3.000 F400.000
G1 X176.085 Y4.415 Z-3.000 F400.000
G1 X176.085 Y0.000 Z-3.000 F400.000
G2 X174.500 Y-1.585 Z-3.000 I-1.585 J0.000 K0.000 F400.000
G1 X75.500 Y-1.585 Z-3.000 F400.000
G2 X73.915 Y0.000 Z-3.000 I0.000 J1.585 K0.000 F400.000
G1 X73.915 Y4.415 Z-3.000 F400.000
G1 X57.085 Y4.415 Z-3.000 F400.000
G1 X57.085 Y0.000 Z-3.000 F400.000
G2 X55.500 Y-1.585 Z-3.000 I-1.585 J0.000 K0.000 F400.000
G1 X0.000 Y-1.585 Z-3.000 F400.000
G2 X-1.585 Y0.000 Z-3.000 I0.000 J1.585 K0.000 F400.000
G1 X-1.585 Y52.500 Z-3.000 F400.000
G2 X0.000 Y54.085 Z-3.000 I1.585 J-0.000 K0.000 F400.000
G1 X4.415 Y54.085 Z-3.000 F400.000
G1 X4.415 Y70.915 Z-3.000 F400.000
G1 X0.000 Y70.915 Z-3.000 F400.000
G2 X-1.585 Y72.500 Z-3.000 I0.000 J1.585 K0.000 F400.000
G1 X-1.585 Y177.500 Z-3.000 F400.000
G2 X0.000 Y179.085 Z-3.000 I1.585 J-0.000 K0.000 F400.000
G1 X4.415 Y179.085 Z-3.000 F400.000
G1 X4.415 Y195.915 Z-3.000 F400.000
G1 X0.000 Y195.915 Z-3.000 F400.000
G2 X-1.585 Y197.500 Z-3.000 I0.000 J1.585 K0.000 F400.000
G1 X-1.585 Y250.000 Z-3.000 F400.000
G2 X0.000 Y251.585 Z-3.000 I1.585 J-0.000 K0.000 F400.000
G1 X55.500 Y251.585 Z-3.000 F400.000
G2 X57.085 Y250.000 Z-3.000 I-0.000 J-1.585 K0.000 F400.000
G1 X57.085 Y245.585 Z-3.000 F400.000
G1 X73.915 Y245.585 Z-3.000 F400.000
G1 X73.915 Y250.000 Z-3.000 F400.000
G2 X75.500 Y251.585 Z-3.000 I1.585 J-0.000 K0.000 F400.000
G1 X174.500 Y251.585 Z-3.000 F400.000
G2 X176.085 Y250.000 Z-3.000 I-0.000 J-1.585 K0.000 F400.000
G1 X176.085 Y245.585 Z-3.000 F400.000
G1 X192.915 Y245.585 Z-3.000 F400.000
G1 X192.915 Y250.000 Z-3.000 F400.000
G2 X194.500 Y251.585 Z-3.000 I1.585 J-0.000 K0.000 F400.000
G1 X250.000 Y251.585 Z-3.000 F400.000
G2 X251.121 Y251.121 Z-3.000 I-0.000 J-1.585 K0.000 F400.000
G1 X251.121 Y251.121 Z-4.000 F200.000
G2 X251.585 Y250.000 Z-4.000 I-1.121 J-1.121 K0.000 F400.000
G1 X251.585 Y197.500 Z-4.000 F400.000
G2 X250.000 Y195.915 Z-4.000 I-1.585 J-0.000 K0.000 F400.000
G1 X245.585 Y195.915 Z-4.000 F400.000
G1 X245.585 Y179.085 Z-4.000 F400.000
G1 X250.000 Y179.085 Z-4.000 F400.000
G2 X251.585 Y177.500 Z-4.000 I-0.000 J-1.585 K0.000 F400.000
G1 X251.585 Y72.500 Z-4.000 F400.000
G2 X250.000 Y70.915 Z-4.000 I-1.585 J0.000 K0.000 F400.000
G1 X245.585 Y70.915 Z-4.000 F400.000
G1 X245.585 Y54.085 Z-4.000 F400.000
G1 X250.000 Y54.085 Z-4.000 F400.000
G2 X251.585 Y52.500 Z-4.000 I-0.000 J-1.585 K0.000 F400.000
G1 X251.585 Y0.000 Z-4.000 F400.000
G2 X250.000 Y-1.585 Z-4.000 I-1.585 J0.000 K0.000 F400.000
G1 X194.500 Y-1.585 Z-4.000 F400.000
G2 X192.915 Y0.000 Z-4.000 I0.000 J1.585 K0.000 F400.000
G1 X192.915 Y4.415 Z-4.000 F400.000
G1 X176.085 Y4.415 Z-4.000 F400.000
G1 X176.085 Y0.000 Z-4.000 F400.000
G2 X174.500 Y-1.585 Z-4.000 I-1.585 J0.000 K0.000 F400.000
G1 X75.500 Y-1.585 Z-4.000 F400.000
G2 X73.915 Y0.000 Z-4.000 I0.000 J1.585 K0.000 F400.000
G1 X73.915 Y4.415 Z-4.000 F400.000
G1 X57.085 Y4.415 Z-4.000 F400.000
G1 X57.085 Y0.000 Z-4.000 F400.000
G2 X55.500 Y-1.585 Z-4.000 I-1.585 J0.000 K0.000 F400.000
G1 X0.000 Y-1.585 Z-4.000 F400.000
G2 X-1.585 Y0.000 Z-4.000 I0.000 J1.585 K0.000 F400.000
G1 X-1.585 Y52.500 Z-4.000 F400.000
G2 X0.000 Y54.085 Z-4.000 I1.585 J-0.000 K0.000 F400.000
G1 X4.415 Y54.085 Z-4.000 F400.000
G1 X4.415 Y70.915 Z-4.000 F400.000
G1 X0.000 Y70.915 Z-4.000 F400.000
G2 X-1.585 Y72.500 Z-4.000 I0.000 J1.585 K0.000 F400.000
G1 X-1.585 Y177.500 Z-4.000 F400.000
G2 X0.000 Y179.085 Z-4.000 I1.585 J-0.000 K0.000 F400.000
G1 X4.415 Y179.085 Z-4.000 F400.000
G1 X4.415 Y195.915 Z-4.000 F400.000
G1 X0.000 Y195.915 Z-4.000 F400.000
G2 X-1.585 Y197.500 Z-4.000 I0.000 J1.585 K0.000 F400.000
G1 X-1.585 Y250.000 Z-4.000 F400.000
G2 X0.000 Y251.585 Z-4.000 I1.585 J-0.000 K0.000 F400.000
G1 X55.500 Y251.585 Z-4.000 F400.000
G2 X57.085 Y250.000 Z-4.000 I-0.000 J-1.585 K0.000 F400.000
G1 X57.085 Y245.585 Z-4.000 F400.000
G1 X73.915 Y245.585 Z-4.000 F400.000
G1 X73.915 Y250.000 Z-4.000 F400.000
G2 X75.500 Y251.585 Z-4.000 I1.585 J-0.000 K0.000 F400.000
G1 X174.500 Y251.585 Z-4.000 F400.000
G2 X176.085 Y250.000 Z-4.000 I-0.000 J-1.585 K0.000 F400.000
G1 X176.085 Y245.585 Z-4.000 F400.000
G1 X192.915 Y245.585 Z-4.000 F400.000
G1 X192.915 Y250.000 Z-4.000 F400.000
G2 X194.500 Y251.585 Z-4.000 I1.585 J-0.000 K0.000 F400.000
G1 X250.000 Y251.585 Z-4.000 F400.000
G2 X251.121 Y251.121 Z-4.000 I-0.000 J-1.585 K0.000 F400.000
G1 X251.121 Y251.121 Z-5.000 F200.000
G2 X251.585 Y250.000 Z-5.000 I-1.121 J-1.121 K0.000 F400.000
G1 X251.585 Y197.500 Z-5.000 F400.000
G2 X250.000 Y195.915 Z-5.000 I-1.585 J-0.000 K0.000 F400.000
G1 X245.585 Y195.915 Z-5.000 F400.000
G1 X245.585 Y179.085 Z-5.000 F400.000
G1 X250.000 Y179.085 Z-5.000 F400.000
G2 X251.585 Y177.500 Z-5.000 I-0.000 J-1.585 K0.000 F400.000
G1 X251.585 Y72.500 Z-5.000 F400.000
G2 X250.000 Y70.915 Z-5.000 I-1.585 J0.000 K0.000 F400.000
G1 X245.585 Y70.915 Z-5.000 F400.000
G1 X245.585 Y54.085 Z-5.000 F400.000
G1 X250.000 Y54.085 Z-5.000 F400.000
G2 X251.585 Y52.500 Z-5.000 I-0.000 J-1.585 K0.000 F400.000
G1 X251.585 Y0.000 Z-5.000 F400.000
G2 X250.000 Y-1.585 Z-5.000 I-1.585 J0.000 K0.000 F400.000
G1 X194.500 Y-1.585 Z-5.000 F400.000
G2 X192.915 Y0.000 Z-5.000 I0.000 J1.585 K0.000 F400.000
G1 X192.915 Y4.415 Z-5.000 F400.000
G1 X176.085 Y4.415 Z-5.000 F400.000
G1 X176.085 Y0.000 Z-5.000 F400.000
G2 X174.500 Y-1.585 Z-5.000 I-1.585 J0.000 K0.000 F400.000
G1 X75.500 Y-1.585 Z-5.000 F400.000
G2 X73.915 Y0.000 Z-5.000 I0.000 J1.585 K0.000 F400.000
G1 X73.915 Y4.415 Z-5.000 F400.000
G1 X57.085 Y4.415 Z-5.000 F400.000
G1 X57.085 Y0.000 Z-5.000 F400.000
G2 X55.500 Y-1.585 Z-5.000 I-1.585 J0.000 K0.000 F400.000
G1 X0.000 Y-1.585 Z-5.000 F400.000
G2 X-1.585 Y0.000 Z-5.000 I0.000 J1.585 K0.000 F400.000
G1 X-1.585 Y52.500 Z-5.000 F400.000
G2 X0.000 Y54.085 Z-5.000 I1.585 J-0.000 K0.000 F400.000
G1 X4.415 Y54.085 Z-5.000 F400.000
G1 X4.415 Y70.915 Z-5.000 F400.000
G1 X0.000 Y70.915 Z-5.000 F400.000
G2 X-1.585 Y72.500 Z-5.000 I0.000 J1.585 K0.000 F400.000
G1 X-1.585 Y177.500 Z-5.000 F400.000
G2 X0.000 Y179.085 Z-5.000 I1.585 J-0.000 K0.000 F400.000
G1 X4.415 Y179.085 Z-5.000 F400.000
G1 X4.415 Y195.915 Z-5.000 F400.000
G1 X0.000 Y195.915 Z-5.000 F400.000
G2 X-1.585 Y197.500 Z-5.000 I0.000 J1.585 K0.000 F400.000
G1 X-1.585 Y250.000 Z-5.000 F400.000
G2 X0.000 Y251.585 Z-5.000 I1.585 J-0.000 K0.000 F400.000
G1 X55.500 Y251.585 Z-5.000 F400.000
G2 X57.085 Y250.000 Z-5.000 I-0.000 J-1.585 K0.000 F400.000
G1 X57.085 Y245.585 Z-5.000 F400.000
G1 X73.915 Y245.585 Z-5.000 F400.000
G1 X73.915 Y250.000 Z-5.000 F400.000
G2 X75.500 Y251.585 Z-5.000 I1.585 J-0.000 K0.000 F400.000
G1 X174.500 Y251.585 Z-5.000 F400.000
G2 X176.085 Y250.000 Z-5.000 I-0.000 J-1.585 K0.000 F400.000
G1 X176.085 Y245.585 Z-5.000 F400.000
G1 X192.915 Y245.585 Z-5.000 F400.000
G1 X192.915 Y250.000 Z-5.000 F400.000
G2 X194.500 Y251.585 Z-5.000 I1.585 J-0.000 K0.000 F400.000
G1 X250.000 Y251.585 Z-5.000 F400.000
G2 X251.121 Y251.121 Z-5.000 I-0.000 J-1.585 K0.000 F400.000
G1 X251.121 Y251.121 Z-6.000 F200.000
G2 X251.585 Y250.000 Z-6.000 I-1.121 J-1.121 K0.000 F400.000
G1 X251.585 Y197.500 Z-6.000 F400.000
G2 X250.000 Y195.915 Z-6.000 I-1.585 J-0.000 K0.000 F400.000
G1 X245.585 Y195.915 Z-6.000 F400.000
G1 X245.585 Y179.085 Z-6.000 F400.000
G1 X250.000 Y179.085 Z-6.000 F400.000
G2 X251.585 Y177.500 Z-6.000 I-0.000 J-1.585 K0.000 F400.000
G1 X251.585 Y72.500 Z-6.000 F400.000
G2 X250.000 Y70.915 Z-6.000 I-1.585 J0.000 K0.000 F400.000
G1 X245.585 Y70.915 Z-6.000 F400.000
G1 X245.585 Y54.085 Z-6.000 F400.000
G1 X250.000 Y54.085 Z-6.000 F400.000
G2 X251.585 Y52.500 Z-6.000 I-0.000 J-1.585 K0.000 F400.000
G1 X251.585 Y0.000 Z-6.000 F400.000
G2 X250.000 Y-1.585 Z-6.000 I-1.585 J0.000 K0.000 F400.000
G1 X194.500 Y-1.585 Z-6.000 F400.000
G2 X192.915 Y0.000 Z-6.000 I0.000 J1.585 K0.000 F400.000
G1 X192.915 Y4.415 Z-6.000 F400.000
G1 X176.085 Y4.415 Z-6.000 F400.000
G1 X176.085 Y0.000 Z-6.000 F400.000
G2 X174.500 Y-1.585 Z-6.000 I-1.585 J0.000 K0.000 F400.000
G1 X75.500 Y-1.585 Z-6.000 F400.000
G2 X73.915 Y0.000 Z-6.000 I0.000 J1.585 K0.000 F400.000
G1 X73.915 Y4.415 Z-6.000 F400.000
G1 X57.085 Y4.415 Z-6.000 F400.000
G1 X57.085 Y0.000 Z-6.000 F400.000
G2 X55.500 Y-1.585 Z-6.000 I-1.585 J0.000 K0.000 F400.000
G1 X0.000 Y-1.585 Z-6.000 F400.000
G2 X-1.585 Y0.000 Z-6.000 I0.000 J1.585 K0.000 F400.000
G1 X-1.585 Y52.500 Z-6.000 F400.000
G2 X0.000 Y54.085 Z-6.000 I1.585 J-0.000 K0.000 F400.000
G1 X4.415 Y54.085 Z-6.000 F400.000
G1 X4.415 Y70.915 Z-6.000 F400.000
G1 X0.000 Y70.915 Z-6.000 F400.000
G2 X-1.585 Y72.500 Z-6.000 I0.000 J1.585 K0.000 F400.000
G1 X-1.585 Y177.500 Z-6.000 F400.000
G2 X0.000 Y179.085 Z-6.000 I1.585 J-0.000 K0.000 F400.000
G1 X4.415 Y179.085 Z-6.000 F400.000
G1 X4.415 Y195.915 Z-6.000 F400.000
G1 X0.000 Y195.915 Z-6.000 F400.000
G2 X-1.585 Y197.500 Z-6.000 I0.000 J1.585 K0.000 F400.000
G1 X-1.585 Y250.000 Z-6.000 F400.000
G2 X0.000 Y251.585 Z-6.000 I1.585 J-0.000 K0.000 F400.000
G1 X55.500 Y251.585 Z-6.000 F400.000
G2 X57.085 Y250.000 Z-6.000 I-0.000 J-1.585 K0.000 F400.000
G1 X57.085 Y245.585 Z-6.000 F400.000
G1 X73.915 Y245.585 Z-6.000 F400.000
G1 X73.915 Y250.000 Z-6.000 F400.000
G2 X75.500 Y251.585 Z-6.000 I1.585 J-0.000 K0.000 F400.000
G1 X174.500 Y251.585 Z-6.000 F400.000
G2 X176.085 Y250.000 Z-6.000 I-0.000 J-1.585 K0.000 F400.000
G1 X176.085 Y245.585 Z-6.000 F400.000
G1 X192.915 Y245.585 Z-6.000 F400.000
G1 X192.915 Y250.000 Z-6.000 F400.000
G2 X194.500 Y251.585 Z-6.000 I1.585 J-0.000 K0.000 F400.000
G1 X250.000 Y251.585 Z-6.000 F400.000
G2 X251.121 Y251.121 Z-6.000 I-0.000 J-1.585 K0.000 F400.000
G0 Z6.000
G0 Z6.000
(Finish operation: Profile003)
(Begin postamble)
M5
G17 G90
M2
