(Exported by FreeCAD)
(Post Processor: grbl_post)
(Output Time:2023-01-06 17:51:57.879954)
(Begin preamble)
G17 G90
G21
(Begin operation: G54)
(Path: G54)
G54
G0 Z6.000
(Finish operation: G54)
(Begin operation: 3_175_enmill011)
(Path: 3_175_enmill011)
(3_175_enmill011)
(Begin toolchange)
( M6 T2 )
M3 S18000
(Finish operation: 3_175_enmill011)
(Begin operation: Profile007)
(Path: Profile007)
(Profile007)
(Compensated Tool Path. Diameter: 3.17)
G0 Z6.000
G0 X245.121 Y248.121
G0 Z4.000
G1 X245.121 Y248.121 Z-0.000 F200.000
G2 X245.585 Y247.000 Z-0.000 I-1.121 J-1.121 K0.000 F400.000
G1 X245.585 Y0.000 Z-0.000 F400.000
G2 X244.000 Y-1.585 Z-0.000 I-1.585 J0.000 K0.000 F400.000
G1 X0.000 Y-1.585 Z0.000 F400.000
G2 X-1.585 Y0.000 Z0.000 I0.000 J1.585 K-0.000 F400.000
G1 X-1.585 Y247.000 Z0.000 F400.000
G2 X0.000 Y248.585 Z0.000 I1.585 J-0.000 K-0.000 F400.000
G1 X244.000 Y248.585 Z-0.000 F400.000
G2 X245.121 Y248.121 Z-0.000 I-0.000 J-1.585 K0.000 F400.000
G1 X245.121 Y248.121 Z-1.000 F200.000
G2 X245.585 Y247.000 Z-1.000 I-1.121 J-1.121 K0.000 F400.000
G1 X245.585 Y0.000 Z-1.000 F400.000
G2 X244.000 Y-1.585 Z-1.000 I-1.585 J0.000 K0.000 F400.000
G1 X0.000 Y-1.585 Z-1.000 F400.000
G2 X-1.585 Y0.000 Z-1.000 I0.000 J1.585 K0.000 F400.000
G1 X-1.585 Y247.000 Z-1.000 F400.000
G2 X0.000 Y248.585 Z-1.000 I1.585 J-0.000 K0.000 F400.000
G1 X244.000 Y248.585 Z-1.000 F400.000
G2 X245.121 Y248.121 Z-1.000 I-0.000 J-1.585 K0.000 F400.000
G1 X245.121 Y248.121 Z-2.000 F200.000
G2 X245.585 Y247.000 Z-2.000 I-1.121 J-1.121 K0.000 F400.000
G1 X245.585 Y0.000 Z-2.000 F400.000
G2 X244.000 Y-1.585 Z-2.000 I-1.585 J0.000 K0.000 F400.000
G1 X0.000 Y-1.585 Z-2.000 F400.000
G2 X-1.585 Y0.000 Z-2.000 I0.000 J1.585 K0.000 F400.000
G1 X-1.585 Y247.000 Z-2.000 F400.000
G2 X0.000 Y248.585 Z-2.000 I1.585 J-0.000 K0.000 F400.000
G1 X244.000 Y248.585 Z-2.000 F400.000
G2 X245.121 Y248.121 Z-2.000 I-0.000 J-1.585 K0.000 F400.000
G1 X245.121 Y248.121 Z-3.000 F200.000
G2 X245.585 Y247.000 Z-3.000 I-1.121 J-1.121 K0.000 F400.000
G1 X245.585 Y0.000 Z-3.000 F400.000
G2 X244.000 Y-1.585 Z-3.000 I-1.585 J0.000 K0.000 F400.000
G1 X0.000 Y-1.585 Z-3.000 F400.000
G2 X-1.585 Y0.000 Z-3.000 I0.000 J1.585 K0.000 F400.000
G1 X-1.585 Y247.000 Z-3.000 F400.000
G2 X0.000 Y248.585 Z-3.000 I1.585 J-0.000 K0.000 F400.000
G1 X244.000 Y248.585 Z-3.000 F400.000
G2 X245.121 Y248.121 Z-3.000 I-0.000 J-1.585 K0.000 F400.000
G1 X245.121 Y248.121 Z-4.000 F200.000
G2 X245.585 Y247.000 Z-4.000 I-1.121 J-1.121 K0.000 F400.000
G1 X245.585 Y0.000 Z-4.000 F400.000
G2 X244.000 Y-1.585 Z-4.000 I-1.585 J0.000 K0.000 F400.000
G1 X0.000 Y-1.585 Z-4.000 F400.000
G2 X-1.585 Y0.000 Z-4.000 I0.000 J1.585 K0.000 F400.000
G1 X-1.585 Y247.000 Z-4.000 F400.000
G2 X0.000 Y248.585 Z-4.000 I1.585 J-0.000 K0.000 F400.000
G1 X244.000 Y248.585 Z-4.000 F400.000
G2 X245.121 Y248.121 Z-4.000 I-0.000 J-1.585 K0.000 F400.000
G1 X245.121 Y248.121 Z-5.000 F200.000
G2 X245.585 Y247.000 Z-5.000 I-1.121 J-1.121 K0.000 F400.000
G1 X245.585 Y0.000 Z-5.000 F400.000
G2 X244.000 Y-1.585 Z-5.000 I-1.585 J0.000 K0.000 F400.000
G1 X0.000 Y-1.585 Z-5.000 F400.000
G2 X-1.585 Y0.000 Z-5.000 I0.000 J1.585 K0.000 F400.000
G1 X-1.585 Y247.000 Z-5.000 F400.000
G2 X0.000 Y248.585 Z-5.000 I1.585 J-0.000 K0.000 F400.000
G1 X244.000 Y248.585 Z-5.000 F400.000
G2 X245.121 Y248.121 Z-5.000 I-0.000 J-1.585 K0.000 F400.000
G1 X245.121 Y248.121 Z-6.000 F200.000
G2 X245.585 Y247.000 Z-6.000 I-1.121 J-1.121 K0.000 F400.000
G1 X245.585 Y0.000 Z-6.000 F400.000
G2 X244.000 Y-1.585 Z-6.000 I-1.585 J0.000 K0.000 F400.000
G1 X0.000 Y-1.585 Z-6.000 F400.000
G2 X-1.585 Y0.000 Z-6.000 I0.000 J1.585 K0.000 F400.000
G1 X-1.585 Y247.000 Z-6.000 F400.000
G2 X0.000 Y248.585 Z-6.000 I1.585 J-0.000 K0.000 F400.000
G1 X244.000 Y248.585 Z-6.000 F400.000
G2 X245.121 Y248.121 Z-6.000 I-0.000 J-1.585 K0.000 F400.000
G0 Z6.000
G0 Z6.000
(Finish operation: Profile007)
(Begin postamble)
M5
G17 G90
M2
