(Exported by FreeCAD)
(Post Processor: grbl_post)
(Output Time:2023-01-06 17:33:38.332390)
(Begin preamble)
G17 G90
G21
(Begin operation: G54)
(Path: G54)
G54
G0 Z6.000
(Finish operation: G54)
(Begin operation: 3_175_enmill007)
(Path: 3_175_enmill007)
(3_175_enmill007)
(Begin toolchange)
( M6 T2 )
M3 S18000
(Finish operation: 3_175_enmill007)
(Begin operation: Drilling010)
(Path: Drilling010)
(Drilling010)
(Begin Drilling)
G0 Z6.000
G90
G98
G0 X48.170 Y-1.230
G0 Z4.000
G81 X48.170 Y-1.230 Z-6.000 F200.000 R4.000
G0 X70.630 Y-1.150
G0 Z4.000
G81 X70.630 Y-1.150 Z-6.000 F200.000 R4.000
G0 X-1.210 Y54.660
G0 Z4.000
G81 X-1.210 Y54.660 Z-6.000 F200.000 R4.000
G0 X-1.340 Y77.210
G0 Z4.000
G81 X-1.340 Y77.210 Z-6.000 F200.000 R4.000
G0 X167.270 Y-1.190
G0 Z4.000
G81 X167.270 Y-1.190 Z-6.000 F200.000 R4.000
G0 X189.440 Y-1.170
G0 Z4.000
G81 X189.440 Y-1.170 Z-6.000 F200.000 R4.000
G0 X239.200 Y54.820
G0 Z4.000
G81 X239.200 Y54.820 Z-6.000 F200.000 R4.000
G0 X239.190 Y77.110
G0 Z4.000
G81 X239.190 Y77.110 Z-6.000 F200.000 R4.000
G80
G0 Z4.000
G0 Z6.000
(Finish operation: Drilling010)
(Begin operation: Profile005)
(Path: Profile005)
(Profile005)
(Compensated Tool Path. Diameter: 3.17)
G0 Z6.000
G0 X239.551 Y132.324
G0 Z4.000
G1 X239.551 Y132.324 Z0.000 F200.000
G2 X239.585 Y132.000 Z0.000 I-1.551 J-0.324 K0.000 F400.000
G1 X239.585 Y77.585 Z0.000 F400.000
G1 X244.000 Y77.585 Z0.000 F400.000
G2 X245.585 Y76.000 Z0.000 I-0.000 J-1.585 K0.000 F400.000
G1 X245.585 Y56.000 Z0.000 F400.000
G2 X244.000 Y54.415 Z0.000 I-1.585 J-0.000 K0.000 F400.000
G1 X239.585 Y54.415 Z0.000 F400.000
G1 X239.585 Y-0.000 Z0.000 F400.000
G2 X238.000 Y-1.585 Z0.000 I-1.585 J0.000 K0.000 F400.000
G1 X190.085 Y-1.585 Z0.000 F400.000
G1 X190.085 Y-6.000 Z0.000 F400.000
G2 X188.500 Y-7.585 Z0.000 I-1.585 J0.000 K0.000 F400.000
G1 X168.500 Y-7.585 Z0.000 F400.000
G2 X166.915 Y-6.000 Z0.000 I0.000 J1.585 K0.000 F400.000
G1 X166.915 Y-1.585 Z0.000 F400.000
G1 X71.085 Y-1.585 Z0.000 F400.000
G1 X71.085 Y-6.000 Z0.000 F400.000
G2 X69.500 Y-7.585 Z0.000 I-1.585 J0.000 K0.000 F400.000
G1 X49.500 Y-7.585 Z0.000 F400.000
G2 X47.915 Y-6.000 Z0.000 I-0.000 J1.585 K0.000 F400.000
G1 X47.915 Y-1.585 Z0.000 F400.000
G1 X0.000 Y-1.585 Z0.000 F400.000
G2 X-1.585 Y-0.000 Z0.000 I0.000 J1.585 K0.000 F400.000
G1 X-1.585 Y54.415 Z0.000 F400.000
G1 X-6.000 Y54.415 Z0.000 F400.000
G2 X-7.585 Y56.000 Z0.000 I0.000 J1.585 K0.000 F400.000
G1 X-7.585 Y76.000 Z0.000 F400.000
G2 X-6.000 Y77.585 Z0.000 I1.585 J0.000 K0.000 F400.000
G1 X-1.585 Y77.585 Z0.000 F400.000
G1 X-1.585 Y132.000 Z0.000 F400.000
G2 X0.000 Y133.585 Z0.000 I1.585 J-0.000 K0.000 F400.000
G1 X238.000 Y133.585 Z0.000 F400.000
G2 X239.551 Y132.324 Z0.000 I-0.000 J-1.585 K0.000 F400.000
G1 X239.551 Y132.324 Z-1.000 F200.000
G2 X239.585 Y132.000 Z-1.000 I-1.551 J-0.324 K0.000 F400.000
G1 X239.585 Y77.585 Z-1.000 F400.000
G1 X244.000 Y77.585 Z-1.000 F400.000
G2 X245.585 Y76.000 Z-1.000 I-0.000 J-1.585 K0.000 F400.000
G1 X245.585 Y56.000 Z-1.000 F400.000
G2 X244.000 Y54.415 Z-1.000 I-1.585 J-0.000 K0.000 F400.000
G1 X239.585 Y54.415 Z-1.000 F400.000
G1 X239.585 Y-0.000 Z-1.000 F400.000
G2 X238.000 Y-1.585 Z-1.000 I-1.585 J0.000 K0.000 F400.000
G1 X190.085 Y-1.585 Z-1.000 F400.000
G1 X190.085 Y-6.000 Z-1.000 F400.000
G2 X188.500 Y-7.585 Z-1.000 I-1.585 J0.000 K0.000 F400.000
G1 X168.500 Y-7.585 Z-1.000 F400.000
G2 X166.915 Y-6.000 Z-1.000 I0.000 J1.585 K0.000 F400.000
G1 X166.915 Y-1.585 Z-1.000 F400.000
G1 X71.085 Y-1.585 Z-1.000 F400.000
G1 X71.085 Y-6.000 Z-1.000 F400.000
G2 X69.500 Y-7.585 Z-1.000 I-1.585 J0.000 K0.000 F400.000
G1 X49.500 Y-7.585 Z-1.000 F400.000
G2 X47.915 Y-6.000 Z-1.000 I-0.000 J1.585 K0.000 F400.000
G1 X47.915 Y-1.585 Z-1.000 F400.000
G1 X0.000 Y-1.585 Z-1.000 F400.000
G2 X-1.585 Y-0.000 Z-1.000 I0.000 J1.585 K0.000 F400.000
G1 X-1.585 Y54.415 Z-1.000 F400.000
G1 X-6.000 Y54.415 Z-1.000 F400.000
G2 X-7.585 Y56.000 Z-1.000 I0.000 J1.585 K0.000 F400.000
G1 X-7.585 Y76.000 Z-1.000 F400.000
G2 X-6.000 Y77.585 Z-1.000 I1.585 J0.000 K0.000 F400.000
G1 X-1.585 Y77.585 Z-1.000 F400.000
G1 X-1.585 Y132.000 Z-1.000 F400.000
G2 X0.000 Y133.585 Z-1.000 I1.585 J-0.000 K0.000 F400.000
G1 X238.000 Y133.585 Z-1.000 F400.000
G2 X239.551 Y132.324 Z-1.000 I-0.000 J-1.585 K0.000 F400.000
G1 X239.551 Y132.324 Z-2.000 F200.000
G2 X239.585 Y132.000 Z-2.000 I-1.551 J-0.324 K0.000 F400.000
G1 X239.585 Y77.585 Z-2.000 F400.000
G1 X244.000 Y77.585 Z-2.000 F400.000
G2 X245.585 Y76.000 Z-2.000 I-0.000 J-1.585 K0.000 F400.000
G1 X245.585 Y56.000 Z-2.000 F400.000
G2 X244.000 Y54.415 Z-2.000 I-1.585 J-0.000 K0.000 F400.000
G1 X239.585 Y54.415 Z-2.000 F400.000
G1 X239.585 Y-0.000 Z-2.000 F400.000
G2 X238.000 Y-1.585 Z-2.000 I-1.585 J0.000 K0.000 F400.000
G1 X190.085 Y-1.585 Z-2.000 F400.000
G1 X190.085 Y-6.000 Z-2.000 F400.000
G2 X188.500 Y-7.585 Z-2.000 I-1.585 J0.000 K0.000 F400.000
G1 X168.500 Y-7.585 Z-2.000 F400.000
G2 X166.915 Y-6.000 Z-2.000 I0.000 J1.585 K0.000 F400.000
G1 X166.915 Y-1.585 Z-2.000 F400.000
G1 X71.085 Y-1.585 Z-2.000 F400.000
G1 X71.085 Y-6.000 Z-2.000 F400.000
G2 X69.500 Y-7.585 Z-2.000 I-1.585 J0.000 K0.000 F400.000
G1 X49.500 Y-7.585 Z-2.000 F400.000
G2 X47.915 Y-6.000 Z-2.000 I-0.000 J1.585 K0.000 F400.000
G1 X47.915 Y-1.585 Z-2.000 F400.000
G1 X0.000 Y-1.585 Z-2.000 F400.000
G2 X-1.585 Y-0.000 Z-2.000 I0.000 J1.585 K0.000 F400.000
G1 X-1.585 Y54.415 Z-2.000 F400.000
G1 X-6.000 Y54.415 Z-2.000 F400.000
G2 X-7.585 Y56.000 Z-2.000 I0.000 J1.585 K0.000 F400.000
G1 X-7.585 Y76.000 Z-2.000 F400.000
G2 X-6.000 Y77.585 Z-2.000 I1.585 J0.000 K0.000 F400.000
G1 X-1.585 Y77.585 Z-2.000 F400.000
G1 X-1.585 Y132.000 Z-2.000 F400.000
G2 X0.000 Y133.585 Z-2.000 I1.585 J-0.000 K0.000 F400.000
G1 X238.000 Y133.585 Z-2.000 F400.000
G2 X239.551 Y132.324 Z-2.000 I-0.000 J-1.585 K0.000 F400.000
G1 X239.551 Y132.324 Z-3.000 F200.000
G2 X239.585 Y132.000 Z-3.000 I-1.551 J-0.324 K0.000 F400.000
G1 X239.585 Y77.585 Z-3.000 F400.000
G1 X244.000 Y77.585 Z-3.000 F400.000
G2 X245.585 Y76.000 Z-3.000 I-0.000 J-1.585 K0.000 F400.000
G1 X245.585 Y56.000 Z-3.000 F400.000
G2 X244.000 Y54.415 Z-3.000 I-1.585 J-0.000 K0.000 F400.000
G1 X239.585 Y54.415 Z-3.000 F400.000
G1 X239.585 Y-0.000 Z-3.000 F400.000
G2 X238.000 Y-1.585 Z-3.000 I-1.585 J0.000 K0.000 F400.000
G1 X190.085 Y-1.585 Z-3.000 F400.000
G1 X190.085 Y-6.000 Z-3.000 F400.000
G2 X188.500 Y-7.585 Z-3.000 I-1.585 J0.000 K0.000 F400.000
G1 X168.500 Y-7.585 Z-3.000 F400.000
G2 X166.915 Y-6.000 Z-3.000 I0.000 J1.585 K0.000 F400.000
G1 X166.915 Y-1.585 Z-3.000 F400.000
G1 X71.085 Y-1.585 Z-3.000 F400.000
G1 X71.085 Y-6.000 Z-3.000 F400.000
G2 X69.500 Y-7.585 Z-3.000 I-1.585 J0.000 K0.000 F400.000
G1 X49.500 Y-7.585 Z-3.000 F400.000
G2 X47.915 Y-6.000 Z-3.000 I-0.000 J1.585 K0.000 F400.000
G1 X47.915 Y-1.585 Z-3.000 F400.000
G1 X0.000 Y-1.585 Z-3.000 F400.000
G2 X-1.585 Y-0.000 Z-3.000 I0.000 J1.585 K0.000 F400.000
G1 X-1.585 Y54.415 Z-3.000 F400.000
G1 X-6.000 Y54.415 Z-3.000 F400.000
G2 X-7.585 Y56.000 Z-3.000 I0.000 J1.585 K0.000 F400.000
G1 X-7.585 Y76.000 Z-3.000 F400.000
G2 X-6.000 Y77.585 Z-3.000 I1.585 J0.000 K0.000 F400.000
G1 X-1.585 Y77.585 Z-3.000 F400.000
G1 X-1.585 Y132.000 Z-3.000 F400.000
G2 X0.000 Y133.585 Z-3.000 I1.585 J-0.000 K0.000 F400.000
G1 X238.000 Y133.585 Z-3.000 F400.000
G2 X239.551 Y132.324 Z-3.000 I-0.000 J-1.585 K0.000 F400.000
G1 X239.551 Y132.324 Z-4.000 F200.000
G2 X239.585 Y132.000 Z-4.000 I-1.551 J-0.324 K0.000 F400.000
G1 X239.585 Y77.585 Z-4.000 F400.000
G1 X244.000 Y77.585 Z-4.000 F400.000
G2 X245.585 Y76.000 Z-4.000 I-0.000 J-1.585 K0.000 F400.000
G1 X245.585 Y56.000 Z-4.000 F400.000
G2 X244.000 Y54.415 Z-4.000 I-1.585 J-0.000 K0.000 F400.000
G1 X239.585 Y54.415 Z-4.000 F400.000
G1 X239.585 Y-0.000 Z-4.000 F400.000
G2 X238.000 Y-1.585 Z-4.000 I-1.585 J0.000 K0.000 F400.000
G1 X190.085 Y-1.585 Z-4.000 F400.000
G1 X190.085 Y-6.000 Z-4.000 F400.000
G2 X188.500 Y-7.585 Z-4.000 I-1.585 J0.000 K0.000 F400.000
G1 X168.500 Y-7.585 Z-4.000 F400.000
G2 X166.915 Y-6.000 Z-4.000 I0.000 J1.585 K0.000 F400.000
G1 X166.915 Y-1.585 Z-4.000 F400.000
G1 X71.085 Y-1.585 Z-4.000 F400.000
G1 X71.085 Y-6.000 Z-4.000 F400.000
G2 X69.500 Y-7.585 Z-4.000 I-1.585 J0.000 K0.000 F400.000
G1 X49.500 Y-7.585 Z-4.000 F400.000
G2 X47.915 Y-6.000 Z-4.000 I-0.000 J1.585 K0.000 F400.000
G1 X47.915 Y-1.585 Z-4.000 F400.000
G1 X0.000 Y-1.585 Z-4.000 F400.000
G2 X-1.585 Y-0.000 Z-4.000 I0.000 J1.585 K0.000 F400.000
G1 X-1.585 Y54.415 Z-4.000 F400.000
G1 X-6.000 Y54.415 Z-4.000 F400.000
G2 X-7.585 Y56.000 Z-4.000 I0.000 J1.585 K0.000 F400.000
G1 X-7.585 Y76.000 Z-4.000 F400.000
G2 X-6.000 Y77.585 Z-4.000 I1.585 J0.000 K0.000 F400.000
G1 X-1.585 Y77.585 Z-4.000 F400.000
G1 X-1.585 Y132.000 Z-4.000 F400.000
G2 X0.000 Y133.585 Z-4.000 I1.585 J-0.000 K0.000 F400.000
G1 X238.000 Y133.585 Z-4.000 F400.000
G2 X239.551 Y132.324 Z-4.000 I-0.000 J-1.585 K0.000 F400.000
G1 X239.551 Y132.324 Z-5.000 F200.000
G2 X239.585 Y132.000 Z-5.000 I-1.551 J-0.324 K0.000 F400.000
G1 X239.585 Y77.585 Z-5.000 F400.000
G1 X244.000 Y77.585 Z-5.000 F400.000
G2 X245.585 Y76.000 Z-5.000 I-0.000 J-1.585 K0.000 F400.000
G1 X245.585 Y56.000 Z-5.000 F400.000
G2 X244.000 Y54.415 Z-5.000 I-1.585 J-0.000 K0.000 F400.000
G1 X239.585 Y54.415 Z-5.000 F400.000
G1 X239.585 Y-0.000 Z-5.000 F400.000
G2 X238.000 Y-1.585 Z-5.000 I-1.585 J0.000 K0.000 F400.000
G1 X190.085 Y-1.585 Z-5.000 F400.000
G1 X190.085 Y-6.000 Z-5.000 F400.000
G2 X188.500 Y-7.585 Z-5.000 I-1.585 J0.000 K0.000 F400.000
G1 X168.500 Y-7.585 Z-5.000 F400.000
G2 X166.915 Y-6.000 Z-5.000 I0.000 J1.585 K0.000 F400.000
G1 X166.915 Y-1.585 Z-5.000 F400.000
G1 X71.085 Y-1.585 Z-5.000 F400.000
G1 X71.085 Y-6.000 Z-5.000 F400.000
G2 X69.500 Y-7.585 Z-5.000 I-1.585 J0.000 K0.000 F400.000
G1 X49.500 Y-7.585 Z-5.000 F400.000
G2 X47.915 Y-6.000 Z-5.000 I-0.000 J1.585 K0.000 F400.000
G1 X47.915 Y-1.585 Z-5.000 F400.000
G1 X0.000 Y-1.585 Z-5.000 F400.000
G2 X-1.585 Y-0.000 Z-5.000 I0.000 J1.585 K0.000 F400.000
G1 X-1.585 Y54.415 Z-5.000 F400.000
G1 X-6.000 Y54.415 Z-5.000 F400.000
G2 X-7.585 Y56.000 Z-5.000 I0.000 J1.585 K0.000 F400.000
G1 X-7.585 Y76.000 Z-5.000 F400.000
G2 X-6.000 Y77.585 Z-5.000 I1.585 J0.000 K0.000 F400.000
G1 X-1.585 Y77.585 Z-5.000 F400.000
G1 X-1.585 Y132.000 Z-5.000 F400.000
G2 X0.000 Y133.585 Z-5.000 I1.585 J-0.000 K0.000 F400.000
G1 X238.000 Y133.585 Z-5.000 F400.000
G2 X239.551 Y132.324 Z-5.000 I-0.000 J-1.585 K0.000 F400.000
G1 X239.551 Y132.324 Z-6.000 F200.000
G2 X239.585 Y132.000 Z-6.000 I-1.551 J-0.324 K0.000 F400.000
G1 X239.585 Y77.585 Z-6.000 F400.000
G1 X244.000 Y77.585 Z-6.000 F400.000
G2 X245.585 Y76.000 Z-6.000 I-0.000 J-1.585 K0.000 F400.000
G1 X245.585 Y56.000 Z-6.000 F400.000
G2 X244.000 Y54.415 Z-6.000 I-1.585 J-0.000 K0.000 F400.000
G1 X239.585 Y54.415 Z-6.000 F400.000
G1 X239.585 Y-0.000 Z-6.000 F400.000
G2 X238.000 Y-1.585 Z-6.000 I-1.585 J0.000 K0.000 F400.000
G1 X190.085 Y-1.585 Z-6.000 F400.000
G1 X190.085 Y-6.000 Z-6.000 F400.000
G2 X188.500 Y-7.585 Z-6.000 I-1.585 J0.000 K0.000 F400.000
G1 X168.500 Y-7.585 Z-6.000 F400.000
G2 X166.915 Y-6.000 Z-6.000 I0.000 J1.585 K0.000 F400.000
G1 X166.915 Y-1.585 Z-6.000 F400.000
G1 X71.085 Y-1.585 Z-6.000 F400.000
G1 X71.085 Y-6.000 Z-6.000 F400.000
G2 X69.500 Y-7.585 Z-6.000 I-1.585 J0.000 K0.000 F400.000
G1 X49.500 Y-7.585 Z-6.000 F400.000
G2 X47.915 Y-6.000 Z-6.000 I-0.000 J1.585 K0.000 F400.000
G1 X47.915 Y-1.585 Z-6.000 F400.000
G1 X0.000 Y-1.585 Z-6.000 F400.000
G2 X-1.585 Y-0.000 Z-6.000 I0.000 J1.585 K0.000 F400.000
G1 X-1.585 Y54.415 Z-6.000 F400.000
G1 X-6.000 Y54.415 Z-6.000 F400.000
G2 X-7.585 Y56.000 Z-6.000 I0.000 J1.585 K0.000 F400.000
G1 X-7.585 Y76.000 Z-6.000 F400.000
G2 X-6.000 Y77.585 Z-6.000 I1.585 J0.000 K0.000 F400.000
G1 X-1.585 Y77.585 Z-6.000 F400.000
G1 X-1.585 Y132.000 Z-6.000 F400.000
G2 X0.000 Y133.585 Z-6.000 I1.585 J-0.000 K0.000 F400.000
G1 X238.000 Y133.585 Z-6.000 F400.000
G2 X239.551 Y132.324 Z-6.000 I-0.000 J-1.585 K0.000 F400.000
G0 Z6.000
G0 Z6.000
(Finish operation: Profile005)
(Begin postamble)
M5
G17 G90
M2
