(Exported by FreeCAD)
(Post Processor: grbl_post)
(Output Time:2023-01-06 16:29:51.204016)
(Begin preamble)
G17 G90
G21
(Begin operation: G54)
(Path: G54)
G54
G0 Z6.000
(Finish operation: G54)
(Begin operation: 3_175_enmill003)
(Path: 3_175_enmill003)
(3_175_enmill003)
(Begin toolchange)
( M6 T2 )
M3 S19000
(Finish operation: 3_175_enmill003)
(Begin operation: Drilling005)
(Path: Drilling005)
(Drilling005)
(Begin Drilling)
G0 Z6.000
G90
G98
G0 X4.050 Y6.800
G0 Z4.000
G81 X4.050 Y6.800 Z-3.000 F200.000 R4.000
G0 X3.920 Y10.960
G0 Z4.000
G81 X3.920 Y10.960 Z-3.000 F200.000 R4.000
G0 X249.800 Y10.620
G0 Z4.000
G81 X249.800 Y10.620 Z-3.000 F200.000 R4.000
G0 X249.840 Y7.120
G0 Z4.000
G81 X249.840 Y7.120 Z-3.000 F200.000 R4.000
G80
G0 Z4.000
G0 Z6.000
(Finish operation: Drilling005)
(Begin operation: Drilling002)
(Path: Drilling002)
(Drilling002)
(Begin Drilling)
G0 Z6.000
G90
G98
G0 X5.180 Y64.160
G0 Z4.000
G81 X5.180 Y64.160 Z-6.000 F200.000 R4.000
G0 X4.980 Y82.320
G0 Z4.000
G81 X4.980 Y82.320 Z-6.000 F200.000 R4.000
G0 X51.360 Y145.180
G0 Z4.000
G81 X51.360 Y145.180 Z-6.000 F200.000 R4.000
G0 X73.550 Y145.060
G0 Z4.000
G81 X73.550 Y145.060 Z-6.000 F200.000 R4.000
G0 X176.380 Y145.130
G0 Z4.000
G81 X176.380 Y145.130 Z-6.000 F200.000 R4.000
G0 X198.500 Y145.010
G0 Z4.000
G81 X198.500 Y145.010 Z-6.000 F200.000 R4.000
G0 X245.040 Y86.900
G0 Z4.000
G81 X245.040 Y86.900 Z-6.000 F200.000 R4.000
G0 X245.050 Y69.070
G0 Z4.000
G81 X245.050 Y69.070 Z-6.000 F200.000 R4.000
G80
G0 Z4.000
G0 Z6.000
(Finish operation: Drilling002)
(Begin operation: Pocket_Shape001)
(Path: Pocket_Shape001)
(Pocket_Shape001)
G0 Z6.000
G0 X248.615 Y10.615
G0 Z4.000
G1 X248.615 Y10.615 Z0.000 F200.000
G1 X248.615 Y7.385 Z0.000 F350.000
G1 X4.385 Y7.385 Z0.000 F350.000
G1 X4.385 Y10.615 Z0.000 F350.000
G1 X248.615 Y10.615 Z0.000 F350.000
G0 Z6.000
G0 X247.923 Y9.923 Z6.000
G0 X247.923 Y9.923 Z4.000
G1 X247.923 Y9.923 Z0.000 F200.000
G1 X247.923 Y8.077 Z0.000 F350.000
G1 X5.077 Y8.077 Z0.000 F350.000
G1 X5.077 Y9.922 Z0.000 F350.000
G1 X247.923 Y9.923 Z0.000 F350.000
G0 Z6.000
G0 X247.230 Y9.230 Z6.000
G0 X247.230 Y9.230 Z4.000
G1 X247.230 Y9.230 Z0.000 F200.000
G1 X247.230 Y8.770 Z0.000 F350.000
G1 X5.770 Y8.770 Z0.000 F350.000
G1 X5.770 Y9.230 Z0.000 F350.000
G1 X247.230 Y9.230 Z0.000 F350.000
G1 X247.230 Y9.230 Z-1.000 F200.000
G1 X247.230 Y8.770 Z-1.000 F350.000
G1 X5.770 Y8.770 Z-1.000 F350.000
G1 X5.770 Y9.230 Z-1.000 F350.000
G1 X247.230 Y9.230 Z-1.000 F350.000
G0 Z6.000
G0 Y9.923 Z6.000
G0 Y9.923 Z4.000
G1 X247.230 Y9.923 Z-1.000 F200.000
G1 X247.923 Y9.923 Z-1.000 F350.000
G1 X247.923 Y8.077 Z-1.000 F350.000
G1 X5.077 Y8.077 Z-1.000 F350.000
G1 X5.077 Y9.922 Z-1.000 F350.000
G1 X247.230 Y9.923 Z-1.000 F350.000
G0 Z6.000
G0 Y10.615 Z6.000
G0 Y10.615 Z4.000
G1 X247.230 Y10.615 Z-1.000 F200.000
G1 X248.615 Y10.615 Z-1.000 F350.000
G1 X248.615 Y7.385 Z-1.000 F350.000
G1 X4.385 Y7.385 Z-1.000 F350.000
G1 X4.385 Y10.615 Z-1.000 F350.000
G1 X247.230 Y10.615 Z-1.000 F350.000
G1 X247.230 Y10.615 Z-2.000 F200.000
G1 X248.615 Y10.615 Z-2.000 F350.000
G1 X248.615 Y7.385 Z-2.000 F350.000
G1 X4.385 Y7.385 Z-2.000 F350.000
G1 X4.385 Y10.615 Z-2.000 F350.000
G1 X247.230 Y10.615 Z-2.000 F350.000
G0 Z6.000
G0 Y9.923 Z6.000
G0 Y9.923 Z4.000
G1 X247.230 Y9.923 Z-2.000 F200.000
G1 X247.923 Y9.923 Z-2.000 F350.000
G1 X247.923 Y8.077 Z-2.000 F350.000
G1 X5.077 Y8.077 Z-2.000 F350.000
G1 X5.077 Y9.922 Z-2.000 F350.000
G1 X247.230 Y9.923 Z-2.000 F350.000
G0 Z6.000
G0 Y9.230 Z6.000
G0 Y9.230 Z4.000
G1 X247.230 Y9.230 Z-2.000 F200.000
G1 X247.230 Y8.770 Z-2.000 F350.000
G1 X5.770 Y8.770 Z-2.000 F350.000
G1 X5.770 Y9.230 Z-2.000 F350.000
G1 X247.230 Y9.230 Z-2.000 F350.000
G1 X247.230 Y9.230 Z-3.000 F200.000
G1 X247.230 Y8.770 Z-3.000 F350.000
G1 X5.770 Y8.770 Z-3.000 F350.000
G1 X5.770 Y9.230 Z-3.000 F350.000
G1 X247.230 Y9.230 Z-3.000 F350.000
G0 Z6.000
G0 Y9.923 Z6.000
G0 Y9.923 Z4.000
G1 X247.230 Y9.923 Z-3.000 F200.000
G1 X247.923 Y9.923 Z-3.000 F350.000
G1 X247.923 Y8.077 Z-3.000 F350.000
G1 X5.077 Y8.077 Z-3.000 F350.000
G1 X5.077 Y9.922 Z-3.000 F350.000
G1 X247.230 Y9.923 Z-3.000 F350.000
G0 Z6.000
G0 Y10.615 Z6.000
G0 Y10.615 Z4.000
G1 X247.230 Y10.615 Z-3.000 F200.000
G1 X248.615 Y10.615 Z-3.000 F350.000
G1 X248.615 Y7.385 Z-3.000 F350.000
G1 X4.385 Y7.385 Z-3.000 F350.000
G1 X4.385 Y10.615 Z-3.000 F350.000
G1 X247.230 Y10.615 Z-3.000 F350.000
G0 Z6.000
G0 Z6.000
(Finish operation: Pocket_Shape001)
(Begin operation: Profile001)
(Path: Profile001)
(Profile001)
(Compensated Tool Path. Diameter: 3.17)
G0 Z6.000
G0 X250.324 Y145.551
G0 Z4.000
G1 X250.324 Y145.551 Z0.000 F200.000
G2 X251.585 Y144.000 Z0.000 I-0.324 J-1.551 K0.000 F350.000
G1 X251.585 Y88.000 Z0.000 F350.000
G2 X250.000 Y86.415 Z0.000 I-1.585 J0.000 K0.000 F350.000
G1 X245.585 Y86.415 Z0.000 F350.000
G1 X245.585 Y69.585 Z0.000 F350.000
G1 X250.000 Y69.585 Z0.000 F350.000
G2 X251.585 Y68.000 Z0.000 I-0.000 J-1.585 K0.000 F350.000
G1 X251.585 Y0.000 Z0.000 F350.000
G2 X250.000 Y-1.585 Z0.000 I-1.585 J0.000 K0.000 F350.000
G1 X-0.000 Y-1.585 Z0.000 F350.000
G2 X-1.585 Y0.000 Z0.000 I0.000 J1.585 K0.000 F350.000
G1 X-1.585 Y63.340 Z0.000 F350.000
G2 X0.000 Y64.925 Z0.000 I1.585 J0.000 K0.000 F350.000
G1 X4.383 Y64.925 Z0.000 F350.000
G1 X4.383 Y81.755 Z0.000 F350.000
G1 X-0.000 Y81.755 Z0.000 F350.000
G2 X-1.585 Y83.340 Z0.000 I0.000 J1.585 K0.000 F350.000
G1 X-1.585 Y144.000 Z0.000 F350.000
G2 X0.000 Y145.585 Z0.000 I1.585 J-0.000 K0.000 F350.000
G1 X50.915 Y145.585 Z0.000 F350.000
G1 X50.915 Y150.000 Z0.000 F350.000
G2 X52.500 Y151.585 Z0.000 I1.585 J-0.000 K0.000 F350.000
G1 X72.500 Y151.585 Z0.000 F350.000
G2 X74.085 Y150.000 Z0.000 I-0.000 J-1.585 K0.000 F350.000
G1 X74.085 Y145.585 Z0.000 F350.000
G1 X175.915 Y145.585 Z0.000 F350.000
G1 X175.915 Y150.000 Z0.000 F350.000
G2 X177.500 Y151.585 Z0.000 I1.585 J-0.000 K0.000 F350.000
G1 X197.500 Y151.585 Z0.000 F350.000
G2 X199.085 Y150.000 Z0.000 I-0.000 J-1.585 K0.000 F350.000
G1 X199.085 Y145.585 Z0.000 F350.000
G1 X250.000 Y145.585 Z0.000 F350.000
G2 X250.324 Y145.551 Z0.000 I-0.000 J-1.585 K0.000 F350.000
G1 X250.324 Y145.551 Z-1.000 F200.000
G2 X251.585 Y144.000 Z-1.000 I-0.324 J-1.551 K0.000 F350.000
G1 X251.585 Y88.000 Z-1.000 F350.000
G2 X250.000 Y86.415 Z-1.000 I-1.585 J0.000 K0.000 F350.000
G1 X245.585 Y86.415 Z-1.000 F350.000
G1 X245.585 Y69.585 Z-1.000 F350.000
G1 X250.000 Y69.585 Z-1.000 F350.000
G2 X251.585 Y68.000 Z-1.000 I-0.000 J-1.585 K0.000 F350.000
G1 X251.585 Y0.000 Z-1.000 F350.000
G2 X250.000 Y-1.585 Z-1.000 I-1.585 J0.000 K0.000 F350.000
G1 X-0.000 Y-1.585 Z-1.000 F350.000
G2 X-1.585 Y0.000 Z-1.000 I0.000 J1.585 K0.000 F350.000
G1 X-1.585 Y63.340 Z-1.000 F350.000
G2 X0.000 Y64.925 Z-1.000 I1.585 J0.000 K0.000 F350.000
G1 X4.383 Y64.925 Z-1.000 F350.000
G1 X4.383 Y81.755 Z-1.000 F350.000
G1 X-0.000 Y81.755 Z-1.000 F350.000
G2 X-1.585 Y83.340 Z-1.000 I0.000 J1.585 K0.000 F350.000
G1 X-1.585 Y144.000 Z-1.000 F350.000
G2 X0.000 Y145.585 Z-1.000 I1.585 J-0.000 K0.000 F350.000
G1 X50.915 Y145.585 Z-1.000 F350.000
G1 X50.915 Y150.000 Z-1.000 F350.000
G2 X52.500 Y151.585 Z-1.000 I1.585 J-0.000 K0.000 F350.000
G1 X72.500 Y151.585 Z-1.000 F350.000
G2 X74.085 Y150.000 Z-1.000 I-0.000 J-1.585 K0.000 F350.000
G1 X74.085 Y145.585 Z-1.000 F350.000
G1 X175.915 Y145.585 Z-1.000 F350.000
G1 X175.915 Y150.000 Z-1.000 F350.000
G2 X177.500 Y151.585 Z-1.000 I1.585 J-0.000 K0.000 F350.000
G1 X197.500 Y151.585 Z-1.000 F350.000
G2 X199.085 Y150.000 Z-1.000 I-0.000 J-1.585 K0.000 F350.000
G1 X199.085 Y145.585 Z-1.000 F350.000
G1 X250.000 Y145.585 Z-1.000 F350.000
G2 X250.324 Y145.551 Z-1.000 I-0.000 J-1.585 K0.000 F350.000
G1 X250.324 Y145.551 Z-2.000 F200.000
G2 X251.585 Y144.000 Z-2.000 I-0.324 J-1.551 K0.000 F350.000
G1 X251.585 Y88.000 Z-2.000 F350.000
G2 X250.000 Y86.415 Z-2.000 I-1.585 J0.000 K0.000 F350.000
G1 X245.585 Y86.415 Z-2.000 F350.000
G1 X245.585 Y69.585 Z-2.000 F350.000
G1 X250.000 Y69.585 Z-2.000 F350.000
G2 X251.585 Y68.000 Z-2.000 I-0.000 J-1.585 K0.000 F350.000
G1 X251.585 Y0.000 Z-2.000 F350.000
G2 X250.000 Y-1.585 Z-2.000 I-1.585 J0.000 K0.000 F350.000
G1 X-0.000 Y-1.585 Z-2.000 F350.000
G2 X-1.585 Y0.000 Z-2.000 I0.000 J1.585 K0.000 F350.000
G1 X-1.585 Y63.340 Z-2.000 F350.000
G2 X0.000 Y64.925 Z-2.000 I1.585 J0.000 K0.000 F350.000
G1 X4.383 Y64.925 Z-2.000 F350.000
G1 X4.383 Y81.755 Z-2.000 F350.000
G1 X-0.000 Y81.755 Z-2.000 F350.000
G2 X-1.585 Y83.340 Z-2.000 I0.000 J1.585 K0.000 F350.000
G1 X-1.585 Y144.000 Z-2.000 F350.000
G2 X0.000 Y145.585 Z-2.000 I1.585 J-0.000 K0.000 F350.000
G1 X50.915 Y145.585 Z-2.000 F350.000
G1 X50.915 Y150.000 Z-2.000 F350.000
G2 X52.500 Y151.585 Z-2.000 I1.585 J-0.000 K0.000 F350.000
G1 X72.500 Y151.585 Z-2.000 F350.000
G2 X74.085 Y150.000 Z-2.000 I-0.000 J-1.585 K0.000 F350.000
G1 X74.085 Y145.585 Z-2.000 F350.000
G1 X175.915 Y145.585 Z-2.000 F350.000
G1 X175.915 Y150.000 Z-2.000 F350.000
G2 X177.500 Y151.585 Z-2.000 I1.585 J-0.000 K0.000 F350.000
G1 X197.500 Y151.585 Z-2.000 F350.000
G2 X199.085 Y150.000 Z-2.000 I-0.000 J-1.585 K0.000 F350.000
G1 X199.085 Y145.585 Z-2.000 F350.000
G1 X250.000 Y145.585 Z-2.000 F350.000
G2 X250.324 Y145.551 Z-2.000 I-0.000 J-1.585 K0.000 F350.000
G1 X250.324 Y145.551 Z-3.000 F200.000
G2 X251.585 Y144.000 Z-3.000 I-0.324 J-1.551 K0.000 F350.000
G1 X251.585 Y88.000 Z-3.000 F350.000
G2 X250.000 Y86.415 Z-3.000 I-1.585 J0.000 K0.000 F350.000
G1 X245.585 Y86.415 Z-3.000 F350.000
G1 X245.585 Y69.585 Z-3.000 F350.000
G1 X250.000 Y69.585 Z-3.000 F350.000
G2 X251.585 Y68.000 Z-3.000 I-0.000 J-1.585 K0.000 F350.000
G1 X251.585 Y0.000 Z-3.000 F350.000
G2 X250.000 Y-1.585 Z-3.000 I-1.585 J0.000 K0.000 F350.000
G1 X-0.000 Y-1.585 Z-3.000 F350.000
G2 X-1.585 Y0.000 Z-3.000 I0.000 J1.585 K0.000 F350.000
G1 X-1.585 Y63.340 Z-3.000 F350.000
G2 X0.000 Y64.925 Z-3.000 I1.585 J0.000 K0.000 F350.000
G1 X4.383 Y64.925 Z-3.000 F350.000
G1 X4.383 Y81.755 Z-3.000 F350.000
G1 X-0.000 Y81.755 Z-3.000 F350.000
G2 X-1.585 Y83.340 Z-3.000 I0.000 J1.585 K0.000 F350.000
G1 X-1.585 Y144.000 Z-3.000 F350.000
G2 X0.000 Y145.585 Z-3.000 I1.585 J-0.000 K0.000 F350.000
G1 X50.915 Y145.585 Z-3.000 F350.000
G1 X50.915 Y150.000 Z-3.000 F350.000
G2 X52.500 Y151.585 Z-3.000 I1.585 J-0.000 K0.000 F350.000
G1 X72.500 Y151.585 Z-3.000 F350.000
G2 X74.085 Y150.000 Z-3.000 I-0.000 J-1.585 K0.000 F350.000
G1 X74.085 Y145.585 Z-3.000 F350.000
G1 X175.915 Y145.585 Z-3.000 F350.000
G1 X175.915 Y150.000 Z-3.000 F350.000
G2 X177.500 Y151.585 Z-3.000 I1.585 J-0.000 K0.000 F350.000
G1 X197.500 Y151.585 Z-3.000 F350.000
G2 X199.085 Y150.000 Z-3.000 I-0.000 J-1.585 K0.000 F350.000
G1 X199.085 Y145.585 Z-3.000 F350.000
G1 X250.000 Y145.585 Z-3.000 F350.000
G2 X250.324 Y145.551 Z-3.000 I-0.000 J-1.585 K0.000 F350.000
G1 X250.324 Y145.551 Z-4.000 F200.000
G2 X251.585 Y144.000 Z-4.000 I-0.324 J-1.551 K0.000 F350.000
G1 X251.585 Y88.000 Z-4.000 F350.000
G2 X250.000 Y86.415 Z-4.000 I-1.585 J0.000 K0.000 F350.000
G1 X245.585 Y86.415 Z-4.000 F350.000
G1 X245.585 Y69.585 Z-4.000 F350.000
G1 X250.000 Y69.585 Z-4.000 F350.000
G2 X251.585 Y68.000 Z-4.000 I-0.000 J-1.585 K0.000 F350.000
G1 X251.585 Y0.000 Z-4.000 F350.000
G2 X250.000 Y-1.585 Z-4.000 I-1.585 J0.000 K0.000 F350.000
G1 X-0.000 Y-1.585 Z-4.000 F350.000
G2 X-1.585 Y0.000 Z-4.000 I0.000 J1.585 K0.000 F350.000
G1 X-1.585 Y63.340 Z-4.000 F350.000
G2 X0.000 Y64.925 Z-4.000 I1.585 J0.000 K0.000 F350.000
G1 X4.383 Y64.925 Z-4.000 F350.000
G1 X4.383 Y81.755 Z-4.000 F350.000
G1 X-0.000 Y81.755 Z-4.000 F350.000
G2 X-1.585 Y83.340 Z-4.000 I0.000 J1.585 K0.000 F350.000
G1 X-1.585 Y144.000 Z-4.000 F350.000
G2 X0.000 Y145.585 Z-4.000 I1.585 J-0.000 K0.000 F350.000
G1 X50.915 Y145.585 Z-4.000 F350.000
G1 X50.915 Y150.000 Z-4.000 F350.000
G2 X52.500 Y151.585 Z-4.000 I1.585 J-0.000 K0.000 F350.000
G1 X72.500 Y151.585 Z-4.000 F350.000
G2 X74.085 Y150.000 Z-4.000 I-0.000 J-1.585 K0.000 F350.000
G1 X74.085 Y145.585 Z-4.000 F350.000
G1 X175.915 Y145.585 Z-4.000 F350.000
G1 X175.915 Y150.000 Z-4.000 F350.000
G2 X177.500 Y151.585 Z-4.000 I1.585 J-0.000 K0.000 F350.000
G1 X197.500 Y151.585 Z-4.000 F350.000
G2 X199.085 Y150.000 Z-4.000 I-0.000 J-1.585 K0.000 F350.000
G1 X199.085 Y145.585 Z-4.000 F350.000
G1 X250.000 Y145.585 Z-4.000 F350.000
G2 X250.324 Y145.551 Z-4.000 I-0.000 J-1.585 K0.000 F350.000
G1 X250.324 Y145.551 Z-5.000 F200.000
G2 X251.585 Y144.000 Z-5.000 I-0.324 J-1.551 K0.000 F350.000
G1 X251.585 Y88.000 Z-5.000 F350.000
G2 X250.000 Y86.415 Z-5.000 I-1.585 J0.000 K0.000 F350.000
G1 X245.585 Y86.415 Z-5.000 F350.000
G1 X245.585 Y69.585 Z-5.000 F350.000
G1 X250.000 Y69.585 Z-5.000 F350.000
G2 X251.585 Y68.000 Z-5.000 I-0.000 J-1.585 K0.000 F350.000
G1 X251.585 Y0.000 Z-5.000 F350.000
G2 X250.000 Y-1.585 Z-5.000 I-1.585 J0.000 K0.000 F350.000
G1 X-0.000 Y-1.585 Z-5.000 F350.000
G2 X-1.585 Y0.000 Z-5.000 I0.000 J1.585 K0.000 F350.000
G1 X-1.585 Y63.340 Z-5.000 F350.000
G2 X0.000 Y64.925 Z-5.000 I1.585 J0.000 K0.000 F350.000
G1 X4.383 Y64.925 Z-5.000 F350.000
G1 X4.383 Y81.755 Z-5.000 F350.000
G1 X-0.000 Y81.755 Z-5.000 F350.000
G2 X-1.585 Y83.340 Z-5.000 I0.000 J1.585 K0.000 F350.000
G1 X-1.585 Y144.000 Z-5.000 F350.000
G2 X0.000 Y145.585 Z-5.000 I1.585 J-0.000 K0.000 F350.000
G1 X50.915 Y145.585 Z-5.000 F350.000
G1 X50.915 Y150.000 Z-5.000 F350.000
G2 X52.500 Y151.585 Z-5.000 I1.585 J-0.000 K0.000 F350.000
G1 X72.500 Y151.585 Z-5.000 F350.000
G2 X74.085 Y150.000 Z-5.000 I-0.000 J-1.585 K0.000 F350.000
G1 X74.085 Y145.585 Z-5.000 F350.000
G1 X175.915 Y145.585 Z-5.000 F350.000
G1 X175.915 Y150.000 Z-5.000 F350.000
G2 X177.500 Y151.585 Z-5.000 I1.585 J-0.000 K0.000 F350.000
G1 X197.500 Y151.585 Z-5.000 F350.000
G2 X199.085 Y150.000 Z-5.000 I-0.000 J-1.585 K0.000 F350.000
G1 X199.085 Y145.585 Z-5.000 F350.000
G1 X250.000 Y145.585 Z-5.000 F350.000
G2 X250.324 Y145.551 Z-5.000 I-0.000 J-1.585 K0.000 F350.000
G1 X250.324 Y145.551 Z-6.000 F200.000
G2 X251.585 Y144.000 Z-6.000 I-0.324 J-1.551 K0.000 F350.000
G1 X251.585 Y88.000 Z-6.000 F350.000
G2 X250.000 Y86.415 Z-6.000 I-1.585 J0.000 K0.000 F350.000
G1 X245.585 Y86.415 Z-6.000 F350.000
G1 X245.585 Y69.585 Z-6.000 F350.000
G1 X250.000 Y69.585 Z-6.000 F350.000
G2 X251.585 Y68.000 Z-6.000 I-0.000 J-1.585 K0.000 F350.000
G1 X251.585 Y0.000 Z-6.000 F350.000
G2 X250.000 Y-1.585 Z-6.000 I-1.585 J0.000 K0.000 F350.000
G1 X-0.000 Y-1.585 Z-6.000 F350.000
G2 X-1.585 Y0.000 Z-6.000 I0.000 J1.585 K0.000 F350.000
G1 X-1.585 Y63.340 Z-6.000 F350.000
G2 X0.000 Y64.925 Z-6.000 I1.585 J0.000 K0.000 F350.000
G1 X4.383 Y64.925 Z-6.000 F350.000
G1 X4.383 Y81.755 Z-6.000 F350.000
G1 X-0.000 Y81.755 Z-6.000 F350.000
G2 X-1.585 Y83.340 Z-6.000 I0.000 J1.585 K0.000 F350.000
G1 X-1.585 Y144.000 Z-6.000 F350.000
G2 X0.000 Y145.585 Z-6.000 I1.585 J-0.000 K0.000 F350.000
G1 X50.915 Y145.585 Z-6.000 F350.000
G1 X50.915 Y150.000 Z-6.000 F350.000
G2 X52.500 Y151.585 Z-6.000 I1.585 J-0.000 K0.000 F350.000
G1 X72.500 Y151.585 Z-6.000 F350.000
G2 X74.085 Y150.000 Z-6.000 I-0.000 J-1.585 K0.000 F350.000
G1 X74.085 Y145.585 Z-6.000 F350.000
G1 X175.915 Y145.585 Z-6.000 F350.000
G1 X175.915 Y150.000 Z-6.000 F350.000
G2 X177.500 Y151.585 Z-6.000 I1.585 J-0.000 K0.000 F350.000
G1 X197.500 Y151.585 Z-6.000 F350.000
G2 X199.085 Y150.000 Z-6.000 I-0.000 J-1.585 K0.000 F350.000
G1 X199.085 Y145.585 Z-6.000 F350.000
G1 X250.000 Y145.585 Z-6.000 F350.000
G2 X250.324 Y145.551 Z-6.000 I-0.000 J-1.585 K0.000 F350.000
G0 Z6.000
G0 Z6.000
(Finish operation: Profile001)
(Begin postamble)
M5
G17 G90
M2
