(Exported by FreeCAD)
(Post Processor: grbl_post)
(Output Time:2023-01-06 15:32:48.882342)
(Begin preamble)
G17 G90
G21
(Begin operation: G54)
(Path: G54)
G54
G0 Z6.000
(Finish operation: G54)
(Begin operation: 3_175_enmill001)
(Path: 3_175_enmill001)
(3_175_enmill001)
(Begin toolchange)
( M6 T3 )
M3 S22000
(Finish operation: 3_175_enmill001)
(Begin operation: Drilling)
(Path: Drilling)
(Drilling)
(Begin Drilling)
G0 Z6.000
G90
G98
G0 X4.920 Y68.990
G0 Z4.000
G81 X4.920 Y68.990 Z-6.000 F200.000 R4.000
G0 X4.980 Y86.990
G0 Z4.000
G81 X4.980 Y86.990 Z-6.000 F200.000 R4.000
G0 X51.290 Y145.160
G0 Z4.000
G81 X51.290 Y145.160 Z-6.000 F200.000 R4.000
G0 X73.640 Y145.060
G0 Z4.000
G81 X73.640 Y145.060 Z-6.000 F200.000 R4.000
G0 X176.460 Y145.050
G0 Z4.000
G81 X176.460 Y145.050 Z-6.000 F200.000 R4.000
G0 X198.470 Y144.950
G0 Z4.000
G81 X198.470 Y144.950 Z-6.000 F200.000 R4.000
G0 X245.030 Y82.220
G0 Z4.000
G81 X245.030 Y82.220 Z-6.000 F200.000 R4.000
G0 X245.040 Y64.410
G0 Z4.000
G81 X245.040 Y64.410 Z-6.000 F200.000 R4.000
G80
G0 Z4.000
G0 Z6.000
(Finish operation: Drilling)
(Begin operation: Drilling001)
(Path: Drilling001)
(Drilling001)
(Begin Drilling)
G0 Z6.000
G90
G98
G0 X-0.070 Y7.640
G0 Z4.000
G81 X-0.070 Y7.640 Z-3.000 F200.000 R4.000
G0 X-0.070 Y10.500
G0 Z4.000
G81 X-0.070 Y10.500 Z-3.000 F200.000 R4.000
G0 X245.780 Y10.860
G0 Z4.000
G81 X245.780 Y10.860 Z-3.000 F200.000 R4.000
G0 X245.810 Y7.060
G0 Z4.000
G81 X245.810 Y7.060 Z-3.000 F200.000 R4.000
G80
G0 Z4.000
G0 Z6.000
(Finish operation: Drilling001)
(Begin operation: Pocket_Shape)
(Path: Pocket_Shape)
(Pocket_Shape)
G0 Z6.000
G0 X245.415 Y10.415
G0 Z4.000
G1 X245.415 Y10.415 Z-0.000 F200.000
G1 X245.415 Y7.585 Z-0.000 F400.000
G1 X1.585 Y7.585 Z0.000 F400.000
G1 X1.585 Y10.415 Z0.000 F400.000
G1 X245.415 Y10.415 Z-0.000 F400.000
G1 X245.415 Y10.415 Z-0.000 F200.000
G1 X240.932 Y10.415 Z-0.000 F400.000
G1 X243.762 Y7.585 Z-0.000 F400.000
G1 X239.279 Y7.585 Z-0.000 F400.000
G1 X236.449 Y10.415 Z-0.000 F400.000
G1 X231.966 Y10.415 Z-0.000 F400.000
G1 X234.796 Y7.585 Z-0.000 F400.000
G1 X230.313 Y7.585 Z-0.000 F400.000
G1 X227.483 Y10.415 Z-0.000 F400.000
G1 X223.000 Y10.415 Z-0.000 F400.000
G1 X225.830 Y7.585 Z-0.000 F400.000
G1 X221.347 Y7.585 Z-0.000 F400.000
G1 X218.517 Y10.415 Z-0.000 F400.000
G1 X214.034 Y10.415 Z-0.000 F400.000
G1 X216.864 Y7.585 Z-0.000 F400.000
G1 X212.381 Y7.585 Z-0.000 F400.000
G1 X209.551 Y10.415 Z-0.000 F400.000
G1 X205.067 Y10.415 Z-0.000 F400.000
G1 X207.897 Y7.585 Z-0.000 F400.000
G1 X203.414 Y7.585 Z-0.000 F400.000
G1 X200.584 Y10.415 Z-0.000 F400.000
G1 X196.101 Y10.415 Z-0.000 F400.000
G1 X198.931 Y7.585 Z-0.000 F400.000
G1 X194.448 Y7.585 Z-0.000 F400.000
G1 X191.618 Y10.415 Z-0.000 F400.000
G1 X187.135 Y10.415 Z-0.000 F400.000
G1 X189.965 Y7.585 Z-0.000 F400.000
G1 X185.482 Y7.585 Z-0.000 F400.000
G1 X182.652 Y10.415 Z-0.000 F400.000
G1 X178.169 Y10.415 Z-0.000 F400.000
G1 X180.999 Y7.585 Z-0.000 F400.000
G1 X176.516 Y7.585 Z-0.000 F400.000
G1 X173.686 Y10.415 Z-0.000 F400.000
G1 X169.203 Y10.415 Z-0.000 F400.000
G1 X172.033 Y7.585 Z-0.000 F400.000
G1 X167.550 Y7.585 Z-0.000 F400.000
G1 X164.720 Y10.415 Z-0.000 F400.000
G1 X160.237 Y10.415 Z-0.000 F400.000
G1 X163.067 Y7.585 Z-0.000 F400.000
G1 X158.584 Y7.585 Z-0.000 F400.000
G1 X155.754 Y10.415 Z-0.000 F400.000
G1 X151.271 Y10.415 Z-0.000 F400.000
G1 X154.101 Y7.585 Z-0.000 F400.000
G1 X149.618 Y7.585 Z-0.000 F400.000
G1 X146.788 Y10.415 Z-0.000 F400.000
G1 X142.305 Y10.415 Z-0.000 F400.000
G1 X145.135 Y7.585 Z-0.000 F400.000
G1 X140.652 Y7.585 Z-0.000 F400.000
G1 X137.822 Y10.415 Z-0.000 F400.000
G1 X133.339 Y10.415 Z-0.000 F400.000
G1 X136.169 Y7.585 Z-0.000 F400.000
G1 X131.686 Y7.585 Z-0.000 F400.000
G1 X128.856 Y10.415 Z-0.000 F400.000
G1 X124.372 Y10.415 Z-0.000 F400.000
G1 X127.202 Y7.585 Z0.000 F400.000
G1 X122.719 Y7.585 Z0.000 F400.000
G1 X119.889 Y10.415 Z-0.000 F400.000
G1 X115.406 Y10.415 Z0.000 F400.000
G1 X118.236 Y7.585 Z0.000 F400.000
G1 X113.753 Y7.585 Z0.000 F400.000
G1 X110.923 Y10.415 Z0.000 F400.000
G1 X106.440 Y10.415 Z0.000 F400.000
G1 X109.270 Y7.585 Z0.000 F400.000
G1 X104.787 Y7.585 Z0.000 F400.000
G1 X101.957 Y10.415 Z0.000 F400.000
G1 X97.474 Y10.415 Z0.000 F400.000
G1 X100.304 Y7.585 Z0.000 F400.000
G1 X95.821 Y7.585 Z0.000 F400.000
G1 X92.991 Y10.415 Z0.000 F400.000
G1 X88.508 Y10.415 Z0.000 F400.000
G1 X91.338 Y7.585 Z0.000 F400.000
G1 X86.855 Y7.585 Z0.000 F400.000
G1 X84.025 Y10.415 Z0.000 F400.000
G1 X79.542 Y10.415 Z0.000 F400.000
G1 X82.372 Y7.585 Z0.000 F400.000
G1 X77.889 Y7.585 Z0.000 F400.000
G1 X75.059 Y10.415 Z0.000 F400.000
G1 X70.576 Y10.415 Z0.000 F400.000
G1 X73.406 Y7.585 Z0.000 F400.000
G1 X68.923 Y7.585 Z0.000 F400.000
G1 X66.093 Y10.415 Z0.000 F400.000
G1 X61.610 Y10.415 Z0.000 F400.000
G1 X64.440 Y7.585 Z0.000 F400.000
G1 X59.957 Y7.585 Z0.000 F400.000
G1 X57.127 Y10.415 Z0.000 F400.000
G1 X52.644 Y10.415 Z0.000 F400.000
G1 X55.474 Y7.585 Z0.000 F400.000
G1 X50.990 Y7.585 Z0.000 F400.000
G1 X48.160 Y10.415 Z0.000 F400.000
G1 X43.677 Y10.415 Z0.000 F400.000
G1 X46.507 Y7.585 Z0.000 F400.000
G1 X42.024 Y7.585 Z0.000 F400.000
G1 X39.194 Y10.415 Z0.000 F400.000
G1 X34.711 Y10.415 Z0.000 F400.000
G1 X37.541 Y7.585 Z0.000 F400.000
G1 X33.058 Y7.585 Z0.000 F400.000
G1 X30.228 Y10.415 Z0.000 F400.000
G1 X25.745 Y10.415 Z0.000 F400.000
G1 X28.575 Y7.585 Z0.000 F400.000
G1 X24.092 Y7.585 Z0.000 F400.000
G1 X21.262 Y10.415 Z0.000 F400.000
G1 X16.779 Y10.415 Z0.000 F400.000
G1 X19.609 Y7.585 Z0.000 F400.000
G1 X15.126 Y7.585 Z0.000 F400.000
G1 X12.296 Y10.415 Z0.000 F400.000
G1 X7.813 Y10.415 Z0.000 F400.000
G1 X10.643 Y7.585 Z0.000 F400.000
G1 X6.160 Y7.585 Z0.000 F400.000
G1 X3.330 Y10.415 Z0.000 F400.000
G1 X1.585 Y10.415 Z0.000 F400.000
G1 X1.585 Y7.677 Z0.000 F400.000
G1 X1.677 Y7.585 Z0.000 F400.000
G2 X1.585 Y7.677 Z0.000 I-0.046 J0.046 K-0.000 F400.000
G1 X1.585 Y7.677 Z-1.000 F200.000
G3 X1.677 Y7.585 Z-1.000 I0.046 J-0.046 K0.000 F400.000
G1 X1.585 Y7.677 Z-1.000 F400.000
G1 X1.585 Y10.415 Z-1.000 F400.000
G1 X3.330 Y10.415 Z-1.000 F400.000
G1 X6.160 Y7.585 Z-1.000 F400.000
G1 X10.643 Y7.585 Z-1.000 F400.000
G1 X7.813 Y10.415 Z-1.000 F400.000
G1 X12.296 Y10.415 Z-1.000 F400.000
G1 X15.126 Y7.585 Z-1.000 F400.000
G1 X19.609 Y7.585 Z-1.000 F400.000
G1 X16.779 Y10.415 Z-1.000 F400.000
G1 X21.262 Y10.415 Z-1.000 F400.000
G1 X24.092 Y7.585 Z-1.000 F400.000
G1 X28.575 Y7.585 Z-1.000 F400.000
G1 X25.745 Y10.415 Z-1.000 F400.000
G1 X30.228 Y10.415 Z-1.000 F400.000
G1 X33.058 Y7.585 Z-1.000 F400.000
G1 X37.541 Y7.585 Z-1.000 F400.000
G1 X34.711 Y10.415 Z-1.000 F400.000
G1 X39.194 Y10.415 Z-1.000 F400.000
G1 X42.024 Y7.585 Z-1.000 F400.000
G1 X46.507 Y7.585 Z-1.000 F400.000
G1 X43.677 Y10.415 Z-1.000 F400.000
G1 X48.160 Y10.415 Z-1.000 F400.000
G1 X50.990 Y7.585 Z-1.000 F400.000
G1 X55.474 Y7.585 Z-1.000 F400.000
G1 X52.644 Y10.415 Z-1.000 F400.000
G1 X57.127 Y10.415 Z-1.000 F400.000
G1 X59.957 Y7.585 Z-1.000 F400.000
G1 X64.440 Y7.585 Z-1.000 F400.000
G1 X61.610 Y10.415 Z-1.000 F400.000
G1 X66.093 Y10.415 Z-1.000 F400.000
G1 X68.923 Y7.585 Z-1.000 F400.000
G1 X73.406 Y7.585 Z-1.000 F400.000
G1 X70.576 Y10.415 Z-1.000 F400.000
G1 X75.059 Y10.415 Z-1.000 F400.000
G1 X77.889 Y7.585 Z-1.000 F400.000
G1 X82.372 Y7.585 Z-1.000 F400.000
G1 X79.542 Y10.415 Z-1.000 F400.000
G1 X84.025 Y10.415 Z-1.000 F400.000
G1 X86.855 Y7.585 Z-1.000 F400.000
G1 X91.338 Y7.585 Z-1.000 F400.000
G1 X88.508 Y10.415 Z-1.000 F400.000
G1 X92.991 Y10.415 Z-1.000 F400.000
G1 X95.821 Y7.585 Z-1.000 F400.000
G1 X100.304 Y7.585 Z-1.000 F400.000
G1 X97.474 Y10.415 Z-1.000 F400.000
G1 X101.957 Y10.415 Z-1.000 F400.000
G1 X104.787 Y7.585 Z-1.000 F400.000
G1 X109.270 Y7.585 Z-1.000 F400.000
G1 X106.440 Y10.415 Z-1.000 F400.000
G1 X110.923 Y10.415 Z-1.000 F400.000
G1 X113.753 Y7.585 Z-1.000 F400.000
G1 X118.236 Y7.585 Z-1.000 F400.000
G1 X115.406 Y10.415 Z-1.000 F400.000
G1 X119.889 Y10.415 Z-1.000 F400.000
G1 X122.719 Y7.585 Z-1.000 F400.000
G1 X127.202 Y7.585 Z-1.000 F400.000
G1 X124.372 Y10.415 Z-1.000 F400.000
G1 X128.856 Y10.415 Z-1.000 F400.000
G1 X131.686 Y7.585 Z-1.000 F400.000
G1 X136.169 Y7.585 Z-1.000 F400.000
G1 X133.339 Y10.415 Z-1.000 F400.000
G1 X137.822 Y10.415 Z-1.000 F400.000
G1 X140.652 Y7.585 Z-1.000 F400.000
G1 X145.135 Y7.585 Z-1.000 F400.000
G1 X142.305 Y10.415 Z-1.000 F400.000
G1 X146.788 Y10.415 Z-1.000 F400.000
G1 X149.618 Y7.585 Z-1.000 F400.000
G1 X154.101 Y7.585 Z-1.000 F400.000
G1 X151.271 Y10.415 Z-1.000 F400.000
G1 X155.754 Y10.415 Z-1.000 F400.000
G1 X158.584 Y7.585 Z-1.000 F400.000
G1 X163.067 Y7.585 Z-1.000 F400.000
G1 X160.237 Y10.415 Z-1.000 F400.000
G1 X164.720 Y10.415 Z-1.000 F400.000
G1 X167.550 Y7.585 Z-1.000 F400.000
G1 X172.033 Y7.585 Z-1.000 F400.000
G1 X169.203 Y10.415 Z-1.000 F400.000
G1 X173.686 Y10.415 Z-1.000 F400.000
G1 X176.516 Y7.585 Z-1.000 F400.000
G1 X180.999 Y7.585 Z-1.000 F400.000
G1 X178.169 Y10.415 Z-1.000 F400.000
G1 X182.652 Y10.415 Z-1.000 F400.000
G1 X185.482 Y7.585 Z-1.000 F400.000
G1 X189.965 Y7.585 Z-1.000 F400.000
G1 X187.135 Y10.415 Z-1.000 F400.000
G1 X191.618 Y10.415 Z-1.000 F400.000
G1 X194.448 Y7.585 Z-1.000 F400.000
G1 X198.931 Y7.585 Z-1.000 F400.000
G1 X196.101 Y10.415 Z-1.000 F400.000
G1 X200.584 Y10.415 Z-1.000 F400.000
G1 X203.414 Y7.585 Z-1.000 F400.000
G1 X207.897 Y7.585 Z-1.000 F400.000
G1 X205.067 Y10.415 Z-1.000 F400.000
G1 X209.551 Y10.415 Z-1.000 F400.000
G1 X212.381 Y7.585 Z-1.000 F400.000
G1 X216.864 Y7.585 Z-1.000 F400.000
G1 X214.034 Y10.415 Z-1.000 F400.000
G1 X218.517 Y10.415 Z-1.000 F400.000
G1 X221.347 Y7.585 Z-1.000 F400.000
G1 X225.830 Y7.585 Z-1.000 F400.000
G1 X223.000 Y10.415 Z-1.000 F400.000
G1 X227.483 Y10.415 Z-1.000 F400.000
G1 X230.313 Y7.585 Z-1.000 F400.000
G1 X234.796 Y7.585 Z-1.000 F400.000
G1 X231.966 Y10.415 Z-1.000 F400.000
G1 X236.449 Y10.415 Z-1.000 F400.000
G1 X239.279 Y7.585 Z-1.000 F400.000
G1 X243.762 Y7.585 Z-1.000 F400.000
G1 X240.932 Y10.415 Z-1.000 F400.000
G1 X245.415 Y10.415 Z-1.000 F400.000
G1 X245.415 Y10.415 Z-1.000 F200.000
G1 X245.415 Y7.585 Z-1.000 F400.000
G1 X1.585 Y7.585 Z-1.000 F400.000
G1 X1.585 Y10.415 Z-1.000 F400.000
G1 X245.415 Y10.415 Z-1.000 F400.000
G1 X245.415 Y10.415 Z-2.000 F200.000
G1 X245.415 Y7.585 Z-2.000 F400.000
G1 X1.585 Y7.585 Z-2.000 F400.000
G1 X1.585 Y10.415 Z-2.000 F400.000
G1 X245.415 Y10.415 Z-2.000 F400.000
G1 X245.415 Y10.415 Z-2.000 F200.000
G1 X240.932 Y10.415 Z-2.000 F400.000
G1 X243.762 Y7.585 Z-2.000 F400.000
G1 X239.279 Y7.585 Z-2.000 F400.000
G1 X236.449 Y10.415 Z-2.000 F400.000
G1 X231.966 Y10.415 Z-2.000 F400.000
G1 X234.796 Y7.585 Z-2.000 F400.000
G1 X230.313 Y7.585 Z-2.000 F400.000
G1 X227.483 Y10.415 Z-2.000 F400.000
G1 X223.000 Y10.415 Z-2.000 F400.000
G1 X225.830 Y7.585 Z-2.000 F400.000
G1 X221.347 Y7.585 Z-2.000 F400.000
G1 X218.517 Y10.415 Z-2.000 F400.000
G1 X214.034 Y10.415 Z-2.000 F400.000
G1 X216.864 Y7.585 Z-2.000 F400.000
G1 X212.381 Y7.585 Z-2.000 F400.000
G1 X209.551 Y10.415 Z-2.000 F400.000
G1 X205.067 Y10.415 Z-2.000 F400.000
G1 X207.897 Y7.585 Z-2.000 F400.000
G1 X203.414 Y7.585 Z-2.000 F400.000
G1 X200.584 Y10.415 Z-2.000 F400.000
G1 X196.101 Y10.415 Z-2.000 F400.000
G1 X198.931 Y7.585 Z-2.000 F400.000
G1 X194.448 Y7.585 Z-2.000 F400.000
G1 X191.618 Y10.415 Z-2.000 F400.000
G1 X187.135 Y10.415 Z-2.000 F400.000
G1 X189.965 Y7.585 Z-2.000 F400.000
G1 X185.482 Y7.585 Z-2.000 F400.000
G1 X182.652 Y10.415 Z-2.000 F400.000
G1 X178.169 Y10.415 Z-2.000 F400.000
G1 X180.999 Y7.585 Z-2.000 F400.000
G1 X176.516 Y7.585 Z-2.000 F400.000
G1 X173.686 Y10.415 Z-2.000 F400.000
G1 X169.203 Y10.415 Z-2.000 F400.000
G1 X172.033 Y7.585 Z-2.000 F400.000
G1 X167.550 Y7.585 Z-2.000 F400.000
G1 X164.720 Y10.415 Z-2.000 F400.000
G1 X160.237 Y10.415 Z-2.000 F400.000
G1 X163.067 Y7.585 Z-2.000 F400.000
G1 X158.584 Y7.585 Z-2.000 F400.000
G1 X155.754 Y10.415 Z-2.000 F400.000
G1 X151.271 Y10.415 Z-2.000 F400.000
G1 X154.101 Y7.585 Z-2.000 F400.000
G1 X149.618 Y7.585 Z-2.000 F400.000
G1 X146.788 Y10.415 Z-2.000 F400.000
G1 X142.305 Y10.415 Z-2.000 F400.000
G1 X145.135 Y7.585 Z-2.000 F400.000
G1 X140.652 Y7.585 Z-2.000 F400.000
G1 X137.822 Y10.415 Z-2.000 F400.000
G1 X133.339 Y10.415 Z-2.000 F400.000
G1 X136.169 Y7.585 Z-2.000 F400.000
G1 X131.686 Y7.585 Z-2.000 F400.000
G1 X128.856 Y10.415 Z-2.000 F400.000
G1 X124.372 Y10.415 Z-2.000 F400.000
G1 X127.202 Y7.585 Z-2.000 F400.000
G1 X122.719 Y7.585 Z-2.000 F400.000
G1 X119.889 Y10.415 Z-2.000 F400.000
G1 X115.406 Y10.415 Z-2.000 F400.000
G1 X118.236 Y7.585 Z-2.000 F400.000
G1 X113.753 Y7.585 Z-2.000 F400.000
G1 X110.923 Y10.415 Z-2.000 F400.000
G1 X106.440 Y10.415 Z-2.000 F400.000
G1 X109.270 Y7.585 Z-2.000 F400.000
G1 X104.787 Y7.585 Z-2.000 F400.000
G1 X101.957 Y10.415 Z-2.000 F400.000
G1 X97.474 Y10.415 Z-2.000 F400.000
G1 X100.304 Y7.585 Z-2.000 F400.000
G1 X95.821 Y7.585 Z-2.000 F400.000
G1 X92.991 Y10.415 Z-2.000 F400.000
G1 X88.508 Y10.415 Z-2.000 F400.000
G1 X91.338 Y7.585 Z-2.000 F400.000
G1 X86.855 Y7.585 Z-2.000 F400.000
G1 X84.025 Y10.415 Z-2.000 F400.000
G1 X79.542 Y10.415 Z-2.000 F400.000
G1 X82.372 Y7.585 Z-2.000 F400.000
G1 X77.889 Y7.585 Z-2.000 F400.000
G1 X75.059 Y10.415 Z-2.000 F400.000
G1 X70.576 Y10.415 Z-2.000 F400.000
G1 X73.406 Y7.585 Z-2.000 F400.000
G1 X68.923 Y7.585 Z-2.000 F400.000
G1 X66.093 Y10.415 Z-2.000 F400.000
G1 X61.610 Y10.415 Z-2.000 F400.000
G1 X64.440 Y7.585 Z-2.000 F400.000
G1 X59.957 Y7.585 Z-2.000 F400.000
G1 X57.127 Y10.415 Z-2.000 F400.000
G1 X52.644 Y10.415 Z-2.000 F400.000
G1 X55.474 Y7.585 Z-2.000 F400.000
G1 X50.990 Y7.585 Z-2.000 F400.000
G1 X48.160 Y10.415 Z-2.000 F400.000
G1 X43.677 Y10.415 Z-2.000 F400.000
G1 X46.507 Y7.585 Z-2.000 F400.000
G1 X42.024 Y7.585 Z-2.000 F400.000
G1 X39.194 Y10.415 Z-2.000 F400.000
G1 X34.711 Y10.415 Z-2.000 F400.000
G1 X37.541 Y7.585 Z-2.000 F400.000
G1 X33.058 Y7.585 Z-2.000 F400.000
G1 X30.228 Y10.415 Z-2.000 F400.000
G1 X25.745 Y10.415 Z-2.000 F400.000
G1 X28.575 Y7.585 Z-2.000 F400.000
G1 X24.092 Y7.585 Z-2.000 F400.000
G1 X21.262 Y10.415 Z-2.000 F400.000
G1 X16.779 Y10.415 Z-2.000 F400.000
G1 X19.609 Y7.585 Z-2.000 F400.000
G1 X15.126 Y7.585 Z-2.000 F400.000
G1 X12.296 Y10.415 Z-2.000 F400.000
G1 X7.813 Y10.415 Z-2.000 F400.000
G1 X10.643 Y7.585 Z-2.000 F400.000
G1 X6.160 Y7.585 Z-2.000 F400.000
G1 X3.330 Y10.415 Z-2.000 F400.000
G1 X1.585 Y10.415 Z-2.000 F400.000
G1 X1.585 Y7.677 Z-2.000 F400.000
G1 X1.677 Y7.585 Z-2.000 F400.000
G2 X1.585 Y7.677 Z-2.000 I-0.046 J0.046 K0.000 F400.000
G1 X1.585 Y7.677 Z-3.000 F200.000
G3 X1.677 Y7.585 Z-3.000 I0.046 J-0.046 K0.000 F400.000
G1 X1.585 Y7.677 Z-3.000 F400.000
G1 X1.585 Y10.415 Z-3.000 F400.000
G1 X3.330 Y10.415 Z-3.000 F400.000
G1 X6.160 Y7.585 Z-3.000 F400.000
G1 X10.643 Y7.585 Z-3.000 F400.000
G1 X7.813 Y10.415 Z-3.000 F400.000
G1 X12.296 Y10.415 Z-3.000 F400.000
G1 X15.126 Y7.585 Z-3.000 F400.000
G1 X19.609 Y7.585 Z-3.000 F400.000
G1 X16.779 Y10.415 Z-3.000 F400.000
G1 X21.262 Y10.415 Z-3.000 F400.000
G1 X24.092 Y7.585 Z-3.000 F400.000
G1 X28.575 Y7.585 Z-3.000 F400.000
G1 X25.745 Y10.415 Z-3.000 F400.000
G1 X30.228 Y10.415 Z-3.000 F400.000
G1 X33.058 Y7.585 Z-3.000 F400.000
G1 X37.541 Y7.585 Z-3.000 F400.000
G1 X34.711 Y10.415 Z-3.000 F400.000
G1 X39.194 Y10.415 Z-3.000 F400.000
G1 X42.024 Y7.585 Z-3.000 F400.000
G1 X46.507 Y7.585 Z-3.000 F400.000
G1 X43.677 Y10.415 Z-3.000 F400.000
G1 X48.160 Y10.415 Z-3.000 F400.000
G1 X50.990 Y7.585 Z-3.000 F400.000
G1 X55.474 Y7.585 Z-3.000 F400.000
G1 X52.644 Y10.415 Z-3.000 F400.000
G1 X57.127 Y10.415 Z-3.000 F400.000
G1 X59.957 Y7.585 Z-3.000 F400.000
G1 X64.440 Y7.585 Z-3.000 F400.000
G1 X61.610 Y10.415 Z-3.000 F400.000
G1 X66.093 Y10.415 Z-3.000 F400.000
G1 X68.923 Y7.585 Z-3.000 F400.000
G1 X73.406 Y7.585 Z-3.000 F400.000
G1 X70.576 Y10.415 Z-3.000 F400.000
G1 X75.059 Y10.415 Z-3.000 F400.000
G1 X77.889 Y7.585 Z-3.000 F400.000
G1 X82.372 Y7.585 Z-3.000 F400.000
G1 X79.542 Y10.415 Z-3.000 F400.000
G1 X84.025 Y10.415 Z-3.000 F400.000
G1 X86.855 Y7.585 Z-3.000 F400.000
G1 X91.338 Y7.585 Z-3.000 F400.000
G1 X88.508 Y10.415 Z-3.000 F400.000
G1 X92.991 Y10.415 Z-3.000 F400.000
G1 X95.821 Y7.585 Z-3.000 F400.000
G1 X100.304 Y7.585 Z-3.000 F400.000
G1 X97.474 Y10.415 Z-3.000 F400.000
G1 X101.957 Y10.415 Z-3.000 F400.000
G1 X104.787 Y7.585 Z-3.000 F400.000
G1 X109.270 Y7.585 Z-3.000 F400.000
G1 X106.440 Y10.415 Z-3.000 F400.000
G1 X110.923 Y10.415 Z-3.000 F400.000
G1 X113.753 Y7.585 Z-3.000 F400.000
G1 X118.236 Y7.585 Z-3.000 F400.000
G1 X115.406 Y10.415 Z-3.000 F400.000
G1 X119.889 Y10.415 Z-3.000 F400.000
G1 X122.719 Y7.585 Z-3.000 F400.000
G1 X127.202 Y7.585 Z-3.000 F400.000
G1 X124.372 Y10.415 Z-3.000 F400.000
G1 X128.856 Y10.415 Z-3.000 F400.000
G1 X131.686 Y7.585 Z-3.000 F400.000
G1 X136.169 Y7.585 Z-3.000 F400.000
G1 X133.339 Y10.415 Z-3.000 F400.000
G1 X137.822 Y10.415 Z-3.000 F400.000
G1 X140.652 Y7.585 Z-3.000 F400.000
G1 X145.135 Y7.585 Z-3.000 F400.000
G1 X142.305 Y10.415 Z-3.000 F400.000
G1 X146.788 Y10.415 Z-3.000 F400.000
G1 X149.618 Y7.585 Z-3.000 F400.000
G1 X154.101 Y7.585 Z-3.000 F400.000
G1 X151.271 Y10.415 Z-3.000 F400.000
G1 X155.754 Y10.415 Z-3.000 F400.000
G1 X158.584 Y7.585 Z-3.000 F400.000
G1 X163.067 Y7.585 Z-3.000 F400.000
G1 X160.237 Y10.415 Z-3.000 F400.000
G1 X164.720 Y10.415 Z-3.000 F400.000
G1 X167.550 Y7.585 Z-3.000 F400.000
G1 X172.033 Y7.585 Z-3.000 F400.000
G1 X169.203 Y10.415 Z-3.000 F400.000
G1 X173.686 Y10.415 Z-3.000 F400.000
G1 X176.516 Y7.585 Z-3.000 F400.000
G1 X180.999 Y7.585 Z-3.000 F400.000
G1 X178.169 Y10.415 Z-3.000 F400.000
G1 X182.652 Y10.415 Z-3.000 F400.000
G1 X185.482 Y7.585 Z-3.000 F400.000
G1 X189.965 Y7.585 Z-3.000 F400.000
G1 X187.135 Y10.415 Z-3.000 F400.000
G1 X191.618 Y10.415 Z-3.000 F400.000
G1 X194.448 Y7.585 Z-3.000 F400.000
G1 X198.931 Y7.585 Z-3.000 F400.000
G1 X196.101 Y10.415 Z-3.000 F400.000
G1 X200.584 Y10.415 Z-3.000 F400.000
G1 X203.414 Y7.585 Z-3.000 F400.000
G1 X207.897 Y7.585 Z-3.000 F400.000
G1 X205.067 Y10.415 Z-3.000 F400.000
G1 X209.551 Y10.415 Z-3.000 F400.000
G1 X212.381 Y7.585 Z-3.000 F400.000
G1 X216.864 Y7.585 Z-3.000 F400.000
G1 X214.034 Y10.415 Z-3.000 F400.000
G1 X218.517 Y10.415 Z-3.000 F400.000
G1 X221.347 Y7.585 Z-3.000 F400.000
G1 X225.830 Y7.585 Z-3.000 F400.000
G1 X223.000 Y10.415 Z-3.000 F400.000
G1 X227.483 Y10.415 Z-3.000 F400.000
G1 X230.313 Y7.585 Z-3.000 F400.000
G1 X234.796 Y7.585 Z-3.000 F400.000
G1 X231.966 Y10.415 Z-3.000 F400.000
G1 X236.449 Y10.415 Z-3.000 F400.000
G1 X239.279 Y7.585 Z-3.000 F400.000
G1 X243.762 Y7.585 Z-3.000 F400.000
G1 X240.932 Y10.415 Z-3.000 F400.000
G1 X245.415 Y10.415 Z-3.000 F400.000
G1 X245.415 Y10.415 Z-3.000 F200.000
G1 X245.415 Y7.585 Z-3.000 F400.000
G1 X1.585 Y7.585 Z-3.000 F400.000
G1 X1.585 Y10.415 Z-3.000 F400.000
G1 X245.415 Y10.415 Z-3.000 F400.000
G0 Z6.000
G0 Z6.000
(Finish operation: Pocket_Shape)
(Begin operation: Profile)
(Path: Profile)
(Profile)
(Compensated Tool Path. Diameter: 3.17)
G0 Z6.000
G0 X250.324 Y145.551
G0 Z4.000
G1 X250.324 Y145.551 Z0.000 F200.000
G2 X251.585 Y144.000 Z0.000 I-0.324 J-1.551 K0.000 F400.000
G1 X251.585 Y83.340 Z0.000 F400.000
G2 X250.000 Y81.755 Z0.000 I-1.585 J0.000 K0.000 F400.000
G1 X245.617 Y81.755 Z0.000 F400.000
G1 X245.617 Y64.925 Z0.000 F400.000
G1 X250.000 Y64.925 Z0.000 F400.000
G2 X251.585 Y63.340 Z0.000 I0.000 J-1.585 K0.000 F400.000
G1 X251.585 Y0.000 Z0.000 F400.000
G2 X250.000 Y-1.585 Z0.000 I-1.585 J0.000 K0.000 F400.000
G1 X0.000 Y-1.585 Z0.000 F400.000
G2 X-1.585 Y0.000 Z0.000 I0.000 J1.585 K0.000 F400.000
G1 X-1.585 Y68.000 Z0.000 F400.000
G2 X0.000 Y69.585 Z0.000 I1.585 J-0.000 K0.000 F400.000
G1 X4.415 Y69.585 Z0.000 F400.000
G1 X4.415 Y86.415 Z0.000 F400.000
G1 X0.000 Y86.415 Z0.000 F400.000
G2 X-1.585 Y88.000 Z0.000 I0.000 J1.585 K0.000 F400.000
G1 X-1.585 Y144.000 Z0.000 F400.000
G2 X0.000 Y145.585 Z0.000 I1.585 J-0.000 K0.000 F400.000
G1 X50.915 Y145.585 Z0.000 F400.000
G1 X50.915 Y150.000 Z0.000 F400.000
G2 X52.500 Y151.585 Z0.000 I1.585 J-0.000 K0.000 F400.000
G1 X72.500 Y151.585 Z0.000 F400.000
G2 X74.085 Y150.000 Z0.000 I-0.000 J-1.585 K0.000 F400.000
G1 X74.085 Y145.585 Z0.000 F400.000
G1 X175.915 Y145.585 Z0.000 F400.000
G1 X175.915 Y150.000 Z0.000 F400.000
G2 X177.500 Y151.585 Z0.000 I1.585 J-0.000 K0.000 F400.000
G1 X197.500 Y151.585 Z0.000 F400.000
G2 X199.085 Y150.000 Z0.000 I-0.000 J-1.585 K0.000 F400.000
G1 X199.085 Y145.585 Z0.000 F400.000
G1 X250.000 Y145.585 Z0.000 F400.000
G2 X250.324 Y145.551 Z0.000 I-0.000 J-1.585 K0.000 F400.000
G1 X250.324 Y145.551 Z-1.000 F200.000
G2 X251.585 Y144.000 Z-1.000 I-0.324 J-1.551 K0.000 F400.000
G1 X251.585 Y83.340 Z-1.000 F400.000
G2 X250.000 Y81.755 Z-1.000 I-1.585 J0.000 K0.000 F400.000
G1 X245.617 Y81.755 Z-1.000 F400.000
G1 X245.617 Y64.925 Z-1.000 F400.000
G1 X250.000 Y64.925 Z-1.000 F400.000
G2 X251.585 Y63.340 Z-1.000 I0.000 J-1.585 K0.000 F400.000
G1 X251.585 Y0.000 Z-1.000 F400.000
G2 X250.000 Y-1.585 Z-1.000 I-1.585 J0.000 K0.000 F400.000
G1 X0.000 Y-1.585 Z-1.000 F400.000
G2 X-1.585 Y0.000 Z-1.000 I0.000 J1.585 K0.000 F400.000
G1 X-1.585 Y68.000 Z-1.000 F400.000
G2 X0.000 Y69.585 Z-1.000 I1.585 J-0.000 K0.000 F400.000
G1 X4.415 Y69.585 Z-1.000 F400.000
G1 X4.415 Y86.415 Z-1.000 F400.000
G1 X0.000 Y86.415 Z-1.000 F400.000
G2 X-1.585 Y88.000 Z-1.000 I0.000 J1.585 K0.000 F400.000
G1 X-1.585 Y144.000 Z-1.000 F400.000
G2 X0.000 Y145.585 Z-1.000 I1.585 J-0.000 K0.000 F400.000
G1 X50.915 Y145.585 Z-1.000 F400.000
G1 X50.915 Y150.000 Z-1.000 F400.000
G2 X52.500 Y151.585 Z-1.000 I1.585 J-0.000 K0.000 F400.000
G1 X72.500 Y151.585 Z-1.000 F400.000
G2 X74.085 Y150.000 Z-1.000 I-0.000 J-1.585 K0.000 F400.000
G1 X74.085 Y145.585 Z-1.000 F400.000
G1 X175.915 Y145.585 Z-1.000 F400.000
G1 X175.915 Y150.000 Z-1.000 F400.000
G2 X177.500 Y151.585 Z-1.000 I1.585 J-0.000 K0.000 F400.000
G1 X197.500 Y151.585 Z-1.000 F400.000
G2 X199.085 Y150.000 Z-1.000 I-0.000 J-1.585 K0.000 F400.000
G1 X199.085 Y145.585 Z-1.000 F400.000
G1 X250.000 Y145.585 Z-1.000 F400.000
G2 X250.324 Y145.551 Z-1.000 I-0.000 J-1.585 K0.000 F400.000
G1 X250.324 Y145.551 Z-2.000 F200.000
G2 X251.585 Y144.000 Z-2.000 I-0.324 J-1.551 K0.000 F400.000
G1 X251.585 Y83.340 Z-2.000 F400.000
G2 X250.000 Y81.755 Z-2.000 I-1.585 J0.000 K0.000 F400.000
G1 X245.617 Y81.755 Z-2.000 F400.000
G1 X245.617 Y64.925 Z-2.000 F400.000
G1 X250.000 Y64.925 Z-2.000 F400.000
G2 X251.585 Y63.340 Z-2.000 I0.000 J-1.585 K0.000 F400.000
G1 X251.585 Y0.000 Z-2.000 F400.000
G2 X250.000 Y-1.585 Z-2.000 I-1.585 J0.000 K0.000 F400.000
G1 X0.000 Y-1.585 Z-2.000 F400.000
G2 X-1.585 Y0.000 Z-2.000 I0.000 J1.585 K0.000 F400.000
G1 X-1.585 Y68.000 Z-2.000 F400.000
G2 X0.000 Y69.585 Z-2.000 I1.585 J-0.000 K0.000 F400.000
G1 X4.415 Y69.585 Z-2.000 F400.000
G1 X4.415 Y86.415 Z-2.000 F400.000
G1 X0.000 Y86.415 Z-2.000 F400.000
G2 X-1.585 Y88.000 Z-2.000 I0.000 J1.585 K0.000 F400.000
G1 X-1.585 Y144.000 Z-2.000 F400.000
G2 X0.000 Y145.585 Z-2.000 I1.585 J-0.000 K0.000 F400.000
G1 X50.915 Y145.585 Z-2.000 F400.000
G1 X50.915 Y150.000 Z-2.000 F400.000
G2 X52.500 Y151.585 Z-2.000 I1.585 J-0.000 K0.000 F400.000
G1 X72.500 Y151.585 Z-2.000 F400.000
G2 X74.085 Y150.000 Z-2.000 I-0.000 J-1.585 K0.000 F400.000
G1 X74.085 Y145.585 Z-2.000 F400.000
G1 X175.915 Y145.585 Z-2.000 F400.000
G1 X175.915 Y150.000 Z-2.000 F400.000
G2 X177.500 Y151.585 Z-2.000 I1.585 J-0.000 K0.000 F400.000
G1 X197.500 Y151.585 Z-2.000 F400.000
G2 X199.085 Y150.000 Z-2.000 I-0.000 J-1.585 K0.000 F400.000
G1 X199.085 Y145.585 Z-2.000 F400.000
G1 X250.000 Y145.585 Z-2.000 F400.000
G2 X250.324 Y145.551 Z-2.000 I-0.000 J-1.585 K0.000 F400.000
G1 X250.324 Y145.551 Z-3.000 F200.000
G2 X251.585 Y144.000 Z-3.000 I-0.324 J-1.551 K0.000 F400.000
G1 X251.585 Y83.340 Z-3.000 F400.000
G2 X250.000 Y81.755 Z-3.000 I-1.585 J0.000 K0.000 F400.000
G1 X245.617 Y81.755 Z-3.000 F400.000
G1 X245.617 Y64.925 Z-3.000 F400.000
G1 X250.000 Y64.925 Z-3.000 F400.000
G2 X251.585 Y63.340 Z-3.000 I0.000 J-1.585 K0.000 F400.000
G1 X251.585 Y0.000 Z-3.000 F400.000
G2 X250.000 Y-1.585 Z-3.000 I-1.585 J0.000 K0.000 F400.000
G1 X0.000 Y-1.585 Z-3.000 F400.000
G2 X-1.585 Y0.000 Z-3.000 I0.000 J1.585 K0.000 F400.000
G1 X-1.585 Y68.000 Z-3.000 F400.000
G2 X0.000 Y69.585 Z-3.000 I1.585 J-0.000 K0.000 F400.000
G1 X4.415 Y69.585 Z-3.000 F400.000
G1 X4.415 Y86.415 Z-3.000 F400.000
G1 X0.000 Y86.415 Z-3.000 F400.000
G2 X-1.585 Y88.000 Z-3.000 I0.000 J1.585 K0.000 F400.000
G1 X-1.585 Y144.000 Z-3.000 F400.000
G2 X0.000 Y145.585 Z-3.000 I1.585 J-0.000 K0.000 F400.000
G1 X50.915 Y145.585 Z-3.000 F400.000
G1 X50.915 Y150.000 Z-3.000 F400.000
G2 X52.500 Y151.585 Z-3.000 I1.585 J-0.000 K0.000 F400.000
G1 X72.500 Y151.585 Z-3.000 F400.000
G2 X74.085 Y150.000 Z-3.000 I-0.000 J-1.585 K0.000 F400.000
G1 X74.085 Y145.585 Z-3.000 F400.000
G1 X175.915 Y145.585 Z-3.000 F400.000
G1 X175.915 Y150.000 Z-3.000 F400.000
G2 X177.500 Y151.585 Z-3.000 I1.585 J-0.000 K0.000 F400.000
G1 X197.500 Y151.585 Z-3.000 F400.000
G2 X199.085 Y150.000 Z-3.000 I-0.000 J-1.585 K0.000 F400.000
G1 X199.085 Y145.585 Z-3.000 F400.000
G1 X250.000 Y145.585 Z-3.000 F400.000
G2 X250.324 Y145.551 Z-3.000 I-0.000 J-1.585 K0.000 F400.000
G1 X250.324 Y145.551 Z-4.000 F200.000
G2 X251.585 Y144.000 Z-4.000 I-0.324 J-1.551 K0.000 F400.000
G1 X251.585 Y83.340 Z-4.000 F400.000
G2 X250.000 Y81.755 Z-4.000 I-1.585 J0.000 K0.000 F400.000
G1 X245.617 Y81.755 Z-4.000 F400.000
G1 X245.617 Y64.925 Z-4.000 F400.000
G1 X250.000 Y64.925 Z-4.000 F400.000
G2 X251.585 Y63.340 Z-4.000 I0.000 J-1.585 K0.000 F400.000
G1 X251.585 Y0.000 Z-4.000 F400.000
G2 X250.000 Y-1.585 Z-4.000 I-1.585 J0.000 K0.000 F400.000
G1 X0.000 Y-1.585 Z-4.000 F400.000
G2 X-1.585 Y0.000 Z-4.000 I0.000 J1.585 K0.000 F400.000
G1 X-1.585 Y68.000 Z-4.000 F400.000
G2 X0.000 Y69.585 Z-4.000 I1.585 J-0.000 K0.000 F400.000
G1 X4.415 Y69.585 Z-4.000 F400.000
G1 X4.415 Y86.415 Z-4.000 F400.000
G1 X0.000 Y86.415 Z-4.000 F400.000
G2 X-1.585 Y88.000 Z-4.000 I0.000 J1.585 K0.000 F400.000
G1 X-1.585 Y144.000 Z-4.000 F400.000
G2 X0.000 Y145.585 Z-4.000 I1.585 J-0.000 K0.000 F400.000
G1 X50.915 Y145.585 Z-4.000 F400.000
G1 X50.915 Y150.000 Z-4.000 F400.000
G2 X52.500 Y151.585 Z-4.000 I1.585 J-0.000 K0.000 F400.000
G1 X72.500 Y151.585 Z-4.000 F400.000
G2 X74.085 Y150.000 Z-4.000 I-0.000 J-1.585 K0.000 F400.000
G1 X74.085 Y145.585 Z-4.000 F400.000
G1 X175.915 Y145.585 Z-4.000 F400.000
G1 X175.915 Y150.000 Z-4.000 F400.000
G2 X177.500 Y151.585 Z-4.000 I1.585 J-0.000 K0.000 F400.000
G1 X197.500 Y151.585 Z-4.000 F400.000
G2 X199.085 Y150.000 Z-4.000 I-0.000 J-1.585 K0.000 F400.000
G1 X199.085 Y145.585 Z-4.000 F400.000
G1 X250.000 Y145.585 Z-4.000 F400.000
G2 X250.324 Y145.551 Z-4.000 I-0.000 J-1.585 K0.000 F400.000
G1 X250.324 Y145.551 Z-5.000 F200.000
G2 X251.585 Y144.000 Z-5.000 I-0.324 J-1.551 K0.000 F400.000
G1 X251.585 Y83.340 Z-5.000 F400.000
G2 X250.000 Y81.755 Z-5.000 I-1.585 J0.000 K0.000 F400.000
G1 X245.617 Y81.755 Z-5.000 F400.000
G1 X245.617 Y64.925 Z-5.000 F400.000
G1 X250.000 Y64.925 Z-5.000 F400.000
G2 X251.585 Y63.340 Z-5.000 I0.000 J-1.585 K0.000 F400.000
G1 X251.585 Y0.000 Z-5.000 F400.000
G2 X250.000 Y-1.585 Z-5.000 I-1.585 J0.000 K0.000 F400.000
G1 X0.000 Y-1.585 Z-5.000 F400.000
G2 X-1.585 Y0.000 Z-5.000 I0.000 J1.585 K0.000 F400.000
G1 X-1.585 Y68.000 Z-5.000 F400.000
G2 X0.000 Y69.585 Z-5.000 I1.585 J-0.000 K0.000 F400.000
G1 X4.415 Y69.585 Z-5.000 F400.000
G1 X4.415 Y86.415 Z-5.000 F400.000
G1 X0.000 Y86.415 Z-5.000 F400.000
G2 X-1.585 Y88.000 Z-5.000 I0.000 J1.585 K0.000 F400.000
G1 X-1.585 Y144.000 Z-5.000 F400.000
G2 X0.000 Y145.585 Z-5.000 I1.585 J-0.000 K0.000 F400.000
G1 X50.915 Y145.585 Z-5.000 F400.000
G1 X50.915 Y150.000 Z-5.000 F400.000
G2 X52.500 Y151.585 Z-5.000 I1.585 J-0.000 K0.000 F400.000
G1 X72.500 Y151.585 Z-5.000 F400.000
G2 X74.085 Y150.000 Z-5.000 I-0.000 J-1.585 K0.000 F400.000
G1 X74.085 Y145.585 Z-5.000 F400.000
G1 X175.915 Y145.585 Z-5.000 F400.000
G1 X175.915 Y150.000 Z-5.000 F400.000
G2 X177.500 Y151.585 Z-5.000 I1.585 J-0.000 K0.000 F400.000
G1 X197.500 Y151.585 Z-5.000 F400.000
G2 X199.085 Y150.000 Z-5.000 I-0.000 J-1.585 K0.000 F400.000
G1 X199.085 Y145.585 Z-5.000 F400.000
G1 X250.000 Y145.585 Z-5.000 F400.000
G2 X250.324 Y145.551 Z-5.000 I-0.000 J-1.585 K0.000 F400.000
G1 X250.324 Y145.551 Z-6.000 F200.000
G2 X251.585 Y144.000 Z-6.000 I-0.324 J-1.551 K0.000 F400.000
G1 X251.585 Y83.340 Z-6.000 F400.000
G2 X250.000 Y81.755 Z-6.000 I-1.585 J0.000 K0.000 F400.000
G1 X245.617 Y81.755 Z-6.000 F400.000
G1 X245.617 Y64.925 Z-6.000 F400.000
G1 X250.000 Y64.925 Z-6.000 F400.000
G2 X251.585 Y63.340 Z-6.000 I0.000 J-1.585 K0.000 F400.000
G1 X251.585 Y0.000 Z-6.000 F400.000
G2 X250.000 Y-1.585 Z-6.000 I-1.585 J0.000 K0.000 F400.000
G1 X0.000 Y-1.585 Z-6.000 F400.000
G2 X-1.585 Y0.000 Z-6.000 I0.000 J1.585 K0.000 F400.000
G1 X-1.585 Y68.000 Z-6.000 F400.000
G2 X0.000 Y69.585 Z-6.000 I1.585 J-0.000 K0.000 F400.000
G1 X4.415 Y69.585 Z-6.000 F400.000
G1 X4.415 Y86.415 Z-6.000 F400.000
G1 X0.000 Y86.415 Z-6.000 F400.000
G2 X-1.585 Y88.000 Z-6.000 I0.000 J1.585 K0.000 F400.000
G1 X-1.585 Y144.000 Z-6.000 F400.000
G2 X0.000 Y145.585 Z-6.000 I1.585 J-0.000 K0.000 F400.000
G1 X50.915 Y145.585 Z-6.000 F400.000
G1 X50.915 Y150.000 Z-6.000 F400.000
G2 X52.500 Y151.585 Z-6.000 I1.585 J-0.000 K0.000 F400.000
G1 X72.500 Y151.585 Z-6.000 F400.000
G2 X74.085 Y150.000 Z-6.000 I-0.000 J-1.585 K0.000 F400.000
G1 X74.085 Y145.585 Z-6.000 F400.000
G1 X175.915 Y145.585 Z-6.000 F400.000
G1 X175.915 Y150.000 Z-6.000 F400.000
G2 X177.500 Y151.585 Z-6.000 I1.585 J-0.000 K0.000 F400.000
G1 X197.500 Y151.585 Z-6.000 F400.000
G2 X199.085 Y150.000 Z-6.000 I-0.000 J-1.585 K0.000 F400.000
G1 X199.085 Y145.585 Z-6.000 F400.000
G1 X250.000 Y145.585 Z-6.000 F400.000
G2 X250.324 Y145.551 Z-6.000 I-0.000 J-1.585 K0.000 F400.000
G1 X250.324 Y145.551 Z-7.000 F200.000
G2 X251.585 Y144.000 Z-7.000 I-0.324 J-1.551 K0.000 F400.000
G1 X251.585 Y83.340 Z-7.000 F400.000
G2 X250.000 Y81.755 Z-7.000 I-1.585 J0.000 K0.000 F400.000
G1 X245.617 Y81.755 Z-7.000 F400.000
G1 X245.617 Y64.925 Z-7.000 F400.000
G1 X250.000 Y64.925 Z-7.000 F400.000
G2 X251.585 Y63.340 Z-7.000 I0.000 J-1.585 K0.000 F400.000
G1 X251.585 Y0.000 Z-7.000 F400.000
G2 X250.000 Y-1.585 Z-7.000 I-1.585 J0.000 K0.000 F400.000
G1 X0.000 Y-1.585 Z-7.000 F400.000
G2 X-1.585 Y0.000 Z-7.000 I0.000 J1.585 K0.000 F400.000
G1 X-1.585 Y68.000 Z-7.000 F400.000
G2 X0.000 Y69.585 Z-7.000 I1.585 J-0.000 K0.000 F400.000
G1 X4.415 Y69.585 Z-7.000 F400.000
G1 X4.415 Y86.415 Z-7.000 F400.000
G1 X0.000 Y86.415 Z-7.000 F400.000
G2 X-1.585 Y88.000 Z-7.000 I0.000 J1.585 K0.000 F400.000
G1 X-1.585 Y144.000 Z-7.000 F400.000
G2 X0.000 Y145.585 Z-7.000 I1.585 J-0.000 K0.000 F400.000
G1 X50.915 Y145.585 Z-7.000 F400.000
G1 X50.915 Y150.000 Z-7.000 F400.000
G2 X52.500 Y151.585 Z-7.000 I1.585 J-0.000 K0.000 F400.000
G1 X72.500 Y151.585 Z-7.000 F400.000
G2 X74.085 Y150.000 Z-7.000 I-0.000 J-1.585 K0.000 F400.000
G1 X74.085 Y145.585 Z-7.000 F400.000
G1 X175.915 Y145.585 Z-7.000 F400.000
G1 X175.915 Y150.000 Z-7.000 F400.000
G2 X177.500 Y151.585 Z-7.000 I1.585 J-0.000 K0.000 F400.000
G1 X197.500 Y151.585 Z-7.000 F400.000
G2 X199.085 Y150.000 Z-7.000 I-0.000 J-1.585 K0.000 F400.000
G1 X199.085 Y145.585 Z-7.000 F400.000
G1 X250.000 Y145.585 Z-7.000 F400.000
G2 X250.324 Y145.551 Z-7.000 I-0.000 J-1.585 K0.000 F400.000
G0 Z6.000
G0 Z6.000
(Finish operation: Profile)
(Begin postamble)
M5
G17 G90
M2
