(Exported by FreeCAD)
(Post Processor: grbl_post)
(Output Time:2023-01-15 14:44:30.802387)
(Begin preamble)
G17 G90
G21
(Begin operation: G54)
(Path: G54)
G54
G0 Z6.000
(Finish operation: G54)
(Begin operation: 3_175_enmill001)
(Path: 3_175_enmill001)
(3_175_enmill001)
(Begin toolchange)
( M6 T3 )
M3 S22000
(Finish operation: 3_175_enmill001)
(Begin operation: Drilling)
(Path: Drilling)
(Drilling)
(Begin Drilling)
G0 Z6.000
G90
G98
G0 X4.920 Y68.990
G0 Z4.000
G81 X4.920 Y68.990 Z-6.000 F200.000 R4.000
G0 X4.980 Y86.990
G0 Z4.000
G81 X4.980 Y86.990 Z-6.000 F200.000 R4.000
G0 X51.290 Y145.160
G0 Z4.000
G81 X51.290 Y145.160 Z-6.000 F200.000 R4.000
G0 X73.640 Y145.060
G0 Z4.000
G81 X73.640 Y145.060 Z-6.000 F200.000 R4.000
G0 X176.460 Y145.050
G0 Z4.000
G81 X176.460 Y145.050 Z-6.000 F200.000 R4.000
G0 X198.470 Y144.950
G0 Z4.000
G81 X198.470 Y144.950 Z-6.000 F200.000 R4.000
G0 X245.030 Y82.220
G0 Z4.000
G81 X245.030 Y82.220 Z-6.000 F200.000 R4.000
G0 X245.040 Y64.410
G0 Z4.000
G81 X245.040 Y64.410 Z-6.000 F200.000 R4.000
G80
G0 Z4.000
G0 Z6.000
(Finish operation: Drilling)
(Begin operation: Drilling001)
(Path: Drilling001)
(Drilling001)
(Begin Drilling)
G0 Z6.000
G90
G98
G0 X-0.070 Y7.640
G0 Z4.000
G81 X-0.070 Y7.640 Z-3.000 F200.000 R4.000
G0 X-0.070 Y10.500
G0 Z4.000
G81 X-0.070 Y10.500 Z-3.000 F200.000 R4.000
G0 X245.780 Y10.860
G0 Z4.000
G81 X245.780 Y10.860 Z-3.000 F200.000 R4.000
G0 X245.810 Y7.060
G0 Z4.000
G81 X245.810 Y7.060 Z-3.000 F200.000 R4.000
G80
G0 Z4.000
G0 Z6.000
(Finish operation: Drilling001)
(Begin operation: Pocket_Shape)
(Path: Pocket_Shape)
(Pocket_Shape)
G0 Z6.000
G0 X245.615 Y10.615
G0 Z4.000
G1 X245.615 Y10.615 Z-0.000 F200.000
G1 X245.615 Y7.385 Z-0.000 F400.000
G1 X1.385 Y7.385 Z0.000 F400.000
G1 X1.385 Y10.615 Z0.000 F400.000
G1 X245.615 Y10.615 Z-0.000 F400.000
G0 Z6.000
G0 Y7.385 Z6.000
G0 Y7.385 Z4.000
G1 X245.615 Y7.385 Z-0.000 F200.000
G1 X245.615 Y10.615 Z-0.000 F400.000
G1 X244.362 Y10.615 Z-0.000 F400.000
G1 X241.132 Y7.385 Z-0.000 F400.000
G1 X236.649 Y7.385 Z-0.000 F400.000
G1 X239.879 Y10.615 Z-0.000 F400.000
G1 X235.396 Y10.615 Z-0.000 F400.000
G1 X232.166 Y7.385 Z-0.000 F400.000
G1 X227.683 Y7.385 Z-0.000 F400.000
G1 X230.913 Y10.615 Z-0.000 F400.000
G1 X226.430 Y10.615 Z-0.000 F400.000
G1 X223.200 Y7.385 Z-0.000 F400.000
G1 X218.717 Y7.385 Z-0.000 F400.000
G1 X221.947 Y10.615 Z-0.000 F400.000
G1 X217.464 Y10.615 Z-0.000 F400.000
G1 X214.234 Y7.385 Z-0.000 F400.000
G1 X209.751 Y7.385 Z-0.000 F400.000
G1 X212.981 Y10.615 Z-0.000 F400.000
G1 X208.497 Y10.615 Z-0.000 F400.000
G1 X205.267 Y7.385 Z-0.000 F400.000
G1 X200.784 Y7.385 Z-0.000 F400.000
G1 X204.014 Y10.615 Z-0.000 F400.000
G1 X199.531 Y10.615 Z-0.000 F400.000
G1 X196.301 Y7.385 Z-0.000 F400.000
G1 X191.818 Y7.385 Z-0.000 F400.000
G1 X195.048 Y10.615 Z-0.000 F400.000
G1 X190.565 Y10.615 Z-0.000 F400.000
G1 X187.335 Y7.385 Z-0.000 F400.000
G1 X182.852 Y7.385 Z-0.000 F400.000
G1 X186.082 Y10.615 Z-0.000 F400.000
G1 X181.599 Y10.615 Z-0.000 F400.000
G1 X178.369 Y7.385 Z-0.000 F400.000
G1 X173.886 Y7.385 Z-0.000 F400.000
G1 X177.116 Y10.615 Z-0.000 F400.000
G1 X172.633 Y10.615 Z-0.000 F400.000
G1 X169.403 Y7.385 Z-0.000 F400.000
G1 X164.920 Y7.385 Z-0.000 F400.000
G1 X168.150 Y10.615 Z-0.000 F400.000
G1 X163.667 Y10.615 Z-0.000 F400.000
G1 X160.437 Y7.385 Z-0.000 F400.000
G1 X155.954 Y7.385 Z-0.000 F400.000
G1 X159.184 Y10.615 Z-0.000 F400.000
G1 X154.701 Y10.615 Z-0.000 F400.000
G1 X151.471 Y7.385 Z-0.000 F400.000
G1 X146.988 Y7.385 Z-0.000 F400.000
G1 X150.218 Y10.615 Z-0.000 F400.000
G1 X145.735 Y10.615 Z-0.000 F400.000
G1 X142.505 Y7.385 Z-0.000 F400.000
G1 X138.022 Y7.385 Z-0.000 F400.000
G1 X141.252 Y10.615 Z-0.000 F400.000
G1 X136.769 Y10.615 Z-0.000 F400.000
G1 X133.539 Y7.385 Z-0.000 F400.000
G1 X129.056 Y7.385 Z-0.000 F400.000
G1 X132.286 Y10.615 Z-0.000 F400.000
G1 X127.802 Y10.615 Z-0.000 F400.000
G1 X124.572 Y7.385 Z-0.000 F400.000
G1 X120.089 Y7.385 Z0.000 F400.000
G1 X123.319 Y10.615 Z0.000 F400.000
G1 X118.836 Y10.615 Z0.000 F400.000
G1 X115.606 Y7.385 Z0.000 F400.000
G1 X111.123 Y7.385 Z0.000 F400.000
G1 X114.353 Y10.615 Z0.000 F400.000
G1 X109.870 Y10.615 Z0.000 F400.000
G1 X106.640 Y7.385 Z0.000 F400.000
G1 X102.157 Y7.385 Z0.000 F400.000
G1 X105.387 Y10.615 Z0.000 F400.000
G1 X100.904 Y10.615 Z0.000 F400.000
G1 X97.674 Y7.385 Z0.000 F400.000
G1 X93.191 Y7.385 Z0.000 F400.000
G1 X96.421 Y10.615 Z0.000 F400.000
G1 X91.938 Y10.615 Z0.000 F400.000
G1 X88.708 Y7.385 Z0.000 F400.000
G1 X84.225 Y7.385 Z0.000 F400.000
G1 X87.455 Y10.615 Z0.000 F400.000
G1 X82.972 Y10.615 Z0.000 F400.000
G1 X79.742 Y7.385 Z0.000 F400.000
G1 X75.259 Y7.385 Z0.000 F400.000
G1 X78.489 Y10.615 Z0.000 F400.000
G1 X74.006 Y10.615 Z0.000 F400.000
G1 X70.776 Y7.385 Z0.000 F400.000
G1 X66.293 Y7.385 Z0.000 F400.000
G1 X69.523 Y10.615 Z0.000 F400.000
G1 X65.040 Y10.615 Z0.000 F400.000
G1 X61.810 Y7.385 Z0.000 F400.000
G1 X57.327 Y7.385 Z0.000 F400.000
G1 X60.557 Y10.615 Z0.000 F400.000
G1 X56.074 Y10.615 Z0.000 F400.000
G1 X52.844 Y7.385 Z0.000 F400.000
G1 X48.360 Y7.385 Z0.000 F400.000
G1 X51.590 Y10.615 Z0.000 F400.000
G1 X47.107 Y10.615 Z0.000 F400.000
G1 X43.877 Y7.385 Z0.000 F400.000
G1 X39.394 Y7.385 Z0.000 F400.000
G1 X42.624 Y10.615 Z0.000 F400.000
G1 X38.141 Y10.615 Z0.000 F400.000
G1 X34.911 Y7.385 Z0.000 F400.000
G1 X30.428 Y7.385 Z0.000 F400.000
G1 X33.658 Y10.615 Z0.000 F400.000
G1 X29.175 Y10.615 Z0.000 F400.000
G1 X25.945 Y7.385 Z0.000 F400.000
G1 X21.462 Y7.385 Z0.000 F400.000
G1 X24.692 Y10.615 Z0.000 F400.000
G1 X20.209 Y10.615 Z0.000 F400.000
G1 X16.979 Y7.385 Z0.000 F400.000
G1 X12.496 Y7.385 Z0.000 F400.000
G1 X15.726 Y10.615 Z0.000 F400.000
G1 X11.243 Y10.615 Z0.000 F400.000
G1 X8.013 Y7.385 Z0.000 F400.000
G1 X3.530 Y7.385 Z0.000 F400.000
G1 X6.760 Y10.615 Z0.000 F400.000
G1 X2.277 Y10.615 Z0.000 F400.000
G1 X1.385 Y9.723 Z0.000 F400.000
G1 X1.385 Y10.615 Z0.000 F400.000
G1 X2.277 Y10.615 Z0.000 F400.000
G1 X2.277 Y10.615 Z-1.000 F200.000
G1 X245.615 Y10.615 Z-1.000 F400.000
G1 X245.615 Y7.385 Z-1.000 F400.000
G1 X1.385 Y7.385 Z-1.000 F400.000
G1 X1.385 Y10.615 Z-1.000 F400.000
G1 X2.277 Y10.615 Z-1.000 F400.000
G1 X2.277 Y10.615 Z-1.000 F200.000
G1 X1.385 Y10.615 Z-1.000 F400.000
G1 X1.385 Y9.723 Z-1.000 F400.000
G1 X2.277 Y10.615 Z-1.000 F400.000
G1 X6.760 Y10.615 Z-1.000 F400.000
G1 X3.530 Y7.385 Z-1.000 F400.000
G1 X8.013 Y7.385 Z-1.000 F400.000
G1 X11.243 Y10.615 Z-1.000 F400.000
G1 X15.726 Y10.615 Z-1.000 F400.000
G1 X12.496 Y7.385 Z-1.000 F400.000
G1 X16.979 Y7.385 Z-1.000 F400.000
G1 X20.209 Y10.615 Z-1.000 F400.000
G1 X24.692 Y10.615 Z-1.000 F400.000
G1 X21.462 Y7.385 Z-1.000 F400.000
G1 X25.945 Y7.385 Z-1.000 F400.000
G1 X29.175 Y10.615 Z-1.000 F400.000
G1 X33.658 Y10.615 Z-1.000 F400.000
G1 X30.428 Y7.385 Z-1.000 F400.000
G1 X34.911 Y7.385 Z-1.000 F400.000
G1 X38.141 Y10.615 Z-1.000 F400.000
G1 X42.624 Y10.615 Z-1.000 F400.000
G1 X39.394 Y7.385 Z-1.000 F400.000
G1 X43.877 Y7.385 Z-1.000 F400.000
G1 X47.107 Y10.615 Z-1.000 F400.000
G1 X51.590 Y10.615 Z-1.000 F400.000
G1 X48.360 Y7.385 Z-1.000 F400.000
G1 X52.844 Y7.385 Z-1.000 F400.000
G1 X56.074 Y10.615 Z-1.000 F400.000
G1 X60.557 Y10.615 Z-1.000 F400.000
G1 X57.327 Y7.385 Z-1.000 F400.000
G1 X61.810 Y7.385 Z-1.000 F400.000
G1 X65.040 Y10.615 Z-1.000 F400.000
G1 X69.523 Y10.615 Z-1.000 F400.000
G1 X66.293 Y7.385 Z-1.000 F400.000
G1 X70.776 Y7.385 Z-1.000 F400.000
G1 X74.006 Y10.615 Z-1.000 F400.000
G1 X78.489 Y10.615 Z-1.000 F400.000
G1 X75.259 Y7.385 Z-1.000 F400.000
G1 X79.742 Y7.385 Z-1.000 F400.000
G1 X82.972 Y10.615 Z-1.000 F400.000
G1 X87.455 Y10.615 Z-1.000 F400.000
G1 X84.225 Y7.385 Z-1.000 F400.000
G1 X88.708 Y7.385 Z-1.000 F400.000
G1 X91.938 Y10.615 Z-1.000 F400.000
G1 X96.421 Y10.615 Z-1.000 F400.000
G1 X93.191 Y7.385 Z-1.000 F400.000
G1 X97.674 Y7.385 Z-1.000 F400.000
G1 X100.904 Y10.615 Z-1.000 F400.000
G1 X105.387 Y10.615 Z-1.000 F400.000
G1 X102.157 Y7.385 Z-1.000 F400.000
G1 X106.640 Y7.385 Z-1.000 F400.000
G1 X109.870 Y10.615 Z-1.000 F400.000
G1 X114.353 Y10.615 Z-1.000 F400.000
G1 X111.123 Y7.385 Z-1.000 F400.000
G1 X115.606 Y7.385 Z-1.000 F400.000
G1 X118.836 Y10.615 Z-1.000 F400.000
G1 X123.319 Y10.615 Z-1.000 F400.000
G1 X120.089 Y7.385 Z-1.000 F400.000
G1 X124.572 Y7.385 Z-1.000 F400.000
G1 X127.802 Y10.615 Z-1.000 F400.000
G1 X132.286 Y10.615 Z-1.000 F400.000
G1 X129.056 Y7.385 Z-1.000 F400.000
G1 X133.539 Y7.385 Z-1.000 F400.000
G1 X136.769 Y10.615 Z-1.000 F400.000
G1 X141.252 Y10.615 Z-1.000 F400.000
G1 X138.022 Y7.385 Z-1.000 F400.000
G1 X142.505 Y7.385 Z-1.000 F400.000
G1 X145.735 Y10.615 Z-1.000 F400.000
G1 X150.218 Y10.615 Z-1.000 F400.000
G1 X146.988 Y7.385 Z-1.000 F400.000
G1 X151.471 Y7.385 Z-1.000 F400.000
G1 X154.701 Y10.615 Z-1.000 F400.000
G1 X159.184 Y10.615 Z-1.000 F400.000
G1 X155.954 Y7.385 Z-1.000 F400.000
G1 X160.437 Y7.385 Z-1.000 F400.000
G1 X163.667 Y10.615 Z-1.000 F400.000
G1 X168.150 Y10.615 Z-1.000 F400.000
G1 X164.920 Y7.385 Z-1.000 F400.000
G1 X169.403 Y7.385 Z-1.000 F400.000
G1 X172.633 Y10.615 Z-1.000 F400.000
G1 X177.116 Y10.615 Z-1.000 F400.000
G1 X173.886 Y7.385 Z-1.000 F400.000
G1 X178.369 Y7.385 Z-1.000 F400.000
G1 X181.599 Y10.615 Z-1.000 F400.000
G1 X186.082 Y10.615 Z-1.000 F400.000
G1 X182.852 Y7.385 Z-1.000 F400.000
G1 X187.335 Y7.385 Z-1.000 F400.000
G1 X190.565 Y10.615 Z-1.000 F400.000
G1 X195.048 Y10.615 Z-1.000 F400.000
G1 X191.818 Y7.385 Z-1.000 F400.000
G1 X196.301 Y7.385 Z-1.000 F400.000
G1 X199.531 Y10.615 Z-1.000 F400.000
G1 X204.014 Y10.615 Z-1.000 F400.000
G1 X200.784 Y7.385 Z-1.000 F400.000
G1 X205.267 Y7.385 Z-1.000 F400.000
G1 X208.497 Y10.615 Z-1.000 F400.000
G1 X212.981 Y10.615 Z-1.000 F400.000
G1 X209.751 Y7.385 Z-1.000 F400.000
G1 X214.234 Y7.385 Z-1.000 F400.000
G1 X217.464 Y10.615 Z-1.000 F400.000
G1 X221.947 Y10.615 Z-1.000 F400.000
G1 X218.717 Y7.385 Z-1.000 F400.000
G1 X223.200 Y7.385 Z-1.000 F400.000
G1 X226.430 Y10.615 Z-1.000 F400.000
G1 X230.913 Y10.615 Z-1.000 F400.000
G1 X227.683 Y7.385 Z-1.000 F400.000
G1 X232.166 Y7.385 Z-1.000 F400.000
G1 X235.396 Y10.615 Z-1.000 F400.000
G1 X239.879 Y10.615 Z-1.000 F400.000
G1 X236.649 Y7.385 Z-1.000 F400.000
G1 X241.132 Y7.385 Z-1.000 F400.000
G1 X244.362 Y10.615 Z-1.000 F400.000
G1 X245.615 Y10.615 Z-1.000 F400.000
G1 X245.615 Y7.385 Z-1.000 F400.000
G1 X245.615 Y7.385 Z-2.000 F200.000
G1 X245.615 Y10.615 Z-2.000 F400.000
G1 X244.362 Y10.615 Z-2.000 F400.000
G1 X241.132 Y7.385 Z-2.000 F400.000
G1 X236.649 Y7.385 Z-2.000 F400.000
G1 X239.879 Y10.615 Z-2.000 F400.000
G1 X235.396 Y10.615 Z-2.000 F400.000
G1 X232.166 Y7.385 Z-2.000 F400.000
G1 X227.683 Y7.385 Z-2.000 F400.000
G1 X230.913 Y10.615 Z-2.000 F400.000
G1 X226.430 Y10.615 Z-2.000 F400.000
G1 X223.200 Y7.385 Z-2.000 F400.000
G1 X218.717 Y7.385 Z-2.000 F400.000
G1 X221.947 Y10.615 Z-2.000 F400.000
G1 X217.464 Y10.615 Z-2.000 F400.000
G1 X214.234 Y7.385 Z-2.000 F400.000
G1 X209.751 Y7.385 Z-2.000 F400.000
G1 X212.981 Y10.615 Z-2.000 F400.000
G1 X208.497 Y10.615 Z-2.000 F400.000
G1 X205.267 Y7.385 Z-2.000 F400.000
G1 X200.784 Y7.385 Z-2.000 F400.000
G1 X204.014 Y10.615 Z-2.000 F400.000
G1 X199.531 Y10.615 Z-2.000 F400.000
G1 X196.301 Y7.385 Z-2.000 F400.000
G1 X191.818 Y7.385 Z-2.000 F400.000
G1 X195.048 Y10.615 Z-2.000 F400.000
G1 X190.565 Y10.615 Z-2.000 F400.000
G1 X187.335 Y7.385 Z-2.000 F400.000
G1 X182.852 Y7.385 Z-2.000 F400.000
G1 X186.082 Y10.615 Z-2.000 F400.000
G1 X181.599 Y10.615 Z-2.000 F400.000
G1 X178.369 Y7.385 Z-2.000 F400.000
G1 X173.886 Y7.385 Z-2.000 F400.000
G1 X177.116 Y10.615 Z-2.000 F400.000
G1 X172.633 Y10.615 Z-2.000 F400.000
G1 X169.403 Y7.385 Z-2.000 F400.000
G1 X164.920 Y7.385 Z-2.000 F400.000
G1 X168.150 Y10.615 Z-2.000 F400.000
G1 X163.667 Y10.615 Z-2.000 F400.000
G1 X160.437 Y7.385 Z-2.000 F400.000
G1 X155.954 Y7.385 Z-2.000 F400.000
G1 X159.184 Y10.615 Z-2.000 F400.000
G1 X154.701 Y10.615 Z-2.000 F400.000
G1 X151.471 Y7.385 Z-2.000 F400.000
G1 X146.988 Y7.385 Z-2.000 F400.000
G1 X150.218 Y10.615 Z-2.000 F400.000
G1 X145.735 Y10.615 Z-2.000 F400.000
G1 X142.505 Y7.385 Z-2.000 F400.000
G1 X138.022 Y7.385 Z-2.000 F400.000
G1 X141.252 Y10.615 Z-2.000 F400.000
G1 X136.769 Y10.615 Z-2.000 F400.000
G1 X133.539 Y7.385 Z-2.000 F400.000
G1 X129.056 Y7.385 Z-2.000 F400.000
G1 X132.286 Y10.615 Z-2.000 F400.000
G1 X127.802 Y10.615 Z-2.000 F400.000
G1 X124.572 Y7.385 Z-2.000 F400.000
G1 X120.089 Y7.385 Z-2.000 F400.000
G1 X123.319 Y10.615 Z-2.000 F400.000
G1 X118.836 Y10.615 Z-2.000 F400.000
G1 X115.606 Y7.385 Z-2.000 F400.000
G1 X111.123 Y7.385 Z-2.000 F400.000
G1 X114.353 Y10.615 Z-2.000 F400.000
G1 X109.870 Y10.615 Z-2.000 F400.000
G1 X106.640 Y7.385 Z-2.000 F400.000
G1 X102.157 Y7.385 Z-2.000 F400.000
G1 X105.387 Y10.615 Z-2.000 F400.000
G1 X100.904 Y10.615 Z-2.000 F400.000
G1 X97.674 Y7.385 Z-2.000 F400.000
G1 X93.191 Y7.385 Z-2.000 F400.000
G1 X96.421 Y10.615 Z-2.000 F400.000
G1 X91.938 Y10.615 Z-2.000 F400.000
G1 X88.708 Y7.385 Z-2.000 F400.000
G1 X84.225 Y7.385 Z-2.000 F400.000
G1 X87.455 Y10.615 Z-2.000 F400.000
G1 X82.972 Y10.615 Z-2.000 F400.000
G1 X79.742 Y7.385 Z-2.000 F400.000
G1 X75.259 Y7.385 Z-2.000 F400.000
G1 X78.489 Y10.615 Z-2.000 F400.000
G1 X74.006 Y10.615 Z-2.000 F400.000
G1 X70.776 Y7.385 Z-2.000 F400.000
G1 X66.293 Y7.385 Z-2.000 F400.000
G1 X69.523 Y10.615 Z-2.000 F400.000
G1 X65.040 Y10.615 Z-2.000 F400.000
G1 X61.810 Y7.385 Z-2.000 F400.000
G1 X57.327 Y7.385 Z-2.000 F400.000
G1 X60.557 Y10.615 Z-2.000 F400.000
G1 X56.074 Y10.615 Z-2.000 F400.000
G1 X52.844 Y7.385 Z-2.000 F400.000
G1 X48.360 Y7.385 Z-2.000 F400.000
G1 X51.590 Y10.615 Z-2.000 F400.000
G1 X47.107 Y10.615 Z-2.000 F400.000
G1 X43.877 Y7.385 Z-2.000 F400.000
G1 X39.394 Y7.385 Z-2.000 F400.000
G1 X42.624 Y10.615 Z-2.000 F400.000
G1 X38.141 Y10.615 Z-2.000 F400.000
G1 X34.911 Y7.385 Z-2.000 F400.000
G1 X30.428 Y7.385 Z-2.000 F400.000
G1 X33.658 Y10.615 Z-2.000 F400.000
G1 X29.175 Y10.615 Z-2.000 F400.000
G1 X25.945 Y7.385 Z-2.000 F400.000
G1 X21.462 Y7.385 Z-2.000 F400.000
G1 X24.692 Y10.615 Z-2.000 F400.000
G1 X20.209 Y10.615 Z-2.000 F400.000
G1 X16.979 Y7.385 Z-2.000 F400.000
G1 X12.496 Y7.385 Z-2.000 F400.000
G1 X15.726 Y10.615 Z-2.000 F400.000
G1 X11.243 Y10.615 Z-2.000 F400.000
G1 X8.013 Y7.385 Z-2.000 F400.000
G1 X3.530 Y7.385 Z-2.000 F400.000
G1 X6.760 Y10.615 Z-2.000 F400.000
G1 X2.277 Y10.615 Z-2.000 F400.000
G1 X1.385 Y9.723 Z-2.000 F400.000
G1 X1.385 Y10.615 Z-2.000 F400.000
G1 X2.277 Y10.615 Z-2.000 F400.000
G1 X2.277 Y10.615 Z-2.000 F200.000
G1 X245.615 Y10.615 Z-2.000 F400.000
G1 X245.615 Y7.385 Z-2.000 F400.000
G1 X1.385 Y7.385 Z-2.000 F400.000
G1 X1.385 Y10.615 Z-2.000 F400.000
G1 X2.277 Y10.615 Z-2.000 F400.000
G1 X2.277 Y10.615 Z-3.000 F200.000
G1 X1.385 Y10.615 Z-3.000 F400.000
G1 X1.385 Y9.723 Z-3.000 F400.000
G1 X2.277 Y10.615 Z-3.000 F400.000
G1 X6.760 Y10.615 Z-3.000 F400.000
G1 X3.530 Y7.385 Z-3.000 F400.000
G1 X8.013 Y7.385 Z-3.000 F400.000
G1 X11.243 Y10.615 Z-3.000 F400.000
G1 X15.726 Y10.615 Z-3.000 F400.000
G1 X12.496 Y7.385 Z-3.000 F400.000
G1 X16.979 Y7.385 Z-3.000 F400.000
G1 X20.209 Y10.615 Z-3.000 F400.000
G1 X24.692 Y10.615 Z-3.000 F400.000
G1 X21.462 Y7.385 Z-3.000 F400.000
G1 X25.945 Y7.385 Z-3.000 F400.000
G1 X29.175 Y10.615 Z-3.000 F400.000
G1 X33.658 Y10.615 Z-3.000 F400.000
G1 X30.428 Y7.385 Z-3.000 F400.000
G1 X34.911 Y7.385 Z-3.000 F400.000
G1 X38.141 Y10.615 Z-3.000 F400.000
G1 X42.624 Y10.615 Z-3.000 F400.000
G1 X39.394 Y7.385 Z-3.000 F400.000
G1 X43.877 Y7.385 Z-3.000 F400.000
G1 X47.107 Y10.615 Z-3.000 F400.000
G1 X51.590 Y10.615 Z-3.000 F400.000
G1 X48.360 Y7.385 Z-3.000 F400.000
G1 X52.844 Y7.385 Z-3.000 F400.000
G1 X56.074 Y10.615 Z-3.000 F400.000
G1 X60.557 Y10.615 Z-3.000 F400.000
G1 X57.327 Y7.385 Z-3.000 F400.000
G1 X61.810 Y7.385 Z-3.000 F400.000
G1 X65.040 Y10.615 Z-3.000 F400.000
G1 X69.523 Y10.615 Z-3.000 F400.000
G1 X66.293 Y7.385 Z-3.000 F400.000
G1 X70.776 Y7.385 Z-3.000 F400.000
G1 X74.006 Y10.615 Z-3.000 F400.000
G1 X78.489 Y10.615 Z-3.000 F400.000
G1 X75.259 Y7.385 Z-3.000 F400.000
G1 X79.742 Y7.385 Z-3.000 F400.000
G1 X82.972 Y10.615 Z-3.000 F400.000
G1 X87.455 Y10.615 Z-3.000 F400.000
G1 X84.225 Y7.385 Z-3.000 F400.000
G1 X88.708 Y7.385 Z-3.000 F400.000
G1 X91.938 Y10.615 Z-3.000 F400.000
G1 X96.421 Y10.615 Z-3.000 F400.000
G1 X93.191 Y7.385 Z-3.000 F400.000
G1 X97.674 Y7.385 Z-3.000 F400.000
G1 X100.904 Y10.615 Z-3.000 F400.000
G1 X105.387 Y10.615 Z-3.000 F400.000
G1 X102.157 Y7.385 Z-3.000 F400.000
G1 X106.640 Y7.385 Z-3.000 F400.000
G1 X109.870 Y10.615 Z-3.000 F400.000
G1 X114.353 Y10.615 Z-3.000 F400.000
G1 X111.123 Y7.385 Z-3.000 F400.000
G1 X115.606 Y7.385 Z-3.000 F400.000
G1 X118.836 Y10.615 Z-3.000 F400.000
G1 X123.319 Y10.615 Z-3.000 F400.000
G1 X120.089 Y7.385 Z-3.000 F400.000
G1 X124.572 Y7.385 Z-3.000 F400.000
G1 X127.802 Y10.615 Z-3.000 F400.000
G1 X132.286 Y10.615 Z-3.000 F400.000
G1 X129.056 Y7.385 Z-3.000 F400.000
G1 X133.539 Y7.385 Z-3.000 F400.000
G1 X136.769 Y10.615 Z-3.000 F400.000
G1 X141.252 Y10.615 Z-3.000 F400.000
G1 X138.022 Y7.385 Z-3.000 F400.000
G1 X142.505 Y7.385 Z-3.000 F400.000
G1 X145.735 Y10.615 Z-3.000 F400.000
G1 X150.218 Y10.615 Z-3.000 F400.000
G1 X146.988 Y7.385 Z-3.000 F400.000
G1 X151.471 Y7.385 Z-3.000 F400.000
G1 X154.701 Y10.615 Z-3.000 F400.000
G1 X159.184 Y10.615 Z-3.000 F400.000
G1 X155.954 Y7.385 Z-3.000 F400.000
G1 X160.437 Y7.385 Z-3.000 F400.000
G1 X163.667 Y10.615 Z-3.000 F400.000
G1 X168.150 Y10.615 Z-3.000 F400.000
G1 X164.920 Y7.385 Z-3.000 F400.000
G1 X169.403 Y7.385 Z-3.000 F400.000
G1 X172.633 Y10.615 Z-3.000 F400.000
G1 X177.116 Y10.615 Z-3.000 F400.000
G1 X173.886 Y7.385 Z-3.000 F400.000
G1 X178.369 Y7.385 Z-3.000 F400.000
G1 X181.599 Y10.615 Z-3.000 F400.000
G1 X186.082 Y10.615 Z-3.000 F400.000
G1 X182.852 Y7.385 Z-3.000 F400.000
G1 X187.335 Y7.385 Z-3.000 F400.000
G1 X190.565 Y10.615 Z-3.000 F400.000
G1 X195.048 Y10.615 Z-3.000 F400.000
G1 X191.818 Y7.385 Z-3.000 F400.000
G1 X196.301 Y7.385 Z-3.000 F400.000
G1 X199.531 Y10.615 Z-3.000 F400.000
G1 X204.014 Y10.615 Z-3.000 F400.000
G1 X200.784 Y7.385 Z-3.000 F400.000
G1 X205.267 Y7.385 Z-3.000 F400.000
G1 X208.497 Y10.615 Z-3.000 F400.000
G1 X212.981 Y10.615 Z-3.000 F400.000
G1 X209.751 Y7.385 Z-3.000 F400.000
G1 X214.234 Y7.385 Z-3.000 F400.000
G1 X217.464 Y10.615 Z-3.000 F400.000
G1 X221.947 Y10.615 Z-3.000 F400.000
G1 X218.717 Y7.385 Z-3.000 F400.000
G1 X223.200 Y7.385 Z-3.000 F400.000
G1 X226.430 Y10.615 Z-3.000 F400.000
G1 X230.913 Y10.615 Z-3.000 F400.000
G1 X227.683 Y7.385 Z-3.000 F400.000
G1 X232.166 Y7.385 Z-3.000 F400.000
G1 X235.396 Y10.615 Z-3.000 F400.000
G1 X239.879 Y10.615 Z-3.000 F400.000
G1 X236.649 Y7.385 Z-3.000 F400.000
G1 X241.132 Y7.385 Z-3.000 F400.000
G1 X244.362 Y10.615 Z-3.000 F400.000
G1 X245.615 Y10.615 Z-3.000 F400.000
G1 X245.615 Y7.385 Z-3.000 F400.000
G1 X245.615 Y7.385 Z-3.000 F200.000
G1 X1.385 Y7.385 Z-3.000 F400.000
G1 X1.385 Y10.615 Z-3.000 F400.000
G1 X245.615 Y10.615 Z-3.000 F400.000
G1 X245.615 Y7.385 Z-3.000 F400.000
G0 Z6.000
G0 Z6.000
(Finish operation: Pocket_Shape)
(Begin operation: Profile)
(Path: Profile)
(Profile)
(Compensated Tool Path. Diameter: 3.17)
G0 Z6.000
G0 X250.324 Y145.551
G0 Z4.000
G1 X250.324 Y145.551 Z0.000 F200.000
G2 X251.585 Y144.000 Z0.000 I-0.324 J-1.551 K0.000 F400.000
G1 X251.585 Y83.340 Z0.000 F400.000
G2 X250.000 Y81.755 Z0.000 I-1.585 J0.000 K0.000 F400.000
G1 X245.617 Y81.755 Z0.000 F400.000
G1 X245.617 Y64.925 Z0.000 F400.000
G1 X250.000 Y64.925 Z0.000 F400.000
G2 X251.585 Y63.340 Z0.000 I0.000 J-1.585 K0.000 F400.000
G1 X251.585 Y0.000 Z0.000 F400.000
G2 X250.000 Y-1.585 Z0.000 I-1.585 J0.000 K0.000 F400.000
G1 X0.000 Y-1.585 Z0.000 F400.000
G2 X-1.585 Y0.000 Z0.000 I0.000 J1.585 K0.000 F400.000
G1 X-1.585 Y68.000 Z0.000 F400.000
G2 X0.000 Y69.585 Z0.000 I1.585 J0.000 K0.000 F400.000
G1 X4.415 Y69.585 Z0.000 F400.000
G1 X4.415 Y86.415 Z0.000 F400.000
G1 X0.000 Y86.415 Z0.000 F400.000
G2 X-1.585 Y88.000 Z0.000 I0.000 J1.585 K0.000 F400.000
G1 X-1.585 Y144.000 Z0.000 F400.000
G2 X0.000 Y145.585 Z0.000 I1.585 J0.000 K0.000 F400.000
G1 X50.915 Y145.585 Z0.000 F400.000
G1 X50.915 Y150.000 Z0.000 F400.000
G2 X52.500 Y151.585 Z0.000 I1.585 J0.000 K0.000 F400.000
G1 X72.500 Y151.585 Z0.000 F400.000
G2 X74.085 Y150.000 Z0.000 I0.000 J-1.585 K0.000 F400.000
G1 X74.085 Y145.585 Z0.000 F400.000
G1 X175.915 Y145.585 Z0.000 F400.000
G1 X175.915 Y150.000 Z0.000 F400.000
G2 X177.500 Y151.585 Z0.000 I1.585 J0.000 K0.000 F400.000
G1 X197.500 Y151.585 Z0.000 F400.000
G2 X199.085 Y150.000 Z0.000 I0.000 J-1.585 K0.000 F400.000
G1 X199.085 Y145.585 Z0.000 F400.000
G1 X250.000 Y145.585 Z0.000 F400.000
G2 X250.324 Y145.551 Z0.000 I0.000 J-1.585 K0.000 F400.000
G1 X250.324 Y145.551 Z-1.000 F200.000
G2 X251.585 Y144.000 Z-1.000 I-0.324 J-1.551 K0.000 F400.000
G1 X251.585 Y83.340 Z-1.000 F400.000
G2 X250.000 Y81.755 Z-1.000 I-1.585 J0.000 K0.000 F400.000
G1 X245.617 Y81.755 Z-1.000 F400.000
G1 X245.617 Y64.925 Z-1.000 F400.000
G1 X250.000 Y64.925 Z-1.000 F400.000
G2 X251.585 Y63.340 Z-1.000 I0.000 J-1.585 K0.000 F400.000
G1 X251.585 Y0.000 Z-1.000 F400.000
G2 X250.000 Y-1.585 Z-1.000 I-1.585 J0.000 K0.000 F400.000
G1 X0.000 Y-1.585 Z-1.000 F400.000
G2 X-1.585 Y0.000 Z-1.000 I0.000 J1.585 K0.000 F400.000
G1 X-1.585 Y68.000 Z-1.000 F400.000
G2 X0.000 Y69.585 Z-1.000 I1.585 J0.000 K0.000 F400.000
G1 X4.415 Y69.585 Z-1.000 F400.000
G1 X4.415 Y86.415 Z-1.000 F400.000
G1 X0.000 Y86.415 Z-1.000 F400.000
G2 X-1.585 Y88.000 Z-1.000 I0.000 J1.585 K0.000 F400.000
G1 X-1.585 Y144.000 Z-1.000 F400.000
G2 X0.000 Y145.585 Z-1.000 I1.585 J0.000 K0.000 F400.000
G1 X50.915 Y145.585 Z-1.000 F400.000
G1 X50.915 Y150.000 Z-1.000 F400.000
G2 X52.500 Y151.585 Z-1.000 I1.585 J0.000 K0.000 F400.000
G1 X72.500 Y151.585 Z-1.000 F400.000
G2 X74.085 Y150.000 Z-1.000 I0.000 J-1.585 K0.000 F400.000
G1 X74.085 Y145.585 Z-1.000 F400.000
G1 X175.915 Y145.585 Z-1.000 F400.000
G1 X175.915 Y150.000 Z-1.000 F400.000
G2 X177.500 Y151.585 Z-1.000 I1.585 J0.000 K0.000 F400.000
G1 X197.500 Y151.585 Z-1.000 F400.000
G2 X199.085 Y150.000 Z-1.000 I0.000 J-1.585 K0.000 F400.000
G1 X199.085 Y145.585 Z-1.000 F400.000
G1 X250.000 Y145.585 Z-1.000 F400.000
G2 X250.324 Y145.551 Z-1.000 I0.000 J-1.585 K0.000 F400.000
G1 X250.324 Y145.551 Z-2.000 F200.000
G2 X251.585 Y144.000 Z-2.000 I-0.324 J-1.551 K0.000 F400.000
G1 X251.585 Y83.340 Z-2.000 F400.000
G2 X250.000 Y81.755 Z-2.000 I-1.585 J0.000 K0.000 F400.000
G1 X245.617 Y81.755 Z-2.000 F400.000
G1 X245.617 Y64.925 Z-2.000 F400.000
G1 X250.000 Y64.925 Z-2.000 F400.000
G2 X251.585 Y63.340 Z-2.000 I0.000 J-1.585 K0.000 F400.000
G1 X251.585 Y0.000 Z-2.000 F400.000
G2 X250.000 Y-1.585 Z-2.000 I-1.585 J0.000 K0.000 F400.000
G1 X0.000 Y-1.585 Z-2.000 F400.000
G2 X-1.585 Y0.000 Z-2.000 I0.000 J1.585 K0.000 F400.000
G1 X-1.585 Y68.000 Z-2.000 F400.000
G2 X0.000 Y69.585 Z-2.000 I1.585 J0.000 K0.000 F400.000
G1 X4.415 Y69.585 Z-2.000 F400.000
G1 X4.415 Y86.415 Z-2.000 F400.000
G1 X0.000 Y86.415 Z-2.000 F400.000
G2 X-1.585 Y88.000 Z-2.000 I0.000 J1.585 K0.000 F400.000
G1 X-1.585 Y144.000 Z-2.000 F400.000
G2 X0.000 Y145.585 Z-2.000 I1.585 J0.000 K0.000 F400.000
G1 X50.915 Y145.585 Z-2.000 F400.000
G1 X50.915 Y150.000 Z-2.000 F400.000
G2 X52.500 Y151.585 Z-2.000 I1.585 J0.000 K0.000 F400.000
G1 X72.500 Y151.585 Z-2.000 F400.000
G2 X74.085 Y150.000 Z-2.000 I0.000 J-1.585 K0.000 F400.000
G1 X74.085 Y145.585 Z-2.000 F400.000
G1 X175.915 Y145.585 Z-2.000 F400.000
G1 X175.915 Y150.000 Z-2.000 F400.000
G2 X177.500 Y151.585 Z-2.000 I1.585 J0.000 K0.000 F400.000
G1 X197.500 Y151.585 Z-2.000 F400.000
G2 X199.085 Y150.000 Z-2.000 I0.000 J-1.585 K0.000 F400.000
G1 X199.085 Y145.585 Z-2.000 F400.000
G1 X250.000 Y145.585 Z-2.000 F400.000
G2 X250.324 Y145.551 Z-2.000 I0.000 J-1.585 K0.000 F400.000
G1 X250.324 Y145.551 Z-3.000 F200.000
G2 X251.585 Y144.000 Z-3.000 I-0.324 J-1.551 K0.000 F400.000
G1 X251.585 Y83.340 Z-3.000 F400.000
G2 X250.000 Y81.755 Z-3.000 I-1.585 J0.000 K0.000 F400.000
G1 X245.617 Y81.755 Z-3.000 F400.000
G1 X245.617 Y64.925 Z-3.000 F400.000
G1 X250.000 Y64.925 Z-3.000 F400.000
G2 X251.585 Y63.340 Z-3.000 I0.000 J-1.585 K0.000 F400.000
G1 X251.585 Y0.000 Z-3.000 F400.000
G2 X250.000 Y-1.585 Z-3.000 I-1.585 J0.000 K0.000 F400.000
G1 X0.000 Y-1.585 Z-3.000 F400.000
G2 X-1.585 Y0.000 Z-3.000 I0.000 J1.585 K0.000 F400.000
G1 X-1.585 Y68.000 Z-3.000 F400.000
G2 X0.000 Y69.585 Z-3.000 I1.585 J0.000 K0.000 F400.000
G1 X4.415 Y69.585 Z-3.000 F400.000
G1 X4.415 Y86.415 Z-3.000 F400.000
G1 X0.000 Y86.415 Z-3.000 F400.000
G2 X-1.585 Y88.000 Z-3.000 I0.000 J1.585 K0.000 F400.000
G1 X-1.585 Y144.000 Z-3.000 F400.000
G2 X0.000 Y145.585 Z-3.000 I1.585 J0.000 K0.000 F400.000
G1 X50.915 Y145.585 Z-3.000 F400.000
G1 X50.915 Y150.000 Z-3.000 F400.000
G2 X52.500 Y151.585 Z-3.000 I1.585 J0.000 K0.000 F400.000
G1 X72.500 Y151.585 Z-3.000 F400.000
G2 X74.085 Y150.000 Z-3.000 I0.000 J-1.585 K0.000 F400.000
G1 X74.085 Y145.585 Z-3.000 F400.000
G1 X175.915 Y145.585 Z-3.000 F400.000
G1 X175.915 Y150.000 Z-3.000 F400.000
G2 X177.500 Y151.585 Z-3.000 I1.585 J0.000 K0.000 F400.000
G1 X197.500 Y151.585 Z-3.000 F400.000
G2 X199.085 Y150.000 Z-3.000 I0.000 J-1.585 K0.000 F400.000
G1 X199.085 Y145.585 Z-3.000 F400.000
G1 X250.000 Y145.585 Z-3.000 F400.000
G2 X250.324 Y145.551 Z-3.000 I0.000 J-1.585 K0.000 F400.000
G1 X250.324 Y145.551 Z-4.000 F200.000
G2 X251.585 Y144.000 Z-4.000 I-0.324 J-1.551 K0.000 F400.000
G1 X251.585 Y83.340 Z-4.000 F400.000
G2 X250.000 Y81.755 Z-4.000 I-1.585 J0.000 K0.000 F400.000
G1 X245.617 Y81.755 Z-4.000 F400.000
G1 X245.617 Y64.925 Z-4.000 F400.000
G1 X250.000 Y64.925 Z-4.000 F400.000
G2 X251.585 Y63.340 Z-4.000 I0.000 J-1.585 K0.000 F400.000
G1 X251.585 Y0.000 Z-4.000 F400.000
G2 X250.000 Y-1.585 Z-4.000 I-1.585 J0.000 K0.000 F400.000
G1 X0.000 Y-1.585 Z-4.000 F400.000
G2 X-1.585 Y0.000 Z-4.000 I0.000 J1.585 K0.000 F400.000
G1 X-1.585 Y68.000 Z-4.000 F400.000
G2 X0.000 Y69.585 Z-4.000 I1.585 J0.000 K0.000 F400.000
G1 X4.415 Y69.585 Z-4.000 F400.000
G1 X4.415 Y86.415 Z-4.000 F400.000
G1 X0.000 Y86.415 Z-4.000 F400.000
G2 X-1.585 Y88.000 Z-4.000 I0.000 J1.585 K0.000 F400.000
G1 X-1.585 Y144.000 Z-4.000 F400.000
G2 X0.000 Y145.585 Z-4.000 I1.585 J0.000 K0.000 F400.000
G1 X50.915 Y145.585 Z-4.000 F400.000
G1 X50.915 Y150.000 Z-4.000 F400.000
G2 X52.500 Y151.585 Z-4.000 I1.585 J0.000 K0.000 F400.000
G1 X72.500 Y151.585 Z-4.000 F400.000
G2 X74.085 Y150.000 Z-4.000 I0.000 J-1.585 K0.000 F400.000
G1 X74.085 Y145.585 Z-4.000 F400.000
G1 X175.915 Y145.585 Z-4.000 F400.000
G1 X175.915 Y150.000 Z-4.000 F400.000
G2 X177.500 Y151.585 Z-4.000 I1.585 J0.000 K0.000 F400.000
G1 X197.500 Y151.585 Z-4.000 F400.000
G2 X199.085 Y150.000 Z-4.000 I0.000 J-1.585 K0.000 F400.000
G1 X199.085 Y145.585 Z-4.000 F400.000
G1 X250.000 Y145.585 Z-4.000 F400.000
G2 X250.324 Y145.551 Z-4.000 I0.000 J-1.585 K0.000 F400.000
G1 X250.324 Y145.551 Z-5.000 F200.000
G2 X251.585 Y144.000 Z-5.000 I-0.324 J-1.551 K0.000 F400.000
G1 X251.585 Y83.340 Z-5.000 F400.000
G2 X250.000 Y81.755 Z-5.000 I-1.585 J0.000 K0.000 F400.000
G1 X245.617 Y81.755 Z-5.000 F400.000
G1 X245.617 Y64.925 Z-5.000 F400.000
G1 X250.000 Y64.925 Z-5.000 F400.000
G2 X251.585 Y63.340 Z-5.000 I0.000 J-1.585 K0.000 F400.000
G1 X251.585 Y0.000 Z-5.000 F400.000
G2 X250.000 Y-1.585 Z-5.000 I-1.585 J0.000 K0.000 F400.000
G1 X0.000 Y-1.585 Z-5.000 F400.000
G2 X-1.585 Y0.000 Z-5.000 I0.000 J1.585 K0.000 F400.000
G1 X-1.585 Y68.000 Z-5.000 F400.000
G2 X0.000 Y69.585 Z-5.000 I1.585 J0.000 K0.000 F400.000
G1 X4.415 Y69.585 Z-5.000 F400.000
G1 X4.415 Y86.415 Z-5.000 F400.000
G1 X0.000 Y86.415 Z-5.000 F400.000
G2 X-1.585 Y88.000 Z-5.000 I0.000 J1.585 K0.000 F400.000
G1 X-1.585 Y144.000 Z-5.000 F400.000
G2 X0.000 Y145.585 Z-5.000 I1.585 J0.000 K0.000 F400.000
G1 X50.915 Y145.585 Z-5.000 F400.000
G1 X50.915 Y150.000 Z-5.000 F400.000
G2 X52.500 Y151.585 Z-5.000 I1.585 J0.000 K0.000 F400.000
G1 X72.500 Y151.585 Z-5.000 F400.000
G2 X74.085 Y150.000 Z-5.000 I0.000 J-1.585 K0.000 F400.000
G1 X74.085 Y145.585 Z-5.000 F400.000
G1 X175.915 Y145.585 Z-5.000 F400.000
G1 X175.915 Y150.000 Z-5.000 F400.000
G2 X177.500 Y151.585 Z-5.000 I1.585 J0.000 K0.000 F400.000
G1 X197.500 Y151.585 Z-5.000 F400.000
G2 X199.085 Y150.000 Z-5.000 I0.000 J-1.585 K0.000 F400.000
G1 X199.085 Y145.585 Z-5.000 F400.000
G1 X250.000 Y145.585 Z-5.000 F400.000
G2 X250.324 Y145.551 Z-5.000 I0.000 J-1.585 K0.000 F400.000
G1 X250.324 Y145.551 Z-6.000 F200.000
G2 X251.585 Y144.000 Z-6.000 I-0.324 J-1.551 K0.000 F400.000
G1 X251.585 Y83.340 Z-6.000 F400.000
G2 X250.000 Y81.755 Z-6.000 I-1.585 J0.000 K0.000 F400.000
G1 X245.617 Y81.755 Z-6.000 F400.000
G1 X245.617 Y64.925 Z-6.000 F400.000
G1 X250.000 Y64.925 Z-6.000 F400.000
G2 X251.585 Y63.340 Z-6.000 I0.000 J-1.585 K0.000 F400.000
G1 X251.585 Y0.000 Z-6.000 F400.000
G2 X250.000 Y-1.585 Z-6.000 I-1.585 J0.000 K0.000 F400.000
G1 X0.000 Y-1.585 Z-6.000 F400.000
G2 X-1.585 Y0.000 Z-6.000 I0.000 J1.585 K0.000 F400.000
G1 X-1.585 Y68.000 Z-6.000 F400.000
G2 X0.000 Y69.585 Z-6.000 I1.585 J0.000 K0.000 F400.000
G1 X4.415 Y69.585 Z-6.000 F400.000
G1 X4.415 Y86.415 Z-6.000 F400.000
G1 X0.000 Y86.415 Z-6.000 F400.000
G2 X-1.585 Y88.000 Z-6.000 I0.000 J1.585 K0.000 F400.000
G1 X-1.585 Y144.000 Z-6.000 F400.000
G2 X0.000 Y145.585 Z-6.000 I1.585 J0.000 K0.000 F400.000
G1 X50.915 Y145.585 Z-6.000 F400.000
G1 X50.915 Y150.000 Z-6.000 F400.000
G2 X52.500 Y151.585 Z-6.000 I1.585 J0.000 K0.000 F400.000
G1 X72.500 Y151.585 Z-6.000 F400.000
G2 X74.085 Y150.000 Z-6.000 I0.000 J-1.585 K0.000 F400.000
G1 X74.085 Y145.585 Z-6.000 F400.000
G1 X175.915 Y145.585 Z-6.000 F400.000
G1 X175.915 Y150.000 Z-6.000 F400.000
G2 X177.500 Y151.585 Z-6.000 I1.585 J0.000 K0.000 F400.000
G1 X197.500 Y151.585 Z-6.000 F400.000
G2 X199.085 Y150.000 Z-6.000 I0.000 J-1.585 K0.000 F400.000
G1 X199.085 Y145.585 Z-6.000 F400.000
G1 X250.000 Y145.585 Z-6.000 F400.000
G2 X250.324 Y145.551 Z-6.000 I0.000 J-1.585 K0.000 F400.000
G0 Z6.000
G0 Z6.000
(Finish operation: Profile)
(Begin postamble)
M5
G17 G90
M2
