(Exported by FreeCAD)
(Post Processor: grbl_post)
(Output Time:2022-12-15 10:38:41.030432)
(Begin preamble)
G17 G90
G21
(Begin operation: G54)
(Path: G54)
G54
G0 Z6.000
(Finish operation: G54)
(Begin operation: 3_endmill003)
(Path: 3_endmill003)
(3_endmill003)
(Begin toolchange)
( M6 T2 )
M3 S8000
(Finish operation: 3_endmill003)
(Begin operation: Pocket_Shape)
(Path: Pocket_Shape)
(Pocket_Shape)
G0 Z6.000
G0 X0.880 Y-46.120
G0 Z4.000
G1 X0.880 Y-46.120 Z0.000 F100.000
G3 X0.681 Y-45.958 Z0.000 I-0.880 J-0.880 K-0.000 F500.000
G3 X-0.681 Y-48.042 Z-0.000 I-0.681 J-1.042 K-0.000 F500.000
G3 X0.880 Y-46.120 Z0.000 I0.681 J1.042 K0.000 F500.000
G1 X0.880 Y-46.120 Z-1.000 F100.000
G3 X0.681 Y-45.958 Z-1.000 I-0.880 J-0.880 K0.000 F500.000
G3 X-0.681 Y-48.042 Z-1.000 I-0.681 J-1.042 K0.000 F500.000
G3 X0.880 Y-46.120 Z-1.000 I0.681 J1.042 K0.000 F500.000
G1 X0.880 Y-46.120 Z-2.000 F100.000
G3 X0.681 Y-45.958 Z-2.000 I-0.880 J-0.880 K0.000 F500.000
G3 X-0.681 Y-48.042 Z-2.000 I-0.681 J-1.042 K0.000 F500.000
G3 X0.880 Y-46.120 Z-2.000 I0.681 J1.042 K0.000 F500.000
G1 X0.880 Y-46.120 Z-3.000 F100.000
G3 X0.681 Y-45.958 Z-3.000 I-0.880 J-0.880 K0.000 F500.000
G3 X-0.681 Y-48.042 Z-3.000 I-0.681 J-1.042 K0.000 F500.000
G3 X0.880 Y-46.120 Z-3.000 I0.681 J1.042 K0.000 F500.000
G1 X0.880 Y-46.120 Z-4.000 F100.000
G3 X0.681 Y-45.958 Z-4.000 I-0.880 J-0.880 K0.000 F500.000
G3 X-0.681 Y-48.042 Z-4.000 I-0.681 J-1.042 K0.000 F500.000
G3 X0.880 Y-46.120 Z-4.000 I0.681 J1.042 K0.000 F500.000
G1 X0.880 Y-46.120 Z-5.000 F100.000
G3 X0.681 Y-45.958 Z-5.000 I-0.880 J-0.880 K0.000 F500.000
G3 X-0.681 Y-48.042 Z-5.000 I-0.681 J-1.042 K0.000 F500.000
G3 X0.880 Y-46.120 Z-5.000 I0.681 J1.042 K0.000 F500.000
G1 X0.880 Y-46.120 Z-6.000 F100.000
G3 X0.681 Y-45.958 Z-6.000 I-0.880 J-0.880 K0.000 F500.000
G3 X-0.681 Y-48.042 Z-6.000 I-0.681 J-1.042 K0.000 F500.000
G3 X0.880 Y-46.120 Z-6.000 I0.681 J1.042 K0.000 F500.000
G1 X0.880 Y-46.120 Z-7.000 F100.000
G3 X0.681 Y-45.958 Z-7.000 I-0.880 J-0.880 K0.000 F500.000
G3 X-0.681 Y-48.042 Z-7.000 I-0.681 J-1.042 K0.000 F500.000
G3 X0.880 Y-46.120 Z-7.000 I0.681 J1.042 K0.000 F500.000
G1 X0.880 Y-46.120 Z-8.000 F100.000
G3 X0.681 Y-45.958 Z-8.000 I-0.880 J-0.880 K0.000 F500.000
G3 X-0.681 Y-48.042 Z-8.000 I-0.681 J-1.042 K0.000 F500.000
G3 X0.880 Y-46.120 Z-8.000 I0.681 J1.042 K0.000 F500.000
G1 X0.880 Y-46.120 Z-9.000 F100.000
G3 X0.681 Y-45.958 Z-9.000 I-0.880 J-0.880 K0.000 F500.000
G3 X-0.681 Y-48.042 Z-9.000 I-0.681 J-1.042 K0.000 F500.000
G3 X0.880 Y-46.120 Z-9.000 I0.681 J1.042 K0.000 F500.000
G1 X0.880 Y-46.120 Z-10.000 F100.000
G3 X0.681 Y-45.958 Z-10.000 I-0.880 J-0.880 K0.000 F500.000
G3 X-0.681 Y-48.042 Z-10.000 I-0.681 J-1.042 K0.000 F500.000
G3 X0.880 Y-46.120 Z-10.000 I0.681 J1.042 K0.000 F500.000
G0 Z6.000
G0 Z6.000
G0 X0.880 Y-46.120
G0 X-46.103 Y-0.864
G0 X-46.103 Y-0.864 Z4.000
G1 X-46.103 Y-0.864 Z0.000 F100.000
G3 X-46.018 Y-0.765 Z0.000 I-0.897 J0.864 K0.000 F500.000
G3 X-46.235 Y0.982 Z0.000 I-0.982 J0.765 K0.000 F500.000
G3 X-47.982 Y0.765 Z0.000 I-0.765 J-0.982 K0.000 F500.000
G3 X-46.103 Y-0.864 Z0.000 I0.982 J-0.765 K0.000 F500.000
G1 X-46.103 Y-0.864 Z-1.000 F100.000
G3 X-46.018 Y-0.765 Z-1.000 I-0.897 J0.864 K0.000 F500.000
G3 X-46.235 Y0.982 Z-1.000 I-0.982 J0.765 K0.000 F500.000
G3 X-47.982 Y0.765 Z-1.000 I-0.765 J-0.982 K0.000 F500.000
G3 X-46.103 Y-0.864 Z-1.000 I0.982 J-0.765 K0.000 F500.000
G1 X-46.103 Y-0.864 Z-2.000 F100.000
G3 X-46.018 Y-0.765 Z-2.000 I-0.897 J0.864 K0.000 F500.000
G3 X-46.235 Y0.982 Z-2.000 I-0.982 J0.765 K0.000 F500.000
G3 X-47.982 Y0.765 Z-2.000 I-0.765 J-0.982 K0.000 F500.000
G3 X-46.103 Y-0.864 Z-2.000 I0.982 J-0.765 K0.000 F500.000
G1 X-46.103 Y-0.864 Z-3.000 F100.000
G3 X-46.018 Y-0.765 Z-3.000 I-0.897 J0.864 K0.000 F500.000
G3 X-46.235 Y0.982 Z-3.000 I-0.982 J0.765 K0.000 F500.000
G3 X-47.982 Y0.765 Z-3.000 I-0.765 J-0.982 K0.000 F500.000
G3 X-46.103 Y-0.864 Z-3.000 I0.982 J-0.765 K0.000 F500.000
G1 X-46.103 Y-0.864 Z-4.000 F100.000
G3 X-46.018 Y-0.765 Z-4.000 I-0.897 J0.864 K0.000 F500.000
G3 X-46.235 Y0.982 Z-4.000 I-0.982 J0.765 K0.000 F500.000
G3 X-47.982 Y0.765 Z-4.000 I-0.765 J-0.982 K0.000 F500.000
G3 X-46.103 Y-0.864 Z-4.000 I0.982 J-0.765 K0.000 F500.000
G1 X-46.103 Y-0.864 Z-5.000 F100.000
G3 X-46.018 Y-0.765 Z-5.000 I-0.897 J0.864 K0.000 F500.000
G3 X-46.235 Y0.982 Z-5.000 I-0.982 J0.765 K0.000 F500.000
G3 X-47.982 Y0.765 Z-5.000 I-0.765 J-0.982 K0.000 F500.000
G3 X-46.103 Y-0.864 Z-5.000 I0.982 J-0.765 K0.000 F500.000
G1 X-46.103 Y-0.864 Z-6.000 F100.000
G3 X-46.018 Y-0.765 Z-6.000 I-0.897 J0.864 K0.000 F500.000
G3 X-46.235 Y0.982 Z-6.000 I-0.982 J0.765 K0.000 F500.000
G3 X-47.982 Y0.765 Z-6.000 I-0.765 J-0.982 K0.000 F500.000
G3 X-46.103 Y-0.864 Z-6.000 I0.982 J-0.765 K0.000 F500.000
G1 X-46.103 Y-0.864 Z-7.000 F100.000
G3 X-46.018 Y-0.765 Z-7.000 I-0.897 J0.864 K0.000 F500.000
G3 X-46.235 Y0.982 Z-7.000 I-0.982 J0.765 K0.000 F500.000
G3 X-47.982 Y0.765 Z-7.000 I-0.765 J-0.982 K0.000 F500.000
G3 X-46.103 Y-0.864 Z-7.000 I0.982 J-0.765 K0.000 F500.000
G1 X-46.103 Y-0.864 Z-8.000 F100.000
G3 X-46.018 Y-0.765 Z-8.000 I-0.897 J0.864 K0.000 F500.000
G3 X-46.235 Y0.982 Z-8.000 I-0.982 J0.765 K0.000 F500.000
G3 X-47.982 Y0.765 Z-8.000 I-0.765 J-0.982 K0.000 F500.000
G3 X-46.103 Y-0.864 Z-8.000 I0.982 J-0.765 K0.000 F500.000
G1 X-46.103 Y-0.864 Z-9.000 F100.000
G3 X-46.018 Y-0.765 Z-9.000 I-0.897 J0.864 K0.000 F500.000
G3 X-46.235 Y0.982 Z-9.000 I-0.982 J0.765 K0.000 F500.000
G3 X-47.982 Y0.765 Z-9.000 I-0.765 J-0.982 K0.000 F500.000
G3 X-46.103 Y-0.864 Z-9.000 I0.982 J-0.765 K0.000 F500.000
G1 X-46.103 Y-0.864 Z-10.000 F100.000
G3 X-46.018 Y-0.765 Z-10.000 I-0.897 J0.864 K0.000 F500.000
G3 X-46.235 Y0.982 Z-10.000 I-0.982 J0.765 K0.000 F500.000
G3 X-47.982 Y0.765 Z-10.000 I-0.765 J-0.982 K0.000 F500.000
G3 X-46.103 Y-0.864 Z-10.000 I0.982 J-0.765 K0.000 F500.000
G0 Z6.000
G0 Z6.000
G0 X-46.103 Y-0.864
G0 X-0.864 Y46.103
G0 X-0.864 Y46.103 Z4.000
G1 X-0.864 Y46.103 Z0.000 F100.000
G3 X-0.681 Y45.958 Z0.000 I0.864 J0.897 K-0.000 F500.000
G3 X0.681 Y48.042 Z-0.000 I0.681 J1.042 K-0.000 F500.000
G3 X-0.864 Y46.103 Z0.000 I-0.681 J-1.042 K0.000 F500.000
G1 X-0.864 Y46.103 Z-1.000 F100.000
G3 X-0.681 Y45.958 Z-1.000 I0.864 J0.897 K0.000 F500.000
G3 X0.681 Y48.042 Z-1.000 I0.681 J1.042 K0.000 F500.000
G3 X-0.864 Y46.103 Z-1.000 I-0.681 J-1.042 K0.000 F500.000
G1 X-0.864 Y46.103 Z-2.000 F100.000
G3 X-0.681 Y45.958 Z-2.000 I0.864 J0.897 K0.000 F500.000
G3 X0.681 Y48.042 Z-2.000 I0.681 J1.042 K0.000 F500.000
G3 X-0.864 Y46.103 Z-2.000 I-0.681 J-1.042 K0.000 F500.000
G1 X-0.864 Y46.103 Z-3.000 F100.000
G3 X-0.681 Y45.958 Z-3.000 I0.864 J0.897 K0.000 F500.000
G3 X0.681 Y48.042 Z-3.000 I0.681 J1.042 K0.000 F500.000
G3 X-0.864 Y46.103 Z-3.000 I-0.681 J-1.042 K0.000 F500.000
G1 X-0.864 Y46.103 Z-4.000 F100.000
G3 X-0.681 Y45.958 Z-4.000 I0.864 J0.897 K0.000 F500.000
G3 X0.681 Y48.042 Z-4.000 I0.681 J1.042 K0.000 F500.000
G3 X-0.864 Y46.103 Z-4.000 I-0.681 J-1.042 K0.000 F500.000
G1 X-0.864 Y46.103 Z-5.000 F100.000
G3 X-0.681 Y45.958 Z-5.000 I0.864 J0.897 K0.000 F500.000
G3 X0.681 Y48.042 Z-5.000 I0.681 J1.042 K0.000 F500.000
G3 X-0.864 Y46.103 Z-5.000 I-0.681 J-1.042 K0.000 F500.000
G1 X-0.864 Y46.103 Z-6.000 F100.000
G3 X-0.681 Y45.958 Z-6.000 I0.864 J0.897 K0.000 F500.000
G3 X0.681 Y48.042 Z-6.000 I0.681 J1.042 K0.000 F500.000
G3 X-0.864 Y46.103 Z-6.000 I-0.681 J-1.042 K0.000 F500.000
G1 X-0.864 Y46.103 Z-7.000 F100.000
G3 X-0.681 Y45.958 Z-7.000 I0.864 J0.897 K0.000 F500.000
G3 X0.681 Y48.042 Z-7.000 I0.681 J1.042 K0.000 F500.000
G3 X-0.864 Y46.103 Z-7.000 I-0.681 J-1.042 K0.000 F500.000
G1 X-0.864 Y46.103 Z-8.000 F100.000
G3 X-0.681 Y45.958 Z-8.000 I0.864 J0.897 K0.000 F500.000
G3 X0.681 Y48.042 Z-8.000 I0.681 J1.042 K0.000 F500.000
G3 X-0.864 Y46.103 Z-8.000 I-0.681 J-1.042 K0.000 F500.000
G1 X-0.864 Y46.103 Z-9.000 F100.000
G3 X-0.681 Y45.958 Z-9.000 I0.864 J0.897 K0.000 F500.000
G3 X0.681 Y48.042 Z-9.000 I0.681 J1.042 K0.000 F500.000
G3 X-0.864 Y46.103 Z-9.000 I-0.681 J-1.042 K0.000 F500.000
G1 X-0.864 Y46.103 Z-10.000 F100.000
G3 X-0.681 Y45.958 Z-10.000 I0.864 J0.897 K0.000 F500.000
G3 X0.681 Y48.042 Z-10.000 I0.681 J1.042 K0.000 F500.000
G3 X-0.864 Y46.103 Z-10.000 I-0.681 J-1.042 K0.000 F500.000
G0 Z6.000
G0 Z6.000
G0 X-0.864 Y46.103
G0 X46.103 Y0.864
G0 X46.103 Y0.864 Z4.000
G1 X46.103 Y0.864 Z0.000 F100.000
G3 X46.018 Y0.765 Z0.000 I0.897 J-0.864 K0.000 F500.000
G3 X46.235 Y-0.982 Z0.000 I0.982 J-0.765 K0.000 F500.000
G3 X47.982 Y-0.765 Z0.000 I0.765 J0.982 K0.000 F500.000
G3 X46.103 Y0.864 Z0.000 I-0.982 J0.765 K0.000 F500.000
G1 X46.103 Y0.864 Z-1.000 F100.000
G3 X46.018 Y0.765 Z-1.000 I0.897 J-0.864 K0.000 F500.000
G3 X46.235 Y-0.982 Z-1.000 I0.982 J-0.765 K0.000 F500.000
G3 X47.982 Y-0.765 Z-1.000 I0.765 J0.982 K0.000 F500.000
G3 X46.103 Y0.864 Z-1.000 I-0.982 J0.765 K0.000 F500.000
G1 X46.103 Y0.864 Z-2.000 F100.000
G3 X46.018 Y0.765 Z-2.000 I0.897 J-0.864 K0.000 F500.000
G3 X46.235 Y-0.982 Z-2.000 I0.982 J-0.765 K0.000 F500.000
G3 X47.982 Y-0.765 Z-2.000 I0.765 J0.982 K0.000 F500.000
G3 X46.103 Y0.864 Z-2.000 I-0.982 J0.765 K0.000 F500.000
G1 X46.103 Y0.864 Z-3.000 F100.000
G3 X46.018 Y0.765 Z-3.000 I0.897 J-0.864 K0.000 F500.000
G3 X46.235 Y-0.982 Z-3.000 I0.982 J-0.765 K0.000 F500.000
G3 X47.982 Y-0.765 Z-3.000 I0.765 J0.982 K0.000 F500.000
G3 X46.103 Y0.864 Z-3.000 I-0.982 J0.765 K0.000 F500.000
G1 X46.103 Y0.864 Z-4.000 F100.000
G3 X46.018 Y0.765 Z-4.000 I0.897 J-0.864 K0.000 F500.000
G3 X46.235 Y-0.982 Z-4.000 I0.982 J-0.765 K0.000 F500.000
G3 X47.982 Y-0.765 Z-4.000 I0.765 J0.982 K0.000 F500.000
G3 X46.103 Y0.864 Z-4.000 I-0.982 J0.765 K0.000 F500.000
G1 X46.103 Y0.864 Z-5.000 F100.000
G3 X46.018 Y0.765 Z-5.000 I0.897 J-0.864 K0.000 F500.000
G3 X46.235 Y-0.982 Z-5.000 I0.982 J-0.765 K0.000 F500.000
G3 X47.982 Y-0.765 Z-5.000 I0.765 J0.982 K0.000 F500.000
G3 X46.103 Y0.864 Z-5.000 I-0.982 J0.765 K0.000 F500.000
G1 X46.103 Y0.864 Z-6.000 F100.000
G3 X46.018 Y0.765 Z-6.000 I0.897 J-0.864 K0.000 F500.000
G3 X46.235 Y-0.982 Z-6.000 I0.982 J-0.765 K0.000 F500.000
G3 X47.982 Y-0.765 Z-6.000 I0.765 J0.982 K0.000 F500.000
G3 X46.103 Y0.864 Z-6.000 I-0.982 J0.765 K0.000 F500.000
G1 X46.103 Y0.864 Z-7.000 F100.000
G3 X46.018 Y0.765 Z-7.000 I0.897 J-0.864 K0.000 F500.000
G3 X46.235 Y-0.982 Z-7.000 I0.982 J-0.765 K0.000 F500.000
G3 X47.982 Y-0.765 Z-7.000 I0.765 J0.982 K0.000 F500.000
G3 X46.103 Y0.864 Z-7.000 I-0.982 J0.765 K0.000 F500.000
G1 X46.103 Y0.864 Z-8.000 F100.000
G3 X46.018 Y0.765 Z-8.000 I0.897 J-0.864 K0.000 F500.000
G3 X46.235 Y-0.982 Z-8.000 I0.982 J-0.765 K0.000 F500.000
G3 X47.982 Y-0.765 Z-8.000 I0.765 J0.982 K0.000 F500.000
G3 X46.103 Y0.864 Z-8.000 I-0.982 J0.765 K0.000 F500.000
G1 X46.103 Y0.864 Z-9.000 F100.000
G3 X46.018 Y0.765 Z-9.000 I0.897 J-0.864 K0.000 F500.000
G3 X46.235 Y-0.982 Z-9.000 I0.982 J-0.765 K0.000 F500.000
G3 X47.982 Y-0.765 Z-9.000 I0.765 J0.982 K0.000 F500.000
G3 X46.103 Y0.864 Z-9.000 I-0.982 J0.765 K0.000 F500.000
G1 X46.103 Y0.864 Z-10.000 F100.000
G3 X46.018 Y0.765 Z-10.000 I0.897 J-0.864 K0.000 F500.000
G3 X46.235 Y-0.982 Z-10.000 I0.982 J-0.765 K0.000 F500.000
G3 X47.982 Y-0.765 Z-10.000 I0.765 J0.982 K0.000 F500.000
G3 X46.103 Y0.864 Z-10.000 I-0.982 J0.765 K0.000 F500.000
G0 Z6.000
G0 Z6.000
(Finish operation: Pocket_Shape)
(Begin operation: Profile)
(Path: Profile)
(Profile)
(Compensated Tool Path. Diameter: 3.0)
G0 Z6.000
G0 X25.456 Y25.456
G0 Z4.000
G1 X25.456 Y25.456 Z0.000 F100.000
G2 X2.433 Y-35.917 Z0.000 I-25.456 J-25.456 K0.000 F500.000
G2 X-35.917 Y-2.433 Z0.000 I-2.433 J35.917 K0.000 F500.000
G2 X-2.433 Y35.917 Z0.000 I35.917 J2.433 K0.000 F500.000
G2 X25.456 Y25.456 Z0.000 I2.433 J-35.917 K0.000 F500.000
G1 X25.456 Y25.456 Z-1.000 F100.000
G2 X2.433 Y-35.917 Z-1.000 I-25.456 J-25.456 K0.000 F500.000
G2 X-35.917 Y-2.433 Z-1.000 I-2.433 J35.917 K0.000 F500.000
G2 X-2.433 Y35.917 Z-1.000 I35.917 J2.433 K0.000 F500.000
G2 X25.456 Y25.456 Z-1.000 I2.433 J-35.917 K0.000 F500.000
G1 X25.456 Y25.456 Z-2.000 F100.000
G2 X2.433 Y-35.917 Z-2.000 I-25.456 J-25.456 K0.000 F500.000
G2 X-35.917 Y-2.433 Z-2.000 I-2.433 J35.917 K0.000 F500.000
G2 X-2.433 Y35.917 Z-2.000 I35.917 J2.433 K0.000 F500.000
G2 X25.456 Y25.456 Z-2.000 I2.433 J-35.917 K0.000 F500.000
G1 X25.456 Y25.456 Z-3.000 F100.000
G2 X2.433 Y-35.917 Z-3.000 I-25.456 J-25.456 K0.000 F500.000
G2 X-35.917 Y-2.433 Z-3.000 I-2.433 J35.917 K0.000 F500.000
G2 X-2.433 Y35.917 Z-3.000 I35.917 J2.433 K0.000 F500.000
G2 X25.456 Y25.456 Z-3.000 I2.433 J-35.917 K0.000 F500.000
G1 X25.456 Y25.456 Z-4.000 F100.000
G2 X2.433 Y-35.917 Z-4.000 I-25.456 J-25.456 K0.000 F500.000
G2 X-35.917 Y-2.433 Z-4.000 I-2.433 J35.917 K0.000 F500.000
G2 X-2.433 Y35.917 Z-4.000 I35.917 J2.433 K0.000 F500.000
G2 X25.456 Y25.456 Z-4.000 I2.433 J-35.917 K0.000 F500.000
G1 X25.456 Y25.456 Z-5.000 F100.000
G2 X2.433 Y-35.917 Z-5.000 I-25.456 J-25.456 K0.000 F500.000
G2 X-35.917 Y-2.433 Z-5.000 I-2.433 J35.917 K0.000 F500.000
G2 X-2.433 Y35.917 Z-5.000 I35.917 J2.433 K0.000 F500.000
G2 X25.456 Y25.456 Z-5.000 I2.433 J-35.917 K0.000 F500.000
G1 X25.456 Y25.456 Z-6.000 F100.000
G2 X2.433 Y-35.917 Z-6.000 I-25.456 J-25.456 K0.000 F500.000
G2 X-35.917 Y-2.433 Z-6.000 I-2.433 J35.917 K0.000 F500.000
G2 X-2.433 Y35.917 Z-6.000 I35.917 J2.433 K0.000 F500.000
G2 X25.456 Y25.456 Z-6.000 I2.433 J-35.917 K0.000 F500.000
G1 X25.456 Y25.456 Z-7.000 F100.000
G2 X2.433 Y-35.917 Z-7.000 I-25.456 J-25.456 K0.000 F500.000
G2 X-35.917 Y-2.433 Z-7.000 I-2.433 J35.917 K0.000 F500.000
G2 X-2.433 Y35.917 Z-7.000 I35.917 J2.433 K0.000 F500.000
G2 X25.456 Y25.456 Z-7.000 I2.433 J-35.917 K0.000 F500.000
G1 X25.456 Y25.456 Z-8.000 F100.000
G2 X2.433 Y-35.917 Z-8.000 I-25.456 J-25.456 K0.000 F500.000
G2 X-35.917 Y-2.433 Z-8.000 I-2.433 J35.917 K0.000 F500.000
G2 X-2.433 Y35.917 Z-8.000 I35.917 J2.433 K0.000 F500.000
G2 X25.456 Y25.456 Z-8.000 I2.433 J-35.917 K0.000 F500.000
G1 X25.456 Y25.456 Z-9.000 F100.000
G2 X2.433 Y-35.917 Z-9.000 I-25.456 J-25.456 K0.000 F500.000
G2 X-35.917 Y-2.433 Z-9.000 I-2.433 J35.917 K0.000 F500.000
G2 X-2.433 Y35.917 Z-9.000 I35.917 J2.433 K0.000 F500.000
G2 X25.456 Y25.456 Z-9.000 I2.433 J-35.917 K0.000 F500.000
G1 X25.456 Y25.456 Z-10.000 F100.000
G2 X2.433 Y-35.917 Z-10.000 I-25.456 J-25.456 K0.000 F500.000
G2 X-35.917 Y-2.433 Z-10.000 I-2.433 J35.917 K0.000 F500.000
G2 X-2.433 Y35.917 Z-10.000 I35.917 J2.433 K0.000 F500.000
G2 X25.456 Y25.456 Z-10.000 I2.433 J-35.917 K0.000 F500.000
G0 Z6.000
G0 Z6.000
(Finish operation: Profile)
(Begin postamble)
M5
G17 G90
M2
